<?xml version="1.0"?>
<VTKFile type="ImageData" version="0.1" byte_order="LittleEndian">
  <ImageData WholeExtent="0 19 0 19 0 0" Origin="0 0 0" Spacing="1 1 1">
    <Piece Extent="0 19 0 19 0 0">
      <PointData Scalars="Loss">
        <DataArray type="Float64" Name="Loss" format="ascii">
          6.38754504e+00 5.88840525e+00 5.38210762e+00 4.94540029e+00 4.58378442e+00 4.33779170e+00 4.15679707e+00 4.03281418e+00 4.05933928e+00 4.04827391e+00 4.14081560e+00 4.32565254e+00 4.61081424e+00 4.95516652e+00 5.27363743e+00 5.76820586e+00 6.37148247e+00 6.98129931e+00 7.68857961e+00 8.50114528e+00 6.34358788e+00 5.74894777e+00 5.25060108e+00 4.79431070e+00 4.46208242e+00 4.20392612e+00 3.98373374e+00 3.90265229e+00 3.86786528e+00 3.83374134e+00 3.89939152e+00 4.13301679e+00 4.36243476e+00 4.66522519e+00 5.05450163e+00 5.50468875e+00 6.03446402e+00 6.63777841e+00 7.38241157e+00 8.14325968e+00 6.20850960e+00 5.62915307e+00 5.14647854e+00 4.69604635e+00 4.37118905e+00 4.09072902e+00 3.78488448e+00 3.76237167e+00 3.58088217e+00 3.64985257e+00 3.75504757e+00 3.90914024e+00 4.13546252e+00 4.43034816e+00 4.80978713e+00 5.31047710e+00 5.76234707e+00 6.39454056e+00 7.05848631e+00 7.86771339e+00 6.18911324e+00 5.53553492e+00 5.07544654e+00 4.62917701e+00 4.20657088e+00 3.92135242e+00 3.73672228e+00 3.52022322e+00 3.49907359e+00 3.45932935e+00 3.55228810e+00 3.71574295e+00 3.91626934e+00 4.16926688e+00 4.56924851e+00 4.97316260e+00 5.54708596e+00 6.14258727e+00 6.77748646e+00 7.57250638e+00 6.09444852e+00 5.51026761e+00 4.99748535e+00 4.50523226e+00 4.09920368e+00 3.84242487e+00 3.63379055e+00 3.44791098e+00 3.37084075e+00 3.39375748e+00 3.40949793e+00 3.53286858e+00 3.77260655e+00 4.08699188e+00 4.38846739e+00 4.76300127e+00 5.31927605e+00 5.90463342e+00 6.52213772e+00 7.32169032e+00 6.09839865e+00 5.45640823e+00 4.93945122e+00 4.49856136e+00 4.04925576e+00 3.76335054e+00 3.51629662e+00 3.37710987e+00 3.25398333e+00 3.23297104e+00 3.29807586e+00 3.45711926e+00 3.62902938e+00 3.92602427e+00 4.18210365e+00 4.65870455e+00 5.10364729e+00 5.74374658e+00 6.33541355e+00 7.05061920e+00 6.10438028e+00 5.53395630e+00 4.95222520e+00 4.49555562e+00 4.05256104e+00 3.72566012e+00 3.50440838e+00 3.35126451e+00 3.18297187e+00 3.19607477e+00 3.23366673e+00 3.34847263e+00 3.49536410e+00 3.71203117e+00 4.13207481e+00 4.52369249e+00 4.97177725e+00 5.53146054e+00 6.16487987e+00 6.84202150e+00 6.09809191e+00 5.53291658e+00 4.93353045e+00 4.46986932e+00 4.08610672e+00 3.64236825e+00 3.43397275e+00 3.21043520e+00 3.14075462e+00 3.11458160e+00 3.12741152e+00 3.24879852e+00 3.37646206e+00 3.63176804e+00 3.94452641e+00 4.34160860e+00 4.84988489e+00 5.34510817e+00 5.95263852e+00 6.70520433e+00 6.24558869e+00 5.55208478e+00 4.95382956e+00 4.47303001e+00 4.10410015e+00 3.67367676e+00 3.40776837e+00 3.24371905e+00 3.14440492e+00 2.98812112e+00 3.09134511e+00 3.11162524e+00 3.25034295e+00 3.55596276e+00 3.81918090e+00 4.24137800e+00 4.65784277e+00 5.19284881e+00 5.78456022e+00 6.50959416e+00 6.30811247e+00 5.64254442e+00 5.05670610e+00 4.55626837e+00 4.10919015e+00 3.72716047e+00 3.45833976e+00 3.20158385e+00 3.04266454e+00 2.86823393e+00 2.87625125e+00 3.09340547e+00 3.24747841e+00 3.52834035e+00 3.80090250e+00 4.17910496e+00 4.63127752e+00 5.06253909e+00 5.73484038e+00 6.40983195e+00 6.42210879e+00 5.68257512e+00 5.08816492e+00 4.63440648e+00 4.17248435e+00 3.79447109e+00 3.52750160e+00 3.32345876e+00 3.11840891e+00 2.90164509e+00 2.86008807e+00 3.10480726e+00 3.28623065e+00 3.43107256e+00 3.74529911e+00 4.10225782e+00 4.50903820e+00 5.03626421e+00 5.62012235e+00 6.27571800e+00 6.49052333e+00 5.80804521e+00 5.23617961e+00 4.70083724e+00 4.19880956e+00 3.88522947e+00 3.52294314e+00 3.31654418e+00 3.13906063e+00 3.05339350e+00 3.05183756e+00 3.15019925e+00 3.24098010e+00 3.42762147e+00 3.69257430e+00 4.06386814e+00 4.48234581e+00 5.00847441e+00 5.56604062e+00 6.22885352e+00 6.65241513e+00 6.00772730e+00 5.35758177e+00 4.78601190e+00 4.35770248e+00 3.98227011e+00 3.58164025e+00 3.42092951e+00 3.17444558e+00 3.11230950e+00 3.07443552e+00 3.14066329e+00 3.25650954e+00 3.49736193e+00 3.71864312e+00 4.01799655e+00 4.42847176e+00 4.91128286e+00 5.46418755e+00 6.07351347e+00 6.86984351e+00 6.09625502e+00 5.48668253e+00 5.00324270e+00 4.47690559e+00 4.00222302e+00 3.70865240e+00 3.50200356e+00 3.28143225e+00 3.17365189e+00 3.11629872e+00 3.19111507e+00 3.23467111e+00 3.46627254e+00 3.69926011e+00 4.10903060e+00 4.41676980e+00 4.92631258e+00 5.50130742e+00 6.09455958e+00 7.07994508e+00 6.32659361e+00 5.72010220e+00 5.10977575e+00 4.60683267e+00 4.18284929e+00 3.88187484e+00 3.62558909e+00 3.43716182e+00 3.31272055e+00 3.23631270e+00 3.27530632e+00 3.33833039e+00 3.56737470e+00 3.82195578e+00 4.10781768e+00 4.48450855e+00 4.91894490e+00 5.43867592e+00 6.10581707e+00 7.28182034e+00 6.51392470e+00 5.85641190e+00 5.37849354e+00 4.84417594e+00 4.36134489e+00 4.02940141e+00 3.69942416e+00 3.58049609e+00 3.39014317e+00 3.35305222e+00 3.39982863e+00 3.44105555e+00 3.62279572e+00 3.79324771e+00 4.08009186e+00 4.46551976e+00 4.98114348e+00 5.44130017e+00 6.13676061e+00 7.56000182e+00 6.75950656e+00 6.13203093e+00 5.56780102e+00 5.04608136e+00 4.57887535e+00 4.18690993e+00 3.89002951e+00 3.71561451e+00 3.53228216e+00 3.47396188e+00 3.47699583e+00 3.60457432e+00 3.73211942e+00 3.94052855e+00 4.20992993e+00 4.58159256e+00 5.03078733e+00 5.51162650e+00 6.14292306e+00 7.76457356e+00 7.00561223e+00 6.36591525e+00 5.78420222e+00 5.25517197e+00 4.78177759e+00 4.40214368e+00 4.11872097e+00 3.80569699e+00 3.77160990e+00 3.66486871e+00 3.60839247e+00 3.66375226e+00 3.82627105e+00 4.04409841e+00 4.36840815e+00 4.68473742e+00 5.09901292e+00 5.59246146e+00 6.18719153e+00 8.08190620e+00 7.28415520e+00 6.59357732e+00 6.00602585e+00 5.54782617e+00 5.03111787e+00 4.63713391e+00 4.36635990e+00 4.08257440e+00 3.93468148e+00 3.82527985e+00 3.78727602e+00 3.84464291e+00 4.05416099e+00 4.24071944e+00 4.48090215e+00 4.73152507e+00 5.19226131e+00 5.70060688e+00 6.22474792e+00 8.36837655e+00 7.62426546e+00 6.92939716e+00 6.31088519e+00 5.76608975e+00 5.33318641e+00 4.89803139e+00 4.53763910e+00 4.31822169e+00 4.11324841e+00 4.00574120e+00 3.99208072e+00 4.07454876e+00 4.10686312e+00 4.39029901e+00 4.58913932e+00 4.92312977e+00 5.35652023e+00 5.79363549e+00 6.38178584e+00
        </DataArray>
      </PointData>
    </Piece>
  </ImageData>
</VTKFile>
