<?xml version="1.0"?>
<VTKFile type="ImageData" version="0.1" byte_order="LittleEndian">
  <ImageData WholeExtent="0 19 0 19 0 0" Origin="0 0 0" Spacing="1 1 1">
    <Piece Extent="0 19 0 19 0 0">
      <PointData Scalars="Loss">
        <DataArray type="Float64" Name="Loss" format="ascii">
          6.23248202e+00 5.72565652e+00 5.29728793e+00 4.86566465e+00 4.55930068e+00 4.29761500e+00 4.14896225e+00 4.05052463e+00 4.02413032e+00 3.99963153e+00 4.09543352e+00 4.34138534e+00 4.61870628e+00 4.94831876e+00 5.32420583e+00 5.78956770e+00 6.31219369e+00 6.94460247e+00 7.69046481e+00 8.39294741e+00 6.21580830e+00 5.64523751e+00 5.13153519e+00 4.81408790e+00 4.45631281e+00 4.14077964e+00 3.91376072e+00 3.85913658e+00 3.76755199e+00 3.86174072e+00 3.95938287e+00 4.06969211e+00 4.31097268e+00 4.69403343e+00 5.04804002e+00 5.50400822e+00 6.04627264e+00 6.62521688e+00 7.32284981e+00 8.03325475e+00 6.06238785e+00 5.50489980e+00 5.03161819e+00 4.65806447e+00 4.27804547e+00 4.03654647e+00 3.82601837e+00 3.67773346e+00 3.60395867e+00 3.66156263e+00 3.72199691e+00 3.93683646e+00 4.13528731e+00 4.46953714e+00 4.82640827e+00 5.26843727e+00 5.78495132e+00 6.44268112e+00 7.05477458e+00 7.76279415e+00 6.03251452e+00 5.45662711e+00 4.98573534e+00 4.52110017e+00 4.15355488e+00 3.88983821e+00 3.66746633e+00 3.54667833e+00 3.49189356e+00 3.48373276e+00 3.59388154e+00 3.69200859e+00 3.96435697e+00 4.18919918e+00 4.55387243e+00 5.05530382e+00 5.51104687e+00 6.10502827e+00 6.66021143e+00 7.48521360e+00 5.96043470e+00 5.47021018e+00 4.92846949e+00 4.48432331e+00 4.08390063e+00 3.78116835e+00 3.56858431e+00 3.42041549e+00 3.36992948e+00 3.35728880e+00 3.41351644e+00 3.53963290e+00 3.73908476e+00 4.06078667e+00 4.34608728e+00 4.77071649e+00 5.31538616e+00 5.89649409e+00 6.48759459e+00 7.18163690e+00 6.00397046e+00 5.36176600e+00 4.87467876e+00 4.41677759e+00 4.02954247e+00 3.73522248e+00 3.48292435e+00 3.31716542e+00 3.19801704e+00 3.25096223e+00 3.27939708e+00 3.37608797e+00 3.62123003e+00 3.87091222e+00 4.17764294e+00 4.62857066e+00 5.14047502e+00 5.66466470e+00 6.33952955e+00 6.98324413e+00 6.04512782e+00 5.37959874e+00 4.84526790e+00 4.40153002e+00 4.01572196e+00 3.70936396e+00 3.47717966e+00 3.25852744e+00 3.17841661e+00 3.15090799e+00 3.16023995e+00 3.29650309e+00 3.50714563e+00 3.74949828e+00 4.07490660e+00 4.47172381e+00 4.91306595e+00 5.49933316e+00 6.08508562e+00 6.77860460e+00 6.04420558e+00 5.40121749e+00 4.83358858e+00 4.33284688e+00 3.99576927e+00 3.61425171e+00 3.41606945e+00 3.24447662e+00 3.13291786e+00 3.09378426e+00 3.10911488e+00 3.15675778e+00 3.35048841e+00 3.58952810e+00 3.94423104e+00 4.32214245e+00 4.77262660e+00 5.26644130e+00 5.93594935e+00 6.60505660e+00 6.13125183e+00 5.47163318e+00 4.90069058e+00 4.47100512e+00 3.97439348e+00 3.64584358e+00 3.38776169e+00 3.23281183e+00 3.06992306e+00 3.02484515e+00 3.01823253e+00 3.10839572e+00 3.30836273e+00 3.48234682e+00 3.82374381e+00 4.18622592e+00 4.63919424e+00 5.14472901e+00 5.72744496e+00 6.42880064e+00 6.20865431e+00 5.53471264e+00 4.96735478e+00 4.45047112e+00 4.01977564e+00 3.66847817e+00 3.40182750e+00 3.21891079e+00 3.08813736e+00 2.77291167e+00 2.80129801e+00 3.07214895e+00 3.26053493e+00 3.45089937e+00 3.71205724e+00 4.08924423e+00 4.54780788e+00 5.08333082e+00 5.65223748e+00 6.27381843e+00 6.27147602e+00 5.66040905e+00 5.06521294e+00 4.52785610e+00 4.08745362e+00 3.80670823e+00 3.43553291e+00 3.21120957e+00 3.13244780e+00 2.77563971e+00 2.82664071e+00 3.08205484e+00 3.19743308e+00 3.44408415e+00 3.68893657e+00 4.03405942e+00 4.44460690e+00 4.97270979e+00 5.51697951e+00 6.20032663e+00 6.44549677e+00 5.76006027e+00 5.22095020e+00 4.66204144e+00 4.21759094e+00 3.79750433e+00 3.49407783e+00 3.28924325e+00 3.11032125e+00 3.04122690e+00 3.00117618e+00 3.06500290e+00 3.23486038e+00 3.38795404e+00 3.67060801e+00 3.96922151e+00 4.40829878e+00 4.95017561e+00 5.45800756e+00 6.09371818e+00 6.60701632e+00 5.88122365e+00 5.30240350e+00 4.70208311e+00 4.29722313e+00 3.91967063e+00 3.64728028e+00 3.31674890e+00 3.19440984e+00 3.12592440e+00 3.08082288e+00 3.10031355e+00 3.24441437e+00 3.42609979e+00 3.65709995e+00 4.02724939e+00 4.42634665e+00 4.86967003e+00 5.43071253e+00 6.07067172e+00 6.77908349e+00 6.12921059e+00 5.53672343e+00 4.88152339e+00 4.46320163e+00 4.06140453e+00 3.70912426e+00 3.48643635e+00 3.34134942e+00 3.15534228e+00 3.13635345e+00 3.16915956e+00 3.24200927e+00 3.46434710e+00 3.70662561e+00 3.96452599e+00 4.36604985e+00 4.84243419e+00 5.38852371e+00 6.01340909e+00 6.92344172e+00 6.30826621e+00 5.65015378e+00 5.07621510e+00 4.69314798e+00 4.26013062e+00 3.82133219e+00 3.58884302e+00 3.38141470e+00 3.25171260e+00 3.22740593e+00 3.24661427e+00 3.31351009e+00 3.45304097e+00 3.71573783e+00 4.04585131e+00 4.40407779e+00 4.86106521e+00 5.37089256e+00 5.94663195e+00 7.18564292e+00 6.52222454e+00 5.91699737e+00 5.31398711e+00 4.80276993e+00 4.36807269e+00 4.04800623e+00 3.73935723e+00 3.52497984e+00 3.35989070e+00 3.33836628e+00 3.32720409e+00 3.42439189e+00 3.55845205e+00 3.83567674e+00 4.07243438e+00 4.46623569e+00 4.86811078e+00 5.39551336e+00 5.91490149e+00 7.46095455e+00 6.68641304e+00 6.10760470e+00 5.50520467e+00 4.95736081e+00 4.58896409e+00 4.21258780e+00 3.90843889e+00 3.66742932e+00 3.54989467e+00 3.43622005e+00 3.47900853e+00 3.51346416e+00 3.65753766e+00 3.95108010e+00 4.17743236e+00 4.51477533e+00 4.94311656e+00 5.43466038e+00 6.03963015e+00 7.76235770e+00 7.04319588e+00 6.36111007e+00 5.74773256e+00 5.22333222e+00 4.85783315e+00 4.43459342e+00 4.15815079e+00 3.89677207e+00 3.71533722e+00 3.59409608e+00 3.65229606e+00 3.63355044e+00 3.88616357e+00 3.97949406e+00 4.28398175e+00 4.63966910e+00 5.02408762e+00 5.48342476e+00 6.04958531e+00 8.11922394e+00 7.34706714e+00 6.63307022e+00 6.08801691e+00 5.50300109e+00 5.10439404e+00 4.70410974e+00 4.37287185e+00 4.11431073e+00 3.95613931e+00 3.87337345e+00 3.83554709e+00 3.88213554e+00 3.98806118e+00 4.15804884e+00 4.42518657e+00 4.77269398e+00 5.12301879e+00 5.61015054e+00 6.20322066e+00 8.37613691e+00 7.62317507e+00 6.98068375e+00 6.35036503e+00 5.76876382e+00 5.31495193e+00 4.90165103e+00 4.63278695e+00 4.35863102e+00 4.18270097e+00 4.03519555e+00 4.00894574e+00 4.03229428e+00 4.20620747e+00 4.33928904e+00 4.59222641e+00 4.91891143e+00 5.23275246e+00 5.72884402e+00 6.24013091e+00
        </DataArray>
      </PointData>
    </Piece>
  </ImageData>
</VTKFile>
