<?xml version="1.0"?>
<VTKFile type="ImageData" version="0.1" byte_order="LittleEndian">
  <ImageData WholeExtent="0 19 0 19 0 0" Origin="0 0 0" Spacing="1 1 1">
    <Piece Extent="0 19 0 19 0 0">
      <PointData Scalars="Loss">
        <DataArray type="Float64" Name="Loss" format="ascii">
          8.14860914e+00 7.56658129e+00 7.08736564e+00 6.60478780e+00 6.27910428e+00 5.98250933e+00 5.69684578e+00 5.50595854e+00 5.36341048e+00 5.35130970e+00 5.30867389e+00 5.38596327e+00 5.51212947e+00 5.67292468e+00 5.99523669e+00 6.30993431e+00 6.62327424e+00 7.13434900e+00 7.55356873e+00 8.13686747e+00 7.61503652e+00 6.98235428e+00 6.51821386e+00 6.09202145e+00 5.67322558e+00 5.41373438e+00 5.18178485e+00 4.94083189e+00 4.80033094e+00 4.81717117e+00 4.78029185e+00 4.86544250e+00 4.94843053e+00 5.12866943e+00 5.42504309e+00 5.73681951e+00 6.07463753e+00 6.54207940e+00 7.01359185e+00 7.53477780e+00 7.09212131e+00 6.52773085e+00 5.99796743e+00 5.59739649e+00 5.19893470e+00 4.95624787e+00 4.60477006e+00 4.45203898e+00 4.32333763e+00 4.30972388e+00 4.21621244e+00 4.32020704e+00 4.46261627e+00 4.65010537e+00 4.88780462e+00 5.22177684e+00 5.58920830e+00 6.06342553e+00 6.53379911e+00 7.04999079e+00 6.65105516e+00 6.08684726e+00 5.60956574e+00 5.11669886e+00 4.78549662e+00 4.44794605e+00 4.18728951e+00 4.01278866e+00 3.89088094e+00 3.79815954e+00 3.82125814e+00 3.91062604e+00 4.05403855e+00 4.20545766e+00 4.51152942e+00 4.75395932e+00 5.15330493e+00 5.61758320e+00 6.06430327e+00 6.62176868e+00 6.29670879e+00 5.74461332e+00 5.22261646e+00 4.76169093e+00 4.38256172e+00 4.07975047e+00 3.84702132e+00 3.66402177e+00 3.53190814e+00 3.39229119e+00 3.46797610e+00 3.56704594e+00 3.66133465e+00 3.83447108e+00 4.06676500e+00 4.40401703e+00 4.76336368e+00 5.20170426e+00 5.70513780e+00 6.27621027e+00 5.93139764e+00 5.40510646e+00 4.91311122e+00 4.47356959e+00 4.08044753e+00 3.77213178e+00 3.54580395e+00 3.31540241e+00 3.21204607e+00 3.15309493e+00 3.11043405e+00 3.19617732e+00 3.32797216e+00 3.51995093e+00 3.76371074e+00 4.11029565e+00 4.43310381e+00 4.89880536e+00 5.39232710e+00 5.92048628e+00 5.73422378e+00 5.10179397e+00 4.61222147e+00 4.22137880e+00 3.82465243e+00 3.55104005e+00 3.25465616e+00 3.08915702e+00 2.97465766e+00 2.89307726e+00 2.86419571e+00 2.95980157e+00 3.08748184e+00 3.24979504e+00 3.52050614e+00 3.83203403e+00 4.19881565e+00 4.62632528e+00 5.17420976e+00 5.75414307e+00 5.50705219e+00 4.95780404e+00 4.46478150e+00 4.00994544e+00 3.64169146e+00 3.29930440e+00 3.08391061e+00 2.88401492e+00 2.76679120e+00 2.66625892e+00 2.67569227e+00 2.73903492e+00 2.86685297e+00 3.10950872e+00 3.34388086e+00 3.63500261e+00 4.00081720e+00 4.42660990e+00 4.93962960e+00 5.51278831e+00 5.39771516e+00 4.80412312e+00 4.36039213e+00 3.85992333e+00 3.50894026e+00 3.20579460e+00 2.94492017e+00 2.77170524e+00 2.70769461e+00 2.59390150e+00 2.58536966e+00 2.67409369e+00 2.77065744e+00 2.97304749e+00 3.19218383e+00 3.50097488e+00 3.90100506e+00 4.29748422e+00 4.86561376e+00 5.38824781e+00 5.36303367e+00 4.77766599e+00 4.28402421e+00 3.81596582e+00 3.46081442e+00 3.11669277e+00 2.89790211e+00 2.71006788e+00 2.61283691e+00 2.51980466e+00 2.55619092e+00 2.55521904e+00 2.72132448e+00 2.93501106e+00 3.17187799e+00 3.42413678e+00 3.87491109e+00 4.26906819e+00 4.80125469e+00 5.32160241e+00 5.31806510e+00 4.75899164e+00 4.28322742e+00 3.83348094e+00 3.45431795e+00 3.12077385e+00 2.87237621e+00 2.70503005e+00 2.57304195e+00 2.51200844e+00 2.50129031e+00 2.56650659e+00 2.69053524e+00 2.85966004e+00 3.18068386e+00 3.42565123e+00 3.84803408e+00 4.27356998e+00 4.74340327e+00 5.36237739e+00 5.38413665e+00 4.79146988e+00 4.32699246e+00 3.90028880e+00 3.51027979e+00 3.14175522e+00 2.97000483e+00 2.73544068e+00 2.64217098e+00 2.58398776e+00 2.61763334e+00 2.65287812e+00 2.79958229e+00 2.97484677e+00 3.23316240e+00 3.51918550e+00 3.88108386e+00 4.30730059e+00 4.87703388e+00 5.41592380e+00 5.54253633e+00 4.94901648e+00 4.44917228e+00 4.02093016e+00 3.61167284e+00 3.34684904e+00 3.09762273e+00 2.87480264e+00 2.81191638e+00 2.69983798e+00 2.73788010e+00 2.78130115e+00 2.93756172e+00 3.06738948e+00 3.34299948e+00 3.63355303e+00 4.03311642e+00 4.43817814e+00 4.93074695e+00 5.54242912e+00 5.69109848e+00 5.08837376e+00 4.65403375e+00 4.22631458e+00 3.87145148e+00 3.46579811e+00 3.28540327e+00 3.07957583e+00 2.92757131e+00 2.90771115e+00 2.92772223e+00 2.93851369e+00 3.15440375e+00 3.28254905e+00 3.50348003e+00 3.84610981e+00 4.24910224e+00 4.70395478e+00 5.14655415e+00 5.72205025e+00 5.99555876e+00 5.38919948e+00 4.89535003e+00 4.44234625e+00 4.07397421e+00 3.78100248e+00 3.50935785e+00 3.31907547e+00 3.18503724e+00 3.15411609e+00 3.12021677e+00 3.25079807e+00 3.27287488e+00 3.54857997e+00 3.77312552e+00 4.08011915e+00 4.46844231e+00 4.87727013e+00 5.36039234e+00 5.97016803e+00 6.24759355e+00 5.73242951e+00 5.19081606e+00 4.79338314e+00 4.42501957e+00 4.11094097e+00 3.85312570e+00 3.64411903e+00 3.52970502e+00 3.48185383e+00 3.44688057e+00 3.52771586e+00 3.64188978e+00 3.85405065e+00 4.06421357e+00 4.42958900e+00 4.78140302e+00 5.21153746e+00 5.72262181e+00 6.29304964e+00 6.65836612e+00 6.10637416e+00 5.61088724e+00 5.15118282e+00 4.75899417e+00 4.51442562e+00 4.21465334e+00 4.02082848e+00 3.85096613e+00 3.80450139e+00 3.85753535e+00 3.87738044e+00 4.03533146e+00 4.13999576e+00 4.43945857e+00 4.72678911e+00 5.12685394e+00 5.58957570e+00 6.04900361e+00 6.61940363e+00 7.09129786e+00 6.51111280e+00 5.98840768e+00 5.62333999e+00 5.22507946e+00 4.87583384e+00 4.61202700e+00 4.43221331e+00 4.35186531e+00 4.28847583e+00 4.26507932e+00 4.33181543e+00 4.43395784e+00 4.65421398e+00 4.87946578e+00 5.24272196e+00 5.62067466e+00 6.01490922e+00 6.51654693e+00 7.14381302e+00 7.61988001e+00 6.94592958e+00 6.54797920e+00 6.06376956e+00 5.72990812e+00 5.41672601e+00 5.14038315e+00 5.00216454e+00 4.85329679e+00 4.73910142e+00 4.79169321e+00 4.82727605e+00 4.96671800e+00 5.17222357e+00 5.39305362e+00 5.74558394e+00 6.05555139e+00 6.46957528e+00 6.97758557e+00 7.59667164e+00 8.13382991e+00 7.56480058e+00 7.09713312e+00 6.63680165e+00 6.26551075e+00 5.96538685e+00 5.72121624e+00 5.51875962e+00 5.39288290e+00 5.39592266e+00 5.31409556e+00 5.45462522e+00 5.52252739e+00 5.72164745e+00 5.98223204e+00 6.28065770e+00 6.65785400e+00 7.08675463e+00 7.58631325e+00 8.16768660e+00
        </DataArray>
      </PointData>
    </Piece>
  </ImageData>
</VTKFile>
