<?xml version="1.0"?>
<VTKFile type="ImageData" version="0.1" byte_order="LittleEndian">
  <ImageData WholeExtent="0 19 0 19 0 0" Origin="0 0 0" Spacing="1 1 1">
    <Piece Extent="0 19 0 19 0 0">
      <PointData Scalars="Loss">
        <DataArray type="Float64" Name="Loss" format="ascii">
          6.18138925e+00 5.63572418e+00 5.19139766e+00 4.84042729e+00 4.58691085e+00 4.30481894e+00 4.18017891e+00 4.17232365e+00 4.11412945e+00 4.19860870e+00 4.29375190e+00 4.52098825e+00 4.83941737e+00 5.16157293e+00 5.56200353e+00 6.05306287e+00 6.66992610e+00 7.32683404e+00 7.97227347e+00 8.80920147e+00 6.06529245e+00 5.54824332e+00 5.10655200e+00 4.69987590e+00 4.37311065e+00 4.14218920e+00 3.95719717e+00 3.86991492e+00 3.84255883e+00 3.91446751e+00 4.09855758e+00 4.29452957e+00 4.53332714e+00 4.88511109e+00 5.27947014e+00 5.76351931e+00 6.30462040e+00 6.94985398e+00 7.66368784e+00 8.41419774e+00 6.00512002e+00 5.39904133e+00 4.93578893e+00 4.56776543e+00 4.23591440e+00 3.97598420e+00 3.83775167e+00 3.68276502e+00 3.75207424e+00 3.72613064e+00 3.83192594e+00 4.02237773e+00 4.23528669e+00 4.60461923e+00 4.92757311e+00 5.41622161e+00 6.01434403e+00 6.63424511e+00 7.31848133e+00 8.12174686e+00 5.95238669e+00 5.34068017e+00 4.93687206e+00 4.45432864e+00 4.16949611e+00 3.87679694e+00 3.69363773e+00 3.52952707e+00 3.48832423e+00 3.50293249e+00 3.59133065e+00 3.78798554e+00 4.00241242e+00 4.36129848e+00 4.75092593e+00 5.21111237e+00 5.71414596e+00 6.27363207e+00 7.01461789e+00 7.73224913e+00 5.88147013e+00 5.26889447e+00 4.83122493e+00 4.41561711e+00 4.02549984e+00 3.75780993e+00 3.55653764e+00 3.47356640e+00 3.39912892e+00 3.42428596e+00 3.54048897e+00 3.66378979e+00 3.87452497e+00 4.09559276e+00 4.47126421e+00 4.91087971e+00 5.39909266e+00 6.03545087e+00 6.71371978e+00 7.43208383e+00 5.96515954e+00 5.30227222e+00 4.81936840e+00 4.44034360e+00 3.92810133e+00 3.68246882e+00 3.53263150e+00 3.33555696e+00 3.26122488e+00 3.23736363e+00 3.26064859e+00 3.47547823e+00 3.67751448e+00 3.95048627e+00 4.24941242e+00 4.76109598e+00 5.24916817e+00 5.75531492e+00 6.41528509e+00 7.17763689e+00 5.95310744e+00 5.34405279e+00 4.75967881e+00 4.37225355e+00 3.93695869e+00 3.66572997e+00 3.42906598e+00 3.31678509e+00 3.15874139e+00 3.18385567e+00 3.21207019e+00 3.36411806e+00 3.56609204e+00 3.82492049e+00 4.12887279e+00 4.59959085e+00 5.05484308e+00 5.54569446e+00 6.16081487e+00 6.88613670e+00 5.96875406e+00 5.38536926e+00 4.84795317e+00 4.37471000e+00 3.89038232e+00 3.62647708e+00 3.39431930e+00 3.19620590e+00 3.11024450e+00 3.11139873e+00 3.07640687e+00 3.22341953e+00 3.38666922e+00 3.71343751e+00 3.98799782e+00 4.38773097e+00 4.80666651e+00 5.36756842e+00 6.03871494e+00 6.67342892e+00 6.12014854e+00 5.46323595e+00 4.91215616e+00 4.44909954e+00 4.00934214e+00 3.69261401e+00 3.38363163e+00 3.20416443e+00 3.11831385e+00 3.03933246e+00 3.07738639e+00 3.14429458e+00 3.38093527e+00 3.53166653e+00 3.84651082e+00 4.28208327e+00 4.70505035e+00 5.23071517e+00 5.77506673e+00 6.47224400e+00 6.14454511e+00 5.57518844e+00 4.97431279e+00 4.48768217e+00 4.06152812e+00 3.75568791e+00 3.47653985e+00 3.26195531e+00 3.04406464e+00 2.75938623e+00 2.79647936e+00 3.09275909e+00 3.31085023e+00 3.49634626e+00 3.77335829e+00 4.14114509e+00 4.58568271e+00 5.08769343e+00 5.67135862e+00 6.30336362e+00 6.28081753e+00 5.67971013e+00 5.10406751e+00 4.62112620e+00 4.12638967e+00 3.73444283e+00 3.51144609e+00 3.26923924e+00 3.11374227e+00 2.81718960e+00 2.83276831e+00 3.11895165e+00 3.22823141e+00 3.46449659e+00 3.64503104e+00 4.05949226e+00 4.49317729e+00 4.94320693e+00 5.53829549e+00 6.10928722e+00 6.49855996e+00 5.84587897e+00 5.22635765e+00 4.67605352e+00 4.26477486e+00 3.85831350e+00 3.57546022e+00 3.34469410e+00 3.19289595e+00 3.10040392e+00 3.10504112e+00 3.14587235e+00 3.20450061e+00 3.39550723e+00 3.64236159e+00 3.99524569e+00 4.40925867e+00 4.87348031e+00 5.38963901e+00 6.05718505e+00 6.71392122e+00 6.03246752e+00 5.41223798e+00 4.80764834e+00 4.42809717e+00 3.94960396e+00 3.62944841e+00 3.40746366e+00 3.23003057e+00 3.10172601e+00 3.08336370e+00 3.13225318e+00 3.19291964e+00 3.39449221e+00 3.64242810e+00 3.95070171e+00 4.36482240e+00 4.80926720e+00 5.39116125e+00 5.98303164e+00 6.90691962e+00 6.19561520e+00 5.58603722e+00 5.02692101e+00 4.53700570e+00 4.15699792e+00 3.75552782e+00 3.55436680e+00 3.31532808e+00 3.20842579e+00 3.17804865e+00 3.17073017e+00 3.27586361e+00 3.46992842e+00 3.64963033e+00 3.97663448e+00 4.37785345e+00 4.81782163e+00 5.27571988e+00 5.86676180e+00 7.12870419e+00 6.44684273e+00 5.78413462e+00 5.21827021e+00 4.78531171e+00 4.27688731e+00 3.92277959e+00 3.63589492e+00 3.45759324e+00 3.31063241e+00 3.27382925e+00 3.25843278e+00 3.32115418e+00 3.51089937e+00 3.71867825e+00 3.99581486e+00 4.40472211e+00 4.80534031e+00 5.25812728e+00 5.89083811e+00 7.43707543e+00 6.60514074e+00 6.03321579e+00 5.46713263e+00 4.95455431e+00 4.44808423e+00 4.12652619e+00 3.81752467e+00 3.63042831e+00 3.48596569e+00 3.42917852e+00 3.38570837e+00 3.43440738e+00 3.58882551e+00 3.74239460e+00 4.07962413e+00 4.46064230e+00 4.80327679e+00 5.29317428e+00 5.79523248e+00 7.73037336e+00 6.93031919e+00 6.29908916e+00 5.65941873e+00 5.18913979e+00 4.68843373e+00 4.35513397e+00 4.05221666e+00 3.80665606e+00 3.59881928e+00 3.55177850e+00 3.51654777e+00 3.52625803e+00 3.66093209e+00 3.88162074e+00 4.09851307e+00 4.47288454e+00 4.85800484e+00 5.32630073e+00 5.86777015e+00 8.01333408e+00 7.23323748e+00 6.55100747e+00 5.99213157e+00 5.42504540e+00 4.97306533e+00 4.54279232e+00 4.25482840e+00 3.98403495e+00 3.82865321e+00 3.65897563e+00 3.63765662e+00 3.72017163e+00 3.80507424e+00 4.01779588e+00 4.17396052e+00 4.58937049e+00 4.97478815e+00 5.40152248e+00 5.94006542e+00 8.41596818e+00 7.63715961e+00 6.93441271e+00 6.24529630e+00 5.69398764e+00 5.21102979e+00 4.82744854e+00 4.45105019e+00 4.23402216e+00 4.03315152e+00 3.96111339e+00 3.89871253e+00 3.92127540e+00 3.97500841e+00 4.11800742e+00 4.33232731e+00 4.69139861e+00 5.08551757e+00 5.52045019e+00 6.02311026e+00 8.80777710e+00 7.95344457e+00 7.23432345e+00 6.60351862e+00 6.10301072e+00 5.53330947e+00 5.16520709e+00 4.80596831e+00 4.48726779e+00 4.30931446e+00 4.17461188e+00 4.03677470e+00 4.09753923e+00 4.13462645e+00 4.33131445e+00 4.54755934e+00 4.84648580e+00 5.13511637e+00 5.58897913e+00 6.06671129e+00
        </DataArray>
      </PointData>
    </Piece>
  </ImageData>
</VTKFile>
