<?xml version="1.0"?>
<VTKFile type="ImageData" version="0.1" byte_order="LittleEndian">
  <ImageData WholeExtent="0 19 0 19 0 0" Origin="0 0 0" Spacing="1 1 1">
    <Piece Extent="0 19 0 19 0 0">
      <PointData Scalars="Loss">
        <DataArray type="Float64" Name="Loss" format="ascii">
          3.72125962e+00 3.39354056e+00 3.16701371e+00 2.94191186e+00 2.74401701e+00 2.62882222e+00 2.49545595e+00 2.45045906e+00 2.43219278e+00 2.47786976e+00 2.54664025e+00 2.64028262e+00 2.86124900e+00 3.02079888e+00 3.29349184e+00 3.57237884e+00 3.90532877e+00 4.26618436e+00 4.72125782e+00 5.16801307e+00 3.66592055e+00 3.32377356e+00 3.07704156e+00 2.85492130e+00 2.63422648e+00 2.50513696e+00 2.40064001e+00 2.33064973e+00 2.30327868e+00 2.32054360e+00 2.38756027e+00 2.53858509e+00 2.69147619e+00 2.82734948e+00 3.10123409e+00 3.40855515e+00 3.69987195e+00 4.09178692e+00 4.46417957e+00 4.94943645e+00 3.63055010e+00 3.33958133e+00 3.00165868e+00 2.76708095e+00 2.58117620e+00 2.35203507e+00 2.29133584e+00 2.27309800e+00 2.21490397e+00 2.21205863e+00 2.29027286e+00 2.41387735e+00 2.55156850e+00 2.69045493e+00 2.92380222e+00 3.18845747e+00 3.54693942e+00 3.89757714e+00 4.28457190e+00 4.71958423e+00 3.58873485e+00 3.26952492e+00 2.98274283e+00 2.68214660e+00 2.47320274e+00 2.31387626e+00 2.21996974e+00 2.14183255e+00 2.10337817e+00 2.14800393e+00 2.17006690e+00 2.21338596e+00 2.40988224e+00 2.54478284e+00 2.78638202e+00 3.05600429e+00 3.39066848e+00 3.73257642e+00 4.11612836e+00 4.53309688e+00 3.54977721e+00 3.20692366e+00 2.94156480e+00 2.70286213e+00 2.47125863e+00 2.29065802e+00 2.16843756e+00 2.03511012e+00 2.01678094e+00 2.04729151e+00 2.07673427e+00 2.15704975e+00 2.30644123e+00 2.48721483e+00 2.64868398e+00 2.97313089e+00 3.26034568e+00 3.58647455e+00 3.93769330e+00 4.40914077e+00 3.59171536e+00 3.24664591e+00 2.90319821e+00 2.66472892e+00 2.47870214e+00 2.20113659e+00 2.11969393e+00 2.02797016e+00 1.94070600e+00 1.95524973e+00 2.00834985e+00 2.09702975e+00 2.19498834e+00 2.34645635e+00 2.55465583e+00 2.81856445e+00 3.15760779e+00 3.43493096e+00 3.82682687e+00 4.25655885e+00 3.56942339e+00 3.22965812e+00 2.93017618e+00 2.66030398e+00 2.39417470e+00 2.20400633e+00 2.07539564e+00 1.97326073e+00 1.90493897e+00 1.91862431e+00 1.95288866e+00 2.00060731e+00 2.11402196e+00 2.27527019e+00 2.45678994e+00 2.71361153e+00 3.02056725e+00 3.34124263e+00 3.67303845e+00 4.12014672e+00 3.62105894e+00 3.24761058e+00 2.94709639e+00 2.66250819e+00 2.40165691e+00 2.21977658e+00 2.05309934e+00 1.91906826e+00 1.87858049e+00 1.83534076e+00 1.83924853e+00 1.94383757e+00 2.00074116e+00 2.20826634e+00 2.37133708e+00 2.60659864e+00 2.91090702e+00 3.22154762e+00 3.58067136e+00 3.97890936e+00 3.66153475e+00 3.29503688e+00 2.94884220e+00 2.61287033e+00 2.39374040e+00 2.18829070e+00 2.07261201e+00 1.92794455e+00 1.87638430e+00 1.83878547e+00 1.85175438e+00 1.88509182e+00 1.98466841e+00 2.12701638e+00 2.32260663e+00 2.53964323e+00 2.81630482e+00 3.12410647e+00 3.46991703e+00 3.87020302e+00 3.72311144e+00 3.35093830e+00 2.98405396e+00 2.69128435e+00 2.43198107e+00 2.23284417e+00 2.04092989e+00 1.96869708e+00 1.85961113e+00 1.95812189e+00 1.97481768e+00 1.88889385e+00 1.98169465e+00 2.11607138e+00 2.27100700e+00 2.49963107e+00 2.75756472e+00 3.02206517e+00 3.39378874e+00 3.80710872e+00 3.82100595e+00 3.41053453e+00 3.06794047e+00 2.75425291e+00 2.45693386e+00 2.25789299e+00 2.09637509e+00 1.95128964e+00 1.87737963e+00 1.96047941e+00 1.97807201e+00 1.83844523e+00 1.91289360e+00 2.05990176e+00 2.22600469e+00 2.44148870e+00 2.73090113e+00 2.98138537e+00 3.36270597e+00 3.71843112e+00 3.86667339e+00 3.51814626e+00 3.13348611e+00 2.77512466e+00 2.54143014e+00 2.28834644e+00 2.14861918e+00 1.96863366e+00 1.86636985e+00 1.81609698e+00 1.83453569e+00 1.82476414e+00 1.96002713e+00 2.03273634e+00 2.20325747e+00 2.39393852e+00 2.71410312e+00 2.94351409e+00 3.31518892e+00 3.68702959e+00 3.97928999e+00 3.55134746e+00 3.22488717e+00 2.87186222e+00 2.60275127e+00 2.40689364e+00 2.17766426e+00 2.04178135e+00 1.94696119e+00 1.86654090e+00 1.85921119e+00 1.89529455e+00 1.94165801e+00 2.06417205e+00 2.22722377e+00 2.40944393e+00 2.62796858e+00 2.91119173e+00 3.24255809e+00 3.60331384e+00 4.12068776e+00 3.68811263e+00 3.34780456e+00 3.01037902e+00 2.68923866e+00 2.48350188e+00 2.28263897e+00 2.13013969e+00 2.00971325e+00 1.94799169e+00 1.89182718e+00 1.90713759e+00 2.01275455e+00 2.08629549e+00 2.19453813e+00 2.40559932e+00 2.63094733e+00 2.88593449e+00 3.23605167e+00 3.56478216e+00 4.24262809e+00 3.81062545e+00 3.42197726e+00 3.08944731e+00 2.80843821e+00 2.57371965e+00 2.34523061e+00 2.18426608e+00 2.08050304e+00 1.98575033e+00 1.94404184e+00 1.97259122e+00 1.99480305e+00 2.09248692e+00 2.25590336e+00 2.42817815e+00 2.63710388e+00 2.92975234e+00 3.25299773e+00 3.58474954e+00 4.39807660e+00 3.95140044e+00 3.57762597e+00 3.25010595e+00 2.95475109e+00 2.63549940e+00 2.45501858e+00 2.28356863e+00 2.14715381e+00 2.05768867e+00 1.99602013e+00 2.02762652e+00 2.07894491e+00 2.14665001e+00 2.27424980e+00 2.45348529e+00 2.68900091e+00 2.90279144e+00 3.22792104e+00 3.55489634e+00 4.58998677e+00 4.14091132e+00 3.71084086e+00 3.36698106e+00 3.08129377e+00 2.78200203e+00 2.55826459e+00 2.39319448e+00 2.24201434e+00 2.13128865e+00 2.11047701e+00 2.11644742e+00 2.15419180e+00 2.19404141e+00 2.32583510e+00 2.50702840e+00 2.70753982e+00 2.94755906e+00 3.27981404e+00 3.59557436e+00 4.75531413e+00 4.28489153e+00 3.92213386e+00 3.52546423e+00 3.23302676e+00 2.97552528e+00 2.70538550e+00 2.51136833e+00 2.33937972e+00 2.26249318e+00 2.18468566e+00 2.22971157e+00 2.25941605e+00 2.30931077e+00 2.41522293e+00 2.58490721e+00 2.77149938e+00 2.99344293e+00 3.27327844e+00 3.61065948e+00 4.95846210e+00 4.52029345e+00 4.08220237e+00 3.71342878e+00 3.42500326e+00 3.10610002e+00 2.84682331e+00 2.67655593e+00 2.52879049e+00 2.39607864e+00 2.34517448e+00 2.32363966e+00 2.32163366e+00 2.40946610e+00 2.50005509e+00 2.63874917e+00 2.84652789e+00 3.08200002e+00 3.32931031e+00 3.67121865e+00 5.16039032e+00 4.69823170e+00 4.31698323e+00 3.88222336e+00 3.54250841e+00 3.30427406e+00 3.04820876e+00 2.81153141e+00 2.64518894e+00 2.54405953e+00 2.46237893e+00 2.45556174e+00 2.45158773e+00 2.50065213e+00 2.66110024e+00 2.71869956e+00 2.97754085e+00 3.20583054e+00 3.44671485e+00 3.73915406e+00
        </DataArray>
      </PointData>
    </Piece>
  </ImageData>
</VTKFile>
