<?xml version="1.0"?>
<VTKFile type="ImageData" version="0.1" byte_order="LittleEndian">
  <ImageData WholeExtent="0 19 0 19 0 0" Origin="0 0 0" Spacing="1 1 1">
    <Piece Extent="0 19 0 19 0 0">
      <PointData Scalars="Loss">
        <DataArray type="Float64" Name="Loss" format="ascii">
          1.31212499e+00 1.17677108e+00 1.08477624e+00 9.83872174e-01 9.08808958e-01 8.75847799e-01 8.44593470e-01 8.26546792e-01 8.33761195e-01 8.73037347e-01 9.05382357e-01 9.66955349e-01 1.06336423e+00 1.15800925e+00 1.27643901e+00 1.43970089e+00 1.59259383e+00 1.79141875e+00 1.97657959e+00 2.18418373e+00 1.34701340e+00 1.20413224e+00 1.10653001e+00 9.90976883e-01 9.32712581e-01 8.79768493e-01 8.33091185e-01 8.33008937e-01 8.43662457e-01 8.47851021e-01 8.96565391e-01 9.58559896e-01 1.03563632e+00 1.13417914e+00 1.25781282e+00 1.38101640e+00 1.53795301e+00 1.72471579e+00 1.91024521e+00 2.12876809e+00 1.36535401e+00 1.24693448e+00 1.13259456e+00 1.01726612e+00 9.30350491e-01 8.90971603e-01 8.57582343e-01 8.34530610e-01 8.24818140e-01 8.61530819e-01 8.80762003e-01 9.31343958e-01 1.00044100e+00 1.11700055e+00 1.21073000e+00 1.34945465e+00 1.50144445e+00 1.67033506e+00 1.86460892e+00 2.07103782e+00 1.42816163e+00 1.28917879e+00 1.15479362e+00 1.05168174e+00 9.55585977e-01 9.02355748e-01 8.47900172e-01 8.27458794e-01 8.38938969e-01 8.19906947e-01 8.85750506e-01 9.24170182e-01 9.81754843e-01 1.08435818e+00 1.18265654e+00 1.30993007e+00 1.45972315e+00 1.63325998e+00 1.83032509e+00 2.01446461e+00 1.46824263e+00 1.31628804e+00 1.18611074e+00 1.07148460e+00 9.79182680e-01 9.16895756e-01 8.61378614e-01 8.36521403e-01 8.37526367e-01 8.24281587e-01 8.64536617e-01 9.04380838e-01 9.63555531e-01 1.05076874e+00 1.14709944e+00 1.28434049e+00 1.41212276e+00 1.59397526e+00 1.78226638e+00 1.97232840e+00 1.49519293e+00 1.35181116e+00 1.21319286e+00 1.10379207e+00 1.02840811e+00 9.40145736e-01 8.75917986e-01 8.27427830e-01 8.34834291e-01 8.34420352e-01 8.54618896e-01 8.74545547e-01 9.64094009e-01 1.02613005e+00 1.13404305e+00 1.25319402e+00 1.40581957e+00 1.54220427e+00 1.72785943e+00 1.92187538e+00 1.53623711e+00 1.38516369e+00 1.22214556e+00 1.14883177e+00 1.03327690e+00 9.65980600e-01 8.96067186e-01 8.43376078e-01 8.33286269e-01 8.29674930e-01 8.43144765e-01 8.76767238e-01 9.31804080e-01 1.00877375e+00 1.11680454e+00 1.22415264e+00 1.35812119e+00 1.50098044e+00 1.67256563e+00 1.86150608e+00 1.59100373e+00 1.43064489e+00 1.28875337e+00 1.15913145e+00 1.06528698e+00 9.59530045e-01 9.04058945e-01 8.51785215e-01 8.17382178e-01 8.07897128e-01 8.35791333e-01 8.59667272e-01 9.20197596e-01 9.85884459e-01 1.08900587e+00 1.17754926e+00 1.31506195e+00 1.46132599e+00 1.64368147e+00 1.81583903e+00 1.62392862e+00 1.44766427e+00 1.33073183e+00 1.16844417e+00 1.07095157e+00 9.78874336e-01 9.18306771e-01 8.77457728e-01 8.42270466e-01 8.08463188e-01 8.30232756e-01 8.65567382e-01 8.88832895e-01 9.68783328e-01 1.05147381e+00 1.14846335e+00 1.28822758e+00 1.42445860e+00 1.58314862e+00 1.75729438e+00 1.68739932e+00 1.48972589e+00 1.34883174e+00 1.24510113e+00 1.10756595e+00 1.01351332e+00 9.31050507e-01 8.84094530e-01 8.51639816e-01 8.27042971e-01 8.33121665e-01 8.46905339e-01 8.96696253e-01 9.44150916e-01 1.03977097e+00 1.12963456e+00 1.24386306e+00 1.37735242e+00 1.53877599e+00 1.71626465e+00 1.71448281e+00 1.54299357e+00 1.38394776e+00 1.24955827e+00 1.14301131e+00 1.03992857e+00 9.56906373e-01 8.83654059e-01 8.40759779e-01 8.20237062e-01 8.15120103e-01 8.38646750e-01 8.81252518e-01 9.27745619e-01 1.00987169e+00 1.08764007e+00 1.20444808e+00 1.35805597e+00 1.50008827e+00 1.67556984e+00 1.76445475e+00 1.59205494e+00 1.43776680e+00 1.27775585e+00 1.16202697e+00 1.05845917e+00 9.68443082e-01 9.00667382e-01 8.62230132e-01 8.32853277e-01 8.32937320e-01 8.15372498e-01 8.71738437e-01 9.35328718e-01 9.94707456e-01 1.08425353e+00 1.18456329e+00 1.31189995e+00 1.44811021e+00 1.61847909e+00 1.81368809e+00 1.61874327e+00 1.47201401e+00 1.31408238e+00 1.19236150e+00 1.08725591e+00 9.98250615e-01 9.13508744e-01 8.56968886e-01 8.43831679e-01 8.20577902e-01 8.35818261e-01 8.58901740e-01 9.02183024e-01 9.79390524e-01 1.05133501e+00 1.15772911e+00 1.29283499e+00 1.42756961e+00 1.57135617e+00 1.86657098e+00 1.69557233e+00 1.50345140e+00 1.35155221e+00 1.20789777e+00 1.12766906e+00 1.01086566e+00 9.47634589e-01 8.85285931e-01 8.37793404e-01 8.24676802e-01 8.26568958e-01 8.54055523e-01 8.94724411e-01 9.42141832e-01 1.04420259e+00 1.11237071e+00 1.25014593e+00 1.38173684e+00 1.53734860e+00 1.92498417e+00 1.72913452e+00 1.54794780e+00 1.39594757e+00 1.22778693e+00 1.14200262e+00 1.03935016e+00 9.55201994e-01 8.93483033e-01 8.62892766e-01 8.29939513e-01 8.38069022e-01 8.41481497e-01 8.82727320e-01 9.35144716e-01 9.90926227e-01 1.10203069e+00 1.20767682e+00 1.34345746e+00 1.50069249e+00 1.97248095e+00 1.78324211e+00 1.57436408e+00 1.43638041e+00 1.29513425e+00 1.16181592e+00 1.06478957e+00 9.69448263e-01 8.89214447e-01 8.64932459e-01 8.23949959e-01 8.19478143e-01 8.43646018e-01 8.58856871e-01 9.14208156e-01 9.77126800e-01 1.08876125e+00 1.18801946e+00 1.32504872e+00 1.45948693e+00 2.03306304e+00 1.81368543e+00 1.61773762e+00 1.47843797e+00 1.31623807e+00 1.19153072e+00 1.07920380e+00 9.92816082e-01 9.24379977e-01 8.69209754e-01 8.50415222e-01 8.17775475e-01 8.42009870e-01 8.61215749e-01 9.04841726e-01 9.50695148e-01 1.05113581e+00 1.17760503e+00 1.27756795e+00 1.42152515e+00 2.07188259e+00 1.87519728e+00 1.68324540e+00 1.51787271e+00 1.36239085e+00 1.22266780e+00 1.09603932e+00 1.01445508e+00 9.54391959e-01 8.64869898e-01 8.41443943e-01 8.27055984e-01 8.28460533e-01 8.42866004e-01 8.93227426e-01 9.44793254e-01 1.03764663e+00 1.12978258e+00 1.23748877e+00 1.37946520e+00 2.13057188e+00 1.90937529e+00 1.72949869e+00 1.53765896e+00 1.38622627e+00 1.24681164e+00 1.12852432e+00 1.03922191e+00 9.57083074e-01 8.83775986e-01 8.44390776e-01 8.23331728e-01 8.30253252e-01 8.48675016e-01 8.80653343e-01 9.46748256e-01 1.00902587e+00 1.09475930e+00 1.21338101e+00 1.36126095e+00 2.20753611e+00 1.96547167e+00 1.77861237e+00 1.60557907e+00 1.43984529e+00 1.29275749e+00 1.16783539e+00 1.03963763e+00 9.77372226e-01 9.01416889e-01 8.63329559e-01 8.36326037e-01 8.24566146e-01 8.32809298e-01 8.64755092e-01 9.08697716e-01 1.00395000e+00 1.06929367e+00 1.19409739e+00 1.29444613e+00
        </DataArray>
      </PointData>
    </Piece>
  </ImageData>
</VTKFile>
