<?xml version="1.0"?>
<VTKFile type="ImageData" version="0.1" byte_order="LittleEndian">
  <ImageData WholeExtent="0 19 0 19 0 0" Origin="0 0 0" Spacing="1 1 1">
    <Piece Extent="0 19 0 19 0 0">
      <PointData Scalars="Loss">
        <DataArray type="Float64" Name="Loss" format="ascii">
          6.52394438e+00 5.88690525e+00 5.42569652e+00 5.02308712e+00 4.63197792e+00 4.37443638e+00 4.25900467e+00 4.11048380e+00 4.06017727e+00 4.11623428e+00 4.22922130e+00 4.36429773e+00 4.65693090e+00 4.97444511e+00 5.36339840e+00 5.84692996e+00 6.39019019e+00 7.04627538e+00 7.72842961e+00 8.42446272e+00 6.29502234e+00 5.78860949e+00 5.30412146e+00 4.83736386e+00 4.51894421e+00 4.21882948e+00 4.07714314e+00 3.97361053e+00 3.85116120e+00 3.88225662e+00 3.93839848e+00 4.14399873e+00 4.39244964e+00 4.75564988e+00 5.08811606e+00 5.54403949e+00 6.08233799e+00 6.61822435e+00 7.36323102e+00 8.10191190e+00 6.23323464e+00 5.63595656e+00 5.18872580e+00 4.70700845e+00 4.39821500e+00 4.08215228e+00 3.93440238e+00 3.72412327e+00 3.65027994e+00 3.67188660e+00 3.75223964e+00 3.93577594e+00 4.16833217e+00 4.42408124e+00 4.83969411e+00 5.27850343e+00 5.81317171e+00 6.42278012e+00 6.99826923e+00 7.88751224e+00 6.15081791e+00 5.58017595e+00 5.08696977e+00 4.64854021e+00 4.30464702e+00 3.99582071e+00 3.72485533e+00 3.61962018e+00 3.55379499e+00 3.49055241e+00 3.56397573e+00 3.77164870e+00 3.93105745e+00 4.20767871e+00 4.61563087e+00 5.03867464e+00 5.56497805e+00 6.12587780e+00 6.82211315e+00 7.48500893e+00 6.14465629e+00 5.51071525e+00 5.01390873e+00 4.54486830e+00 4.11431338e+00 3.88353742e+00 3.61523450e+00 3.47283897e+00 3.45446162e+00 3.41631577e+00 3.43651976e+00 3.57254487e+00 3.78416949e+00 4.02887375e+00 4.39292546e+00 4.83227937e+00 5.37662742e+00 5.90333974e+00 6.57730060e+00 7.21895380e+00 6.09105161e+00 5.46622492e+00 4.98226882e+00 4.49950048e+00 4.08228599e+00 3.81968606e+00 3.54359239e+00 3.39367416e+00 3.32910686e+00 3.20786608e+00 3.32445997e+00 3.45784430e+00 3.60068434e+00 3.88475702e+00 4.23064253e+00 4.65176482e+00 5.12884067e+00 5.72115015e+00 6.33929278e+00 7.06121685e+00 6.14077478e+00 5.41397811e+00 4.97881220e+00 4.43216557e+00 4.05356552e+00 3.74445656e+00 3.49713613e+00 3.29026559e+00 3.16218213e+00 3.11855536e+00 3.20470843e+00 3.34911321e+00 3.51170022e+00 3.76364123e+00 4.10713506e+00 4.49408279e+00 4.98973450e+00 5.52912309e+00 6.13240880e+00 6.87484176e+00 6.13934335e+00 5.51071730e+00 4.95180311e+00 4.49409698e+00 4.01914382e+00 3.69663677e+00 3.43060817e+00 3.22573410e+00 3.13141334e+00 3.12609622e+00 3.18388876e+00 3.26651787e+00 3.43659416e+00 3.71428234e+00 3.95767282e+00 4.34659430e+00 4.83584510e+00 5.36435442e+00 5.96617012e+00 6.69153176e+00 6.21518425e+00 5.52833958e+00 4.98582861e+00 4.50169067e+00 4.07959637e+00 3.76064564e+00 3.42896307e+00 3.24505171e+00 3.03934549e+00 3.04346643e+00 3.08353631e+00 3.15671452e+00 3.33153412e+00 3.54225056e+00 3.93464567e+00 4.17275663e+00 4.74229117e+00 5.19536995e+00 5.84886307e+00 6.49924979e+00 6.25806657e+00 5.65644013e+00 5.06789805e+00 4.52564191e+00 4.12185823e+00 3.72209527e+00 3.47375142e+00 3.27800733e+00 3.15333171e+00 2.86651825e+00 2.89613655e+00 3.18241270e+00 3.28931097e+00 3.48251051e+00 3.79303781e+00 4.12395673e+00 4.63406886e+00 5.10451836e+00 5.70804113e+00 6.35226609e+00 6.32380467e+00 5.71699051e+00 5.11396980e+00 4.63643717e+00 4.18694512e+00 3.75201274e+00 3.44044180e+00 3.27003181e+00 3.13856158e+00 2.88794627e+00 2.88954824e+00 3.11618323e+00 3.26984901e+00 3.52678234e+00 3.79394752e+00 4.06344566e+00 4.51239968e+00 5.01454233e+00 5.61230366e+00 6.33233031e+00 6.55798038e+00 5.83229456e+00 5.22074064e+00 4.68319260e+00 4.25871164e+00 3.89532449e+00 3.62001133e+00 3.33445603e+00 3.15533883e+00 3.04226104e+00 3.05210477e+00 3.11811264e+00 3.27715397e+00 3.42714963e+00 3.74752461e+00 4.01738662e+00 4.48665943e+00 4.96273519e+00 5.55344478e+00 6.22624775e+00 6.71808743e+00 5.94894641e+00 5.40920772e+00 4.80741274e+00 4.35227196e+00 4.00312468e+00 3.73495121e+00 3.40907842e+00 3.23058804e+00 3.14154747e+00 3.09768307e+00 3.17904754e+00 3.25706853e+00 3.43221874e+00 3.70405314e+00 4.04767281e+00 4.48601427e+00 4.92955780e+00 5.57035776e+00 6.13639081e+00 6.87083622e+00 6.17986349e+00 5.55147696e+00 4.95975565e+00 4.47917033e+00 4.06928336e+00 3.73455084e+00 3.50530097e+00 3.26644110e+00 3.23216812e+00 3.13688746e+00 3.16871504e+00 3.29774335e+00 3.49769258e+00 3.80147106e+00 4.04782509e+00 4.49509266e+00 4.92206475e+00 5.43834673e+00 6.12923584e+00 7.08725387e+00 6.37259704e+00 5.73862902e+00 5.21170064e+00 4.69666868e+00 4.21436145e+00 3.82416781e+00 3.63731018e+00 3.41849274e+00 3.31590621e+00 3.23613393e+00 3.31463266e+00 3.33143171e+00 3.56264299e+00 3.78952590e+00 4.07998211e+00 4.51412705e+00 4.96075541e+00 5.48926200e+00 6.13289977e+00 7.27644031e+00 6.53523868e+00 5.91404326e+00 5.29258712e+00 4.88556982e+00 4.40797160e+00 4.04511225e+00 3.76945526e+00 3.57541417e+00 3.41730213e+00 3.35404854e+00 3.38319335e+00 3.48864068e+00 3.62568265e+00 3.86209105e+00 4.16947253e+00 4.56810001e+00 5.01427492e+00 5.56119528e+00 6.11219205e+00 7.55140366e+00 6.79604232e+00 6.09359365e+00 5.57398759e+00 5.04044937e+00 4.65249107e+00 4.27200097e+00 3.96360859e+00 3.72316152e+00 3.56140034e+00 3.54086802e+00 3.47316545e+00 3.53865967e+00 3.75694340e+00 3.91969587e+00 4.27423958e+00 4.61669237e+00 5.02212326e+00 5.53539710e+00 6.10398191e+00 7.86319763e+00 7.08492494e+00 6.34747624e+00 5.81457038e+00 5.29325862e+00 4.82333013e+00 4.43339567e+00 4.12777760e+00 3.95701814e+00 3.76009116e+00 3.67868079e+00 3.69822601e+00 3.74335934e+00 3.80664807e+00 4.12808517e+00 4.35618719e+00 4.72516990e+00 5.16995982e+00 5.68554619e+00 6.27410887e+00 8.09755415e+00 7.38856987e+00 6.70433209e+00 6.12544359e+00 5.57854545e+00 5.09130323e+00 4.67659773e+00 4.38373091e+00 4.13636571e+00 4.00773432e+00 3.83845285e+00 3.83015172e+00 3.93244095e+00 4.04304177e+00 4.21636742e+00 4.54698660e+00 4.85664119e+00 5.26159321e+00 5.80208903e+00 6.33665226e+00 8.41820534e+00 7.66469594e+00 6.99976204e+00 6.33695897e+00 5.81634568e+00 5.31793397e+00 4.93028892e+00 4.61473264e+00 4.39853028e+00 4.20139047e+00 4.11906366e+00 4.09979091e+00 4.12572102e+00 4.22539282e+00 4.37837376e+00 4.61915069e+00 5.06497588e+00 5.40062548e+00 5.92070091e+00 6.46363720e+00
        </DataArray>
      </PointData>
    </Piece>
  </ImageData>
</VTKFile>
