<?xml version="1.0"?>
<VTKFile type="ImageData" version="0.1" byte_order="LittleEndian">
  <ImageData WholeExtent="0 19 0 19 0 0" Origin="0 0 0" Spacing="1 1 1">
    <Piece Extent="0 19 0 19 0 0">
      <PointData Scalars="Loss">
        <DataArray type="Float64" Name="Loss" format="ascii">
          1.66780680e+00 1.51815278e+00 1.38857503e+00 1.27666649e+00 1.20561295e+00 1.12939266e+00 1.09036502e+00 1.07875686e+00 1.11066693e+00 1.13765535e+00 1.20890034e+00 1.30484673e+00 1.42765469e+00 1.55508898e+00 1.70379353e+00 1.91881586e+00 2.13377564e+00 2.36893561e+00 2.61884934e+00 2.94280835e+00 1.74896616e+00 1.55763767e+00 1.42709482e+00 1.30362837e+00 1.23173542e+00 1.15614992e+00 1.10754856e+00 1.07398527e+00 1.10870919e+00 1.12791109e+00 1.18357557e+00 1.26189911e+00 1.38398944e+00 1.52127640e+00 1.69526818e+00 1.84627835e+00 2.05621996e+00 2.31776026e+00 2.57335640e+00 2.85280901e+00 1.80443309e+00 1.62601333e+00 1.46852553e+00 1.33410187e+00 1.23527682e+00 1.15762605e+00 1.10433676e+00 1.08025982e+00 1.07771456e+00 1.10074864e+00 1.16434048e+00 1.26764372e+00 1.35998258e+00 1.46090955e+00 1.61999979e+00 1.80792925e+00 1.99865254e+00 2.24556523e+00 2.49548683e+00 2.76985755e+00 1.84160177e+00 1.65076783e+00 1.51360254e+00 1.37170541e+00 1.27981970e+00 1.17606886e+00 1.11339895e+00 1.10732288e+00 1.09160341e+00 1.10841731e+00 1.14579200e+00 1.21318433e+00 1.31585877e+00 1.44402509e+00 1.57283072e+00 1.74889280e+00 1.93446465e+00 2.15754861e+00 2.43385353e+00 2.66530816e+00 1.89336719e+00 1.68729785e+00 1.54304004e+00 1.40151588e+00 1.27573932e+00 1.19162997e+00 1.12828870e+00 1.10946084e+00 1.09344166e+00 1.10179797e+00 1.13091397e+00 1.19759057e+00 1.28170694e+00 1.40113599e+00 1.56318861e+00 1.68820866e+00 1.89771010e+00 2.10416653e+00 2.36780169e+00 2.59819485e+00 1.94488853e+00 1.76103011e+00 1.58418917e+00 1.41623252e+00 1.32094312e+00 1.20620282e+00 1.15415961e+00 1.11076510e+00 1.08140663e+00 1.09895581e+00 1.12566116e+00 1.16890810e+00 1.24906902e+00 1.35569270e+00 1.49440535e+00 1.65307676e+00 1.84886514e+00 2.07246578e+00 2.27954284e+00 2.53243191e+00 2.00256027e+00 1.79248616e+00 1.62766490e+00 1.47254016e+00 1.36195251e+00 1.22929780e+00 1.17888751e+00 1.11210134e+00 1.10198989e+00 1.10798819e+00 1.10468471e+00 1.15642567e+00 1.24043230e+00 1.33483721e+00 1.44643119e+00 1.59499855e+00 1.78357160e+00 1.98806781e+00 2.20635197e+00 2.45472978e+00 2.06083681e+00 1.87565203e+00 1.66161121e+00 1.50641536e+00 1.38611450e+00 1.26911401e+00 1.20689064e+00 1.10922354e+00 1.08990223e+00 1.07603192e+00 1.09769968e+00 1.14269585e+00 1.21747930e+00 1.28148860e+00 1.40613483e+00 1.56568293e+00 1.73373120e+00 1.93636928e+00 2.14306187e+00 2.39446698e+00 2.13950057e+00 1.90039099e+00 1.72199392e+00 1.56140822e+00 1.43701832e+00 1.31063274e+00 1.19983578e+00 1.15839172e+00 1.11111266e+00 1.07681078e+00 1.09088986e+00 1.13782346e+00 1.17655836e+00 1.28866674e+00 1.37747041e+00 1.52348426e+00 1.68161116e+00 1.85524363e+00 2.10084374e+00 2.29451886e+00 2.18746572e+00 1.97985932e+00 1.75517049e+00 1.60391716e+00 1.45590280e+00 1.32584129e+00 1.25367800e+00 1.15298705e+00 1.12013384e+00 1.08381638e+00 1.08012562e+00 1.09523327e+00 1.17612470e+00 1.25555102e+00 1.36167354e+00 1.47879407e+00 1.64133900e+00 1.81294257e+00 2.01785639e+00 2.25375197e+00 2.27333253e+00 2.01800276e+00 1.81264511e+00 1.63845887e+00 1.47429328e+00 1.34222850e+00 1.25006449e+00 1.17220163e+00 1.14353261e+00 1.08877824e+00 1.07626685e+00 1.11442110e+00 1.15964810e+00 1.24147348e+00 1.31580607e+00 1.44342434e+00 1.61126411e+00 1.75823794e+00 2.00505412e+00 2.18708350e+00 2.30502559e+00 2.08772839e+00 1.85848599e+00 1.67246754e+00 1.50493671e+00 1.38137620e+00 1.27920250e+00 1.19000980e+00 1.13440093e+00 1.09819149e+00 1.07999950e+00 1.10860658e+00 1.12612522e+00 1.22082984e+00 1.28378423e+00 1.44289365e+00 1.55260345e+00 1.71035610e+00 1.90135213e+00 2.12675713e+00 2.42599330e+00 2.17149594e+00 1.93854342e+00 1.73751871e+00 1.55332122e+00 1.43066989e+00 1.29740420e+00 1.20919651e+00 1.15197089e+00 1.10209330e+00 1.09604973e+00 1.07104065e+00 1.14001013e+00 1.19628200e+00 1.24476318e+00 1.36706668e+00 1.50341849e+00 1.68049069e+00 1.84473024e+00 2.05635242e+00 2.47365035e+00 2.20322249e+00 2.00021301e+00 1.77164888e+00 1.60953530e+00 1.43858193e+00 1.34645830e+00 1.22306341e+00 1.16876136e+00 1.10391306e+00 1.09863517e+00 1.09029779e+00 1.12078438e+00 1.14883204e+00 1.24339624e+00 1.34880794e+00 1.46005982e+00 1.62162363e+00 1.80285311e+00 1.98737981e+00 2.55089375e+00 2.27154493e+00 2.05285324e+00 1.84477125e+00 1.66296089e+00 1.49214998e+00 1.36777008e+00 1.26247900e+00 1.19981423e+00 1.11241349e+00 1.08061665e+00 1.07654834e+00 1.10926997e+00 1.16390743e+00 1.23830854e+00 1.34275331e+00 1.43824784e+00 1.58332197e+00 1.77211955e+00 1.92430728e+00 2.62251694e+00 2.32249051e+00 2.09569261e+00 1.90016152e+00 1.68482212e+00 1.53524105e+00 1.40924216e+00 1.29175802e+00 1.22413678e+00 1.15037971e+00 1.10952722e+00 1.08408676e+00 1.11284077e+00 1.12440659e+00 1.22196205e+00 1.28335000e+00 1.39492778e+00 1.55446031e+00 1.70184100e+00 1.89584914e+00 2.70427849e+00 2.42329551e+00 2.18975340e+00 1.95311293e+00 1.75961717e+00 1.57893788e+00 1.44871942e+00 1.33782652e+00 1.22957315e+00 1.15428993e+00 1.09940191e+00 1.09238175e+00 1.09850660e+00 1.12389696e+00 1.17568567e+00 1.26205944e+00 1.38044138e+00 1.50571720e+00 1.65687815e+00 1.84884154e+00 2.78032290e+00 2.47855540e+00 2.24076917e+00 2.01875374e+00 1.79438967e+00 1.61781968e+00 1.48011354e+00 1.35052647e+00 1.24655373e+00 1.17202407e+00 1.12573347e+00 1.08461816e+00 1.08033056e+00 1.09603176e+00 1.15357610e+00 1.24244744e+00 1.35587586e+00 1.46682533e+00 1.61079582e+00 1.79285276e+00 2.85990539e+00 2.56577054e+00 2.32374464e+00 2.07660468e+00 1.84733322e+00 1.66831336e+00 1.51365777e+00 1.37990831e+00 1.28136177e+00 1.16460986e+00 1.11483793e+00 1.09001417e+00 1.07717062e+00 1.10648035e+00 1.14563559e+00 1.22557124e+00 1.32105870e+00 1.43096625e+00 1.56660205e+00 1.73987747e+00 2.93529090e+00 2.64009150e+00 2.36158850e+00 2.14871905e+00 1.90133694e+00 1.71078687e+00 1.56899159e+00 1.42929685e+00 1.27736538e+00 1.22373778e+00 1.13306892e+00 1.10971490e+00 1.09435597e+00 1.09684643e+00 1.13454862e+00 1.18978152e+00 1.27784138e+00 1.39282055e+00 1.53345668e+00 1.68298952e+00
        </DataArray>
      </PointData>
    </Piece>
  </ImageData>
</VTKFile>
