<?xml version="1.0"?>
<VTKFile type="ImageData" version="0.1" byte_order="LittleEndian">
  <ImageData WholeExtent="0 19 0 19 0 0" Origin="0 0 0" Spacing="1 1 1">
    <Piece Extent="0 19 0 19 0 0">
      <PointData Scalars="Loss">
        <DataArray type="Float64" Name="Loss" format="ascii">
          6.62514979e+00 6.08051225e+00 5.52632827e+00 5.12247737e+00 4.78006678e+00 4.44276311e+00 4.26055986e+00 4.10933137e+00 4.06087302e+00 4.06988452e+00 4.11050613e+00 4.34911787e+00 4.59012484e+00 4.85280559e+00 5.22259448e+00 5.68110389e+00 6.24486896e+00 6.89598234e+00 7.47641529e+00 8.27960604e+00 6.52023774e+00 5.89207755e+00 5.39054953e+00 5.02024091e+00 4.55213410e+00 4.33390873e+00 4.03114123e+00 3.90069612e+00 3.81776522e+00 3.83456655e+00 3.96331721e+00 4.10185200e+00 4.33678982e+00 4.64028108e+00 4.97647650e+00 5.45613542e+00 5.91141300e+00 6.54432871e+00 7.17201216e+00 7.89494936e+00 6.43885230e+00 5.83506025e+00 5.20711291e+00 4.83230250e+00 4.41950780e+00 4.16856584e+00 3.90433336e+00 3.72257407e+00 3.66387961e+00 3.72271823e+00 3.73494057e+00 3.85838264e+00 4.08427015e+00 4.39203006e+00 4.78468922e+00 5.21272948e+00 5.67065669e+00 6.28270440e+00 6.91358346e+00 7.62262731e+00 6.31096369e+00 5.69283548e+00 5.20665002e+00 4.72652486e+00 4.29081058e+00 3.99361887e+00 3.73434259e+00 3.59023933e+00 3.50068147e+00 3.49701707e+00 3.59447842e+00 3.69337984e+00 3.89422690e+00 4.17443503e+00 4.51346763e+00 4.96244512e+00 5.47372168e+00 6.01481018e+00 6.63778303e+00 7.38333094e+00 6.25302787e+00 5.59957068e+00 5.04157860e+00 4.61368873e+00 4.21082553e+00 3.91146764e+00 3.67640854e+00 3.46913481e+00 3.37911869e+00 3.40559060e+00 3.45583812e+00 3.53938196e+00 3.73372271e+00 4.01346243e+00 4.37761251e+00 4.81856721e+00 5.24503364e+00 5.83037895e+00 6.49985272e+00 7.12630820e+00 6.18537260e+00 5.55607022e+00 5.05727605e+00 4.55245279e+00 4.14316701e+00 3.90902494e+00 3.59013959e+00 3.45146468e+00 3.36741190e+00 3.21230097e+00 3.31420915e+00 3.37846317e+00 3.62172994e+00 3.79841107e+00 4.21877598e+00 4.57841084e+00 5.08835560e+00 5.67032766e+00 6.30348275e+00 7.00008239e+00 6.21676188e+00 5.58846933e+00 5.07589995e+00 4.50134419e+00 4.07957504e+00 3.76679786e+00 3.57243443e+00 3.37052725e+00 3.20723924e+00 3.12813025e+00 3.16722757e+00 3.31408393e+00 3.48874657e+00 3.70260119e+00 4.04857627e+00 4.43894180e+00 4.90195970e+00 5.52565300e+00 6.08385489e+00 6.80332713e+00 6.12901560e+00 5.51470743e+00 4.99771585e+00 4.49413943e+00 4.13356431e+00 3.76194046e+00 3.50565536e+00 3.26057420e+00 3.08096391e+00 3.12536989e+00 3.13434264e+00 3.25631600e+00 3.38851365e+00 3.63930986e+00 3.96395914e+00 4.28966262e+00 4.81173389e+00 5.39674364e+00 5.90951917e+00 6.63867865e+00 6.27698940e+00 5.64703997e+00 5.00789526e+00 4.49535193e+00 4.08353391e+00 3.70717169e+00 3.38603141e+00 3.22458589e+00 3.14276705e+00 3.03728737e+00 3.08139782e+00 3.14295739e+00 3.32269360e+00 3.53406939e+00 3.79737023e+00 4.27592196e+00 4.70487524e+00 5.23402844e+00 5.86770190e+00 6.50677609e+00 6.25978267e+00 5.61359008e+00 5.04079147e+00 4.56664304e+00 4.11197567e+00 3.78132090e+00 3.50290887e+00 3.19559060e+00 3.10956739e+00 2.83255192e+00 2.83823528e+00 3.11173267e+00 3.26890777e+00 3.48226761e+00 3.75633052e+00 4.16530570e+00 4.57720163e+00 5.16780410e+00 5.70924128e+00 6.38555082e+00 6.47027403e+00 5.77625191e+00 5.13080215e+00 4.57286225e+00 4.17585236e+00 3.76960880e+00 3.50014354e+00 3.25541755e+00 3.16642588e+00 2.80715619e+00 2.82979439e+00 3.11637666e+00 3.23751137e+00 3.48949352e+00 3.76332728e+00 4.16047082e+00 4.58245063e+00 5.07619814e+00 5.67424818e+00 6.34242250e+00 6.54304647e+00 5.78083164e+00 5.22208508e+00 4.68307000e+00 4.27386541e+00 3.86236929e+00 3.50874257e+00 3.33564597e+00 3.18127084e+00 3.13389048e+00 3.05216487e+00 3.10451380e+00 3.26657867e+00 3.40895051e+00 3.72369499e+00 4.08013355e+00 4.49968279e+00 5.00554348e+00 5.61084831e+00 6.29684799e+00 6.62641593e+00 5.98593919e+00 5.34493998e+00 4.77892878e+00 4.33521638e+00 3.95239093e+00 3.58801889e+00 3.36765047e+00 3.19917040e+00 3.11060944e+00 3.12119759e+00 3.12532279e+00 3.27471792e+00 3.44073224e+00 3.77511814e+00 4.13822433e+00 4.49908209e+00 4.99307953e+00 5.51697561e+00 6.23919378e+00 6.80929854e+00 6.10661275e+00 5.50010345e+00 4.93956024e+00 4.51097531e+00 4.06595196e+00 3.72213857e+00 3.46034637e+00 3.31189589e+00 3.19241439e+00 3.20554668e+00 3.17694833e+00 3.29226918e+00 3.55523432e+00 3.75617870e+00 4.10405184e+00 4.52724623e+00 5.03436743e+00 5.54145383e+00 6.19644115e+00 6.97095286e+00 6.28056368e+00 5.67409517e+00 5.10181452e+00 4.60861759e+00 4.18576202e+00 3.80919968e+00 3.55106149e+00 3.43379236e+00 3.30986137e+00 3.21254778e+00 3.32973142e+00 3.40158543e+00 3.60650245e+00 3.83309579e+00 4.17115245e+00 4.52587753e+00 5.06776986e+00 5.51561353e+00 6.30615766e+00 7.22131927e+00 6.49856568e+00 5.79854422e+00 5.26237779e+00 4.81802630e+00 4.41642257e+00 4.01659483e+00 3.74466442e+00 3.50593930e+00 3.43053752e+00 3.33707067e+00 3.46757560e+00 3.43915904e+00 3.68544859e+00 3.90691973e+00 4.24963835e+00 4.63726647e+00 5.08881630e+00 5.59882922e+00 6.23536646e+00 7.42136025e+00 6.75150978e+00 6.06474648e+00 5.47474337e+00 5.01860667e+00 4.54767740e+00 4.19848077e+00 3.90964580e+00 3.71345417e+00 3.58426347e+00 3.47401960e+00 3.54172864e+00 3.63049860e+00 3.80534730e+00 4.02115321e+00 4.35377546e+00 4.72414029e+00 5.15857025e+00 5.71499154e+00 6.32118077e+00 7.62764779e+00 6.96750779e+00 6.27533177e+00 5.67218693e+00 5.20778907e+00 4.69718714e+00 4.38373705e+00 4.01421367e+00 3.93632999e+00 3.77287238e+00 3.65053231e+00 3.69510610e+00 3.78169805e+00 3.91645631e+00 4.12671336e+00 4.49272532e+00 4.82724704e+00 5.31214435e+00 5.82120429e+00 6.43790272e+00 7.94707303e+00 7.25709997e+00 6.49482987e+00 5.92404128e+00 5.48702125e+00 4.97447217e+00 4.62366630e+00 4.32871931e+00 4.15481696e+00 3.97523687e+00 3.89400009e+00 3.87765924e+00 3.88376424e+00 4.07614314e+00 4.30503287e+00 4.53252934e+00 4.98282011e+00 5.35874360e+00 5.94460772e+00 6.48681469e+00 8.20833615e+00 7.47614760e+00 6.80033769e+00 6.19133829e+00 5.72109193e+00 5.26942181e+00 4.85580276e+00 4.62499148e+00 4.29032213e+00 4.12134428e+00 4.09388145e+00 4.05629376e+00 4.10699182e+00 4.34119867e+00 4.51433344e+00 4.75252045e+00 5.11963200e+00 5.53212621e+00 6.02153304e+00 6.61295158e+00
        </DataArray>
      </PointData>
    </Piece>
  </ImageData>
</VTKFile>
