<?xml version="1.0"?>
<VTKFile type="ImageData" version="0.1" byte_order="LittleEndian">
  <ImageData WholeExtent="0 19 0 19 0 0" Origin="0 0 0" Spacing="1 1 1">
    <Piece Extent="0 19 0 19 0 0">
      <PointData Scalars="Loss">
        <DataArray type="Float64" Name="Loss" format="ascii">
          3.77143763e+00 3.47181608e+00 3.19833997e+00 2.92993221e+00 2.76037439e+00 2.61099354e+00 2.49134253e+00 2.39103369e+00 2.41588233e+00 2.42564793e+00 2.48769129e+00 2.59422910e+00 2.72165396e+00 2.91004931e+00 3.15195383e+00 3.39504659e+00 3.69462440e+00 4.03681561e+00 4.43093265e+00 4.90205730e+00 3.66540720e+00 3.35437016e+00 3.08095673e+00 2.83869976e+00 2.65238458e+00 2.50242424e+00 2.36396365e+00 2.26879320e+00 2.26012044e+00 2.28312858e+00 2.33521017e+00 2.41871284e+00 2.56578014e+00 2.73524245e+00 2.94919526e+00 3.21410765e+00 3.52373492e+00 3.85381869e+00 4.26322755e+00 4.66943940e+00 3.61392504e+00 3.29585067e+00 2.99719075e+00 2.76793270e+00 2.56504573e+00 2.37083821e+00 2.27825579e+00 2.18520451e+00 2.13320587e+00 2.16652471e+00 2.20004398e+00 2.30771127e+00 2.42584420e+00 2.55653991e+00 2.76647359e+00 3.05942960e+00 3.33726366e+00 3.69027560e+00 4.08182146e+00 4.50125047e+00 3.56981978e+00 3.22859280e+00 2.92787159e+00 2.68011097e+00 2.49364781e+00 2.29394836e+00 2.18220265e+00 2.11397259e+00 2.05529862e+00 2.06075092e+00 2.08963883e+00 2.16327681e+00 2.28183965e+00 2.45653203e+00 2.67457235e+00 2.92212330e+00 3.17084794e+00 3.54557910e+00 3.95385324e+00 4.31727704e+00 3.54474846e+00 3.16050397e+00 2.90903418e+00 2.63058709e+00 2.41481404e+00 2.24927250e+00 2.09941512e+00 2.02057022e+00 1.96606556e+00 1.97002192e+00 1.97699254e+00 2.06205681e+00 2.19433889e+00 2.34961136e+00 2.55357640e+00 2.77361385e+00 3.06015617e+00 3.40527762e+00 3.77338520e+00 4.16124700e+00 3.50348228e+00 3.13920187e+00 2.82728734e+00 2.61442015e+00 2.39298592e+00 2.17971403e+00 2.05396809e+00 1.94387907e+00 1.93927154e+00 1.89067587e+00 1.93901721e+00 1.96631956e+00 2.12127739e+00 2.25685465e+00 2.46671105e+00 2.67895930e+00 2.94751425e+00 3.28662817e+00 3.64041512e+00 4.06006631e+00 3.52076738e+00 3.15643252e+00 2.85681328e+00 2.53697895e+00 2.39232287e+00 2.15355086e+00 2.02292625e+00 1.91559529e+00 1.85951719e+00 1.80598582e+00 1.85015291e+00 1.92571752e+00 2.02782150e+00 2.15195509e+00 2.34217734e+00 2.59654496e+00 2.85460568e+00 3.17211767e+00 3.51356707e+00 3.95723423e+00 3.52702842e+00 3.15104071e+00 2.85480824e+00 2.56420121e+00 2.31824359e+00 2.10420384e+00 1.98469222e+00 1.90158598e+00 1.79109738e+00 1.76852490e+00 1.76618289e+00 1.86959939e+00 1.98410303e+00 2.05844107e+00 2.27989621e+00 2.50501216e+00 2.75749468e+00 3.05966342e+00 3.42446812e+00 3.79330184e+00 3.54454033e+00 3.15499149e+00 2.85396458e+00 2.57766180e+00 2.33191781e+00 2.16628200e+00 1.98250981e+00 1.85848480e+00 1.76667872e+00 1.75824278e+00 1.78299696e+00 1.80233687e+00 1.91932298e+00 2.04204980e+00 2.19828305e+00 2.45054475e+00 2.71668295e+00 2.98029346e+00 3.33586450e+00 3.73023746e+00 3.60741820e+00 3.22872426e+00 2.89830892e+00 2.61041155e+00 2.38182041e+00 2.13662219e+00 1.95485670e+00 1.80567154e+00 1.77977235e+00 1.87234192e+00 1.89496207e+00 1.76304622e+00 1.87016923e+00 2.02784746e+00 2.18563248e+00 2.39818024e+00 2.63946260e+00 2.94869224e+00 3.26576768e+00 3.65012830e+00 3.67531143e+00 3.26255135e+00 2.95418963e+00 2.62244700e+00 2.38750458e+00 2.17620145e+00 2.00557888e+00 1.86093869e+00 1.80398547e+00 1.89102643e+00 1.90510182e+00 1.82710966e+00 1.85126865e+00 1.98587574e+00 2.15233792e+00 2.36611726e+00 2.58137448e+00 2.87561814e+00 3.21416096e+00 3.57248021e+00 3.71529640e+00 3.36148850e+00 2.99758412e+00 2.71235402e+00 2.46864469e+00 2.20795974e+00 2.04227959e+00 1.90275671e+00 1.81961267e+00 1.76085514e+00 1.74827609e+00 1.79113996e+00 1.84051838e+00 1.96944792e+00 2.11664013e+00 2.39285893e+00 2.56973771e+00 2.85905194e+00 3.16723589e+00 3.58071133e+00 3.81851303e+00 3.42055221e+00 3.08877970e+00 2.77970241e+00 2.47815649e+00 2.27777224e+00 2.07672770e+00 1.95234908e+00 1.82958545e+00 1.79186845e+00 1.79314118e+00 1.81353197e+00 1.88038070e+00 1.97341698e+00 2.14258445e+00 2.31093525e+00 2.57258790e+00 2.85056795e+00 3.15509659e+00 3.52898921e+00 3.90485008e+00 3.51117247e+00 3.13842261e+00 2.89550912e+00 2.54696560e+00 2.34406083e+00 2.15686497e+00 2.02738007e+00 1.91783041e+00 1.82909747e+00 1.83604982e+00 1.86077657e+00 1.89721160e+00 2.02354440e+00 2.15833514e+00 2.32711344e+00 2.54420208e+00 2.85220732e+00 3.14173849e+00 3.49895516e+00 4.05185980e+00 3.60855533e+00 3.25436824e+00 2.94653708e+00 2.66523502e+00 2.45175167e+00 2.21716382e+00 2.08209194e+00 2.00780175e+00 1.88095418e+00 1.87257797e+00 1.88879836e+00 1.98566387e+00 2.07695029e+00 2.20857218e+00 2.35345195e+00 2.58586590e+00 2.83870071e+00 3.18494367e+00 3.53895755e+00 4.16446936e+00 3.77800295e+00 3.38892857e+00 3.05459233e+00 2.79445360e+00 2.55440782e+00 2.35989337e+00 2.19858003e+00 2.05790156e+00 1.97809486e+00 1.97245147e+00 1.92999195e+00 2.00909812e+00 2.08765638e+00 2.25697247e+00 2.42014940e+00 2.65022261e+00 2.88647327e+00 3.18560100e+00 3.54144575e+00 4.34969897e+00 3.89897994e+00 3.52933156e+00 3.19159197e+00 2.87378851e+00 2.66240803e+00 2.45486819e+00 2.28834256e+00 2.15278313e+00 2.08160524e+00 2.05617322e+00 2.05924374e+00 2.08654077e+00 2.18923230e+00 2.32511778e+00 2.49220894e+00 2.71733910e+00 2.94599613e+00 3.22702919e+00 3.57891011e+00 4.50683896e+00 4.06132732e+00 3.71222785e+00 3.35936537e+00 3.07334312e+00 2.76899792e+00 2.55283458e+00 2.41686795e+00 2.29358290e+00 2.19239953e+00 2.14636340e+00 2.13398833e+00 2.17638332e+00 2.26468987e+00 2.35775734e+00 2.56054950e+00 2.72398611e+00 3.00810417e+00 3.27205000e+00 3.64766394e+00 4.69521772e+00 4.24718480e+00 3.85963001e+00 3.51622296e+00 3.21703346e+00 2.97356687e+00 2.74133939e+00 2.53262192e+00 2.42368764e+00 2.33336581e+00 2.26356806e+00 2.26272635e+00 2.28701829e+00 2.37648931e+00 2.50420668e+00 2.63602698e+00 2.88008787e+00 3.04013357e+00 3.34719400e+00 3.72683595e+00 4.89469611e+00 4.42936949e+00 4.01354034e+00 3.70510386e+00 3.41020700e+00 3.11441584e+00 2.85586899e+00 2.69158287e+00 2.59967685e+00 2.47729949e+00 2.42697304e+00 2.41402724e+00 2.39486178e+00 2.46932139e+00 2.60988380e+00 2.76176538e+00 2.93596105e+00 3.13404889e+00 3.44504406e+00 3.76014966e+00
        </DataArray>
      </PointData>
    </Piece>
  </ImageData>
</VTKFile>
