<?xml version="1.0"?>
<VTKFile type="ImageData" version="0.1" byte_order="LittleEndian">
  <ImageData WholeExtent="0 19 0 19 0 0" Origin="0 0 0" Spacing="1 1 1">
    <Piece Extent="0 19 0 19 0 0">
      <PointData Scalars="Loss">
        <DataArray type="Float64" Name="Loss" format="ascii">
          4.94994999e+00 4.54658484e+00 4.18974048e+00 3.85704408e+00 3.61610443e+00 3.40477224e+00 3.29999004e+00 3.16522148e+00 3.12328024e+00 3.19523967e+00 3.27716423e+00 3.38232362e+00 3.58028822e+00 3.87303136e+00 4.12684762e+00 4.52205498e+00 4.91859791e+00 5.38220163e+00 5.96685979e+00 6.53911679e+00 4.92807447e+00 4.51823887e+00 4.07618497e+00 3.77225807e+00 3.50072695e+00 3.31008471e+00 3.12536822e+00 3.05600224e+00 3.01172087e+00 2.98060509e+00 3.08540418e+00 3.19023984e+00 3.40889827e+00 3.62913330e+00 3.93303758e+00 4.34618209e+00 4.67670307e+00 5.19818434e+00 5.76467576e+00 6.31789550e+00 4.83765003e+00 4.37338557e+00 3.97468662e+00 3.69881176e+00 3.41304230e+00 3.17024431e+00 2.98037917e+00 2.88040976e+00 2.82295532e+00 2.87014866e+00 2.90462416e+00 3.02044048e+00 3.21278846e+00 3.46018774e+00 3.73385963e+00 4.07862070e+00 4.55664424e+00 4.96182412e+00 5.48357079e+00 6.01873304e+00 4.81694201e+00 4.35518996e+00 3.94034999e+00 3.58412365e+00 3.28983211e+00 3.04809893e+00 2.91083601e+00 2.80773975e+00 2.73277101e+00 2.76291212e+00 2.77372007e+00 2.84480783e+00 3.07449042e+00 3.30926723e+00 3.59878869e+00 3.93266865e+00 4.33198232e+00 4.75330697e+00 5.21464168e+00 5.84198191e+00 4.79915172e+00 4.27878515e+00 3.91366050e+00 3.53529627e+00 3.27797730e+00 3.02223704e+00 2.88449037e+00 2.69317409e+00 2.60653819e+00 2.61870307e+00 2.67113833e+00 2.78395219e+00 2.97957175e+00 3.15596026e+00 3.41777432e+00 3.75919904e+00 4.15516029e+00 4.57116544e+00 5.09757498e+00 5.65662172e+00 4.74644582e+00 4.26953355e+00 3.88355773e+00 3.50289773e+00 3.20848901e+00 2.96233823e+00 2.75688769e+00 2.63000159e+00 2.55444825e+00 2.55124699e+00 2.56322206e+00 2.65084768e+00 2.85415325e+00 3.05609321e+00 3.28668858e+00 3.61600280e+00 4.01541392e+00 4.39812715e+00 4.92667666e+00 5.48211785e+00 4.72503641e+00 4.26545451e+00 3.84107198e+00 3.45364121e+00 3.12973336e+00 2.94276329e+00 2.68632104e+00 2.55211592e+00 2.51540516e+00 2.52814616e+00 2.49480993e+00 2.61567243e+00 2.70220521e+00 2.94025264e+00 3.20216771e+00 3.50354886e+00 3.84036724e+00 4.31133493e+00 4.78975992e+00 5.33985062e+00 4.74969808e+00 4.29197757e+00 3.83474029e+00 3.44140760e+00 3.14831104e+00 2.91344355e+00 2.73831338e+00 2.53641608e+00 2.42865098e+00 2.46386881e+00 2.45872363e+00 2.50022893e+00 2.63445381e+00 2.83796349e+00 3.07851425e+00 3.39958905e+00 3.75832884e+00 4.17634894e+00 4.62187612e+00 5.14565061e+00 4.78905618e+00 4.28446688e+00 3.89814979e+00 3.51357141e+00 3.16267324e+00 2.86623539e+00 2.66208992e+00 2.51127264e+00 2.42090113e+00 2.39216583e+00 2.42430133e+00 2.51446340e+00 2.55106609e+00 2.77324360e+00 3.01190584e+00 3.29232032e+00 3.67010370e+00 4.03428358e+00 4.57763851e+00 5.03803301e+00 4.87579159e+00 4.38718947e+00 3.90427733e+00 3.54563147e+00 3.16449487e+00 2.96120704e+00 2.66298291e+00 2.51489297e+00 2.40487477e+00 2.34328804e+00 2.37599935e+00 2.39579483e+00 2.56244690e+00 2.68927637e+00 2.92004033e+00 3.24499838e+00 3.56869561e+00 4.03356272e+00 4.49186748e+00 4.98113692e+00 4.94532115e+00 4.45301617e+00 3.98632783e+00 3.60524959e+00 3.28711413e+00 2.95652485e+00 2.67632744e+00 2.54206834e+00 2.42508139e+00 2.37751569e+00 2.38351624e+00 2.46483919e+00 2.56016128e+00 2.68203428e+00 2.89359548e+00 3.18975133e+00 3.50296142e+00 3.91155512e+00 4.39565898e+00 4.86373456e+00 5.09875004e+00 4.53825351e+00 4.06526837e+00 3.67341818e+00 3.29817025e+00 3.00868938e+00 2.77985790e+00 2.60530323e+00 2.45812474e+00 2.40766927e+00 2.36440975e+00 2.48210843e+00 2.57164359e+00 2.62561617e+00 2.90836462e+00 3.19123281e+00 3.46901573e+00 3.84171317e+00 4.36769359e+00 4.83694802e+00 5.21148972e+00 4.66527530e+00 4.17195383e+00 3.74925993e+00 3.41460308e+00 3.07439155e+00 2.82400667e+00 2.60315678e+00 2.54670188e+00 2.46301568e+00 2.44449072e+00 2.42440395e+00 2.55369132e+00 2.68084205e+00 2.88703764e+00 3.17149744e+00 3.48166925e+00 3.85964607e+00 4.28363736e+00 4.80129061e+00 5.34917181e+00 4.77554913e+00 4.30022019e+00 3.87388346e+00 3.52083394e+00 3.17174006e+00 2.91529541e+00 2.72968349e+00 2.58619282e+00 2.51936989e+00 2.45604632e+00 2.48742102e+00 2.57667883e+00 2.71977383e+00 2.88953558e+00 3.17180184e+00 3.47196748e+00 3.84447762e+00 4.28389361e+00 4.77176823e+00 5.48226350e+00 4.89141823e+00 4.44927014e+00 3.95940806e+00 3.61024052e+00 3.28059128e+00 3.01742350e+00 2.83405790e+00 2.67183236e+00 2.58609701e+00 2.50898952e+00 2.58482941e+00 2.65917919e+00 2.76821121e+00 2.91636597e+00 3.19536881e+00 3.48082115e+00 3.86413541e+00 4.25975655e+00 4.74294913e+00 5.68349929e+00 5.11403930e+00 4.58479123e+00 4.15288820e+00 3.76574596e+00 3.46689948e+00 3.17195974e+00 2.92003693e+00 2.76461228e+00 2.66687588e+00 2.59106845e+00 2.62112042e+00 2.71961034e+00 2.82884716e+00 3.01270257e+00 3.23211223e+00 3.52427212e+00 3.94537795e+00 4.32407842e+00 4.73121389e+00 5.85512744e+00 5.31125595e+00 4.78879708e+00 4.29904377e+00 3.93798066e+00 3.56418225e+00 3.30027249e+00 3.08690735e+00 2.94525070e+00 2.80950978e+00 2.74713194e+00 2.75909690e+00 2.80933163e+00 2.93930900e+00 3.06727696e+00 3.29914084e+00 3.55272003e+00 3.94281471e+00 4.32389750e+00 4.76934359e+00 6.05249574e+00 5.47703258e+00 4.94184308e+00 4.48692506e+00 4.08178166e+00 3.73938448e+00 3.46456371e+00 3.25437539e+00 3.04550181e+00 2.90782600e+00 2.86950439e+00 2.87048936e+00 2.90407422e+00 3.00432766e+00 3.21410494e+00 3.38325477e+00 3.63250785e+00 3.99808051e+00 4.37992906e+00 4.85086128e+00 6.29521920e+00 5.69919504e+00 5.14624806e+00 4.67330359e+00 4.33070779e+00 3.92725700e+00 3.61502851e+00 3.39741993e+00 3.21884605e+00 3.07004405e+00 3.00774066e+00 3.00438586e+00 3.02115890e+00 3.08382956e+00 3.29044595e+00 3.49279069e+00 3.78139915e+00 4.09181371e+00 4.47213602e+00 4.88379603e+00 6.55490951e+00 5.96289532e+00 5.45774682e+00 4.91822536e+00 4.49786001e+00 4.13855137e+00 3.85974478e+00 3.57665963e+00 3.36291955e+00 3.24867443e+00 3.16259910e+00 3.20397882e+00 3.17279082e+00 3.26643825e+00 3.41201966e+00 3.56920802e+00 3.83678814e+00 4.23271596e+00 4.54356649e+00 4.97553688e+00
        </DataArray>
      </PointData>
    </Piece>
  </ImageData>
</VTKFile>
