<?xml version="1.0"?>
<VTKFile type="ImageData" version="0.1" byte_order="LittleEndian">
  <ImageData WholeExtent="0 19 0 19 0 0" Origin="0 0 0" Spacing="1 1 1">
    <Piece Extent="0 19 0 19 0 0">
      <PointData Scalars="Loss">
        <DataArray type="Float64" Name="Loss" format="ascii">
          6.63855757e+00 6.07992811e+00 5.60813974e+00 5.16248903e+00 4.75744019e+00 4.61698226e+00 4.35681971e+00 4.24944798e+00 4.29306243e+00 4.27817871e+00 4.40036737e+00 4.62204468e+00 4.87185775e+00 5.22522787e+00 5.57668624e+00 6.12111905e+00 6.62636613e+00 7.28906279e+00 8.01228455e+00 8.76066034e+00 6.43505615e+00 5.91137313e+00 5.42629952e+00 4.96685510e+00 4.64193097e+00 4.37099935e+00 4.21374833e+00 4.01646392e+00 4.00518778e+00 4.02041843e+00 4.14844287e+00 4.31959300e+00 4.55011779e+00 4.83550267e+00 5.29251818e+00 5.81188095e+00 6.33626401e+00 6.89822988e+00 7.63462405e+00 8.44637458e+00 6.33886352e+00 5.76996865e+00 5.25049992e+00 4.89265087e+00 4.45349576e+00 4.25481774e+00 4.02564445e+00 3.86370466e+00 3.85283101e+00 3.85704256e+00 3.93869415e+00 4.09119023e+00 4.29546116e+00 4.69112065e+00 5.04519813e+00 5.46125973e+00 6.01533545e+00 6.67501616e+00 7.35564014e+00 8.08801718e+00 6.33586513e+00 5.68274274e+00 5.15607171e+00 4.77156381e+00 4.35602944e+00 4.09819147e+00 3.81686125e+00 3.75397696e+00 3.58501917e+00 3.67701355e+00 3.73297257e+00 3.89529992e+00 4.12520389e+00 4.35097190e+00 4.81315832e+00 5.23626364e+00 5.74108094e+00 6.30712908e+00 7.00244002e+00 7.81307147e+00 6.20839473e+00 5.60622726e+00 5.12877273e+00 4.63615648e+00 4.23291915e+00 3.93361695e+00 3.72998181e+00 3.58452098e+00 3.51494079e+00 3.50761754e+00 3.59930492e+00 3.67920227e+00 3.91645841e+00 4.18567341e+00 4.56693464e+00 5.02709330e+00 5.51495098e+00 6.06678488e+00 6.74213885e+00 7.49636404e+00 6.26594420e+00 5.56891466e+00 5.06227561e+00 4.58148460e+00 4.23894493e+00 3.92099602e+00 3.62871075e+00 3.49660718e+00 3.37586235e+00 3.45385445e+00 3.42966991e+00 3.51836947e+00 3.73943303e+00 3.98963085e+00 4.32223908e+00 4.75855159e+00 5.26231100e+00 5.88978535e+00 6.50910183e+00 7.18614420e+00 6.24465630e+00 5.56657369e+00 5.08334850e+00 4.53586837e+00 4.20533648e+00 3.85835458e+00 3.60234528e+00 3.39245704e+00 3.29823351e+00 3.23394156e+00 3.29294815e+00 3.43127258e+00 3.61315321e+00 3.90921205e+00 4.22253016e+00 4.61468879e+00 5.16755699e+00 5.66660288e+00 6.32045884e+00 6.98719625e+00 6.20279161e+00 5.63456395e+00 5.07325801e+00 4.58083276e+00 4.16854393e+00 3.81333618e+00 3.46407177e+00 3.31875226e+00 3.19137587e+00 3.16233217e+00 3.15282628e+00 3.32089890e+00 3.51338258e+00 3.77139555e+00 4.03509989e+00 4.41076242e+00 4.89865219e+00 5.50513525e+00 6.16017128e+00 6.82152764e+00 6.29083636e+00 5.61455282e+00 5.17686872e+00 4.53681179e+00 4.13654740e+00 3.75759204e+00 3.52620452e+00 3.33359465e+00 3.10772527e+00 3.13559003e+00 3.14261786e+00 3.23103215e+00 3.43286681e+00 3.62844442e+00 3.95225503e+00 4.36318015e+00 4.80092846e+00 5.38869691e+00 5.97486282e+00 6.67314613e+00 6.38226655e+00 5.68461092e+00 5.19129041e+00 4.64239228e+00 4.19210580e+00 3.82164753e+00 3.53637386e+00 3.30183424e+00 3.12378866e+00 2.91631139e+00 2.95434091e+00 3.19055541e+00 3.38314270e+00 3.58095139e+00 3.88915830e+00 4.23710084e+00 4.68441031e+00 5.24160885e+00 5.85645017e+00 6.54769806e+00 6.54093358e+00 5.79316155e+00 5.22921663e+00 4.68411017e+00 4.23062483e+00 3.88268245e+00 3.54483027e+00 3.40019906e+00 3.16882709e+00 2.92392788e+00 2.89412781e+00 3.14639047e+00 3.32255141e+00 3.52667011e+00 3.82710105e+00 4.18593662e+00 4.65837383e+00 5.17846017e+00 5.74507171e+00 6.42078686e+00 6.62934103e+00 5.88530042e+00 5.37872964e+00 4.77190639e+00 4.36026266e+00 4.02214562e+00 3.61860758e+00 3.42842669e+00 3.24691400e+00 3.14902210e+00 3.15223554e+00 3.13328421e+00 3.34552564e+00 3.55029760e+00 3.76366623e+00 4.20345124e+00 4.56928969e+00 5.10208693e+00 5.70133107e+00 6.31353296e+00 6.86214527e+00 6.10587729e+00 5.55821782e+00 4.98324176e+00 4.44482208e+00 4.08382569e+00 3.66158102e+00 3.43416465e+00 3.23264390e+00 3.21454057e+00 3.17182123e+00 3.20547099e+00 3.31412158e+00 3.56732230e+00 3.77714814e+00 4.09734218e+00 4.59528155e+00 5.01283227e+00 5.63193899e+00 6.26144419e+00 7.01080309e+00 6.30416818e+00 5.69195196e+00 5.12259081e+00 4.62842517e+00 4.16123598e+00 3.88542714e+00 3.57826144e+00 3.40529612e+00 3.26193354e+00 3.21242456e+00 3.24936971e+00 3.35691851e+00 3.60468721e+00 3.82027245e+00 4.15553006e+00 4.51652440e+00 5.02804229e+00 5.59961455e+00 6.26259651e+00 7.29118564e+00 6.49102933e+00 5.87480393e+00 5.30612825e+00 4.77945098e+00 4.38545225e+00 4.01522229e+00 3.79088754e+00 3.56567575e+00 3.46102218e+00 3.36351435e+00 3.35163340e+00 3.40453415e+00 3.63483249e+00 3.99424954e+00 4.21586409e+00 4.62080744e+00 5.04717791e+00 5.64274486e+00 6.23018875e+00 7.47276434e+00 6.76383153e+00 6.11219757e+00 5.48859327e+00 4.99816379e+00 4.59542353e+00 4.23780285e+00 3.88718449e+00 3.68238437e+00 3.58572541e+00 3.44750157e+00 3.50497424e+00 3.54998200e+00 3.74511168e+00 3.97800680e+00 4.27853783e+00 4.64066546e+00 5.06801124e+00 5.61624895e+00 6.25965897e+00 7.86606819e+00 7.00315431e+00 6.38440779e+00 5.79645417e+00 5.27803660e+00 4.71573366e+00 4.38041025e+00 4.16095289e+00 3.87939518e+00 3.71435064e+00 3.60490797e+00 3.62235360e+00 3.69518230e+00 3.83630244e+00 4.08305455e+00 4.35670103e+00 4.78132470e+00 5.15982904e+00 5.70316971e+00 6.29447249e+00 8.03854151e+00 7.34676571e+00 6.66686757e+00 6.02180579e+00 5.49408357e+00 5.03171855e+00 4.64632967e+00 4.38303318e+00 4.05447124e+00 3.92681490e+00 3.85138416e+00 3.81661219e+00 3.92526780e+00 3.96082645e+00 4.19520071e+00 4.49231392e+00 4.84361513e+00 5.28941839e+00 5.77119869e+00 6.35937533e+00 8.40612749e+00 7.59845330e+00 6.94406754e+00 6.35679260e+00 5.80513346e+00 5.24819156e+00 4.91223200e+00 4.59128786e+00 4.26912516e+00 4.14304593e+00 4.01050952e+00 4.04677948e+00 4.11467571e+00 4.23861197e+00 4.35464239e+00 4.66882430e+00 4.96786722e+00 5.41671690e+00 5.87064228e+00 6.42791893e+00 8.76455065e+00 7.96092720e+00 7.28376861e+00 6.67360154e+00 6.06776109e+00 5.61336610e+00 5.15025767e+00 4.81240154e+00 4.59113806e+00 4.38202643e+00 4.23722094e+00 4.25840322e+00 4.21931402e+00 4.40220748e+00 4.54504368e+00 4.83159145e+00 5.16470039e+00 5.59145789e+00 6.07244268e+00 6.67179633e+00
        </DataArray>
      </PointData>
    </Piece>
  </ImageData>
</VTKFile>
