<?xml version="1.0"?>
<VTKFile type="ImageData" version="0.1" byte_order="LittleEndian">
  <ImageData WholeExtent="0 19 0 19 0 0" Origin="0 0 0" Spacing="1 1 1">
    <Piece Extent="0 19 0 19 0 0">
      <PointData Scalars="Loss">
        <DataArray type="Float64" Name="Loss" format="ascii">
          4.44159709e+00 4.02875667e+00 3.74079744e+00 3.43822933e+00 3.21796440e+00 3.05194008e+00 2.91159938e+00 2.84515282e+00 2.80242097e+00 2.82344702e+00 2.94222427e+00 3.01587667e+00 3.20887565e+00 3.41821537e+00 3.67435972e+00 3.97105785e+00 4.35189677e+00 4.82775983e+00 5.26581608e+00 5.78388449e+00 4.37458245e+00 3.96705951e+00 3.65428800e+00 3.36151829e+00 3.08059405e+00 2.90378942e+00 2.78949257e+00 2.70347751e+00 2.70260396e+00 2.70229755e+00 2.71594980e+00 2.86480669e+00 3.01593590e+00 3.23759083e+00 3.49053122e+00 3.76493888e+00 4.14982557e+00 4.60083436e+00 5.04653965e+00 5.54791685e+00 4.29181234e+00 3.87659889e+00 3.54129419e+00 3.24795934e+00 2.97393090e+00 2.80959009e+00 2.68095112e+00 2.60980976e+00 2.55061001e+00 2.53794042e+00 2.58627041e+00 2.69867575e+00 2.84183432e+00 3.08119420e+00 3.33798010e+00 3.59862131e+00 3.98055440e+00 4.35948474e+00 4.80406355e+00 5.33901704e+00 4.21465889e+00 3.79805814e+00 3.45915181e+00 3.17092568e+00 2.91927739e+00 2.71555212e+00 2.57080151e+00 2.46797857e+00 2.40177819e+00 2.39796807e+00 2.45496846e+00 2.61169780e+00 2.77445600e+00 2.89062114e+00 3.16782457e+00 3.51192439e+00 3.80375589e+00 4.18396507e+00 4.63325894e+00 5.15083765e+00 4.21827536e+00 3.76666332e+00 3.41456210e+00 3.10748923e+00 2.86208293e+00 2.66722243e+00 2.51702888e+00 2.35967134e+00 2.27112757e+00 2.30358000e+00 2.34042150e+00 2.44765463e+00 2.62270081e+00 2.81319412e+00 3.00482387e+00 3.27306412e+00 3.62262985e+00 4.04969343e+00 4.48652481e+00 5.00286930e+00 4.15976845e+00 3.75681688e+00 3.36755049e+00 3.05134458e+00 2.81179924e+00 2.59231000e+00 2.40887277e+00 2.31860819e+00 2.24427342e+00 2.20521069e+00 2.25077163e+00 2.32572254e+00 2.46346098e+00 2.66376753e+00 2.90066627e+00 3.21079978e+00 3.50375690e+00 3.88766008e+00 4.31010914e+00 4.81858291e+00 4.16494024e+00 3.76295209e+00 3.37323056e+00 3.06370434e+00 2.79123926e+00 2.55740869e+00 2.38020032e+00 2.29824086e+00 2.21129957e+00 2.15234199e+00 2.19417356e+00 2.27593071e+00 2.40602854e+00 2.58104627e+00 2.80114743e+00 3.07468452e+00 3.34574219e+00 3.75602353e+00 4.17203578e+00 4.69338964e+00 4.22010491e+00 3.77501369e+00 3.37756112e+00 3.04596358e+00 2.76169501e+00 2.57737355e+00 2.37526810e+00 2.19445971e+00 2.12627213e+00 2.12378307e+00 2.13658072e+00 2.21301406e+00 2.33390147e+00 2.48481680e+00 2.70995074e+00 2.98273267e+00 3.30224590e+00 3.62009876e+00 4.07432077e+00 4.58760475e+00 4.21448236e+00 3.82973364e+00 3.39077221e+00 3.03477892e+00 2.79354318e+00 2.55441573e+00 2.33487034e+00 2.23936576e+00 2.11931122e+00 2.06491255e+00 2.10111298e+00 2.18869347e+00 2.30398626e+00 2.42268432e+00 2.62375063e+00 2.87977177e+00 3.19543508e+00 3.53199234e+00 3.98453210e+00 4.44756449e+00 4.30811972e+00 3.84140215e+00 3.45692568e+00 3.08946814e+00 2.82966923e+00 2.54613663e+00 2.35745868e+00 2.23246591e+00 2.13466284e+00 2.12760988e+00 2.14464717e+00 2.13127830e+00 2.27000053e+00 2.39910219e+00 2.60161549e+00 2.82484324e+00 3.10862154e+00 3.51648411e+00 3.87937945e+00 4.30768529e+00 4.38687930e+00 3.90945109e+00 3.51635203e+00 3.13319909e+00 2.88544587e+00 2.58801574e+00 2.38794766e+00 2.21100581e+00 2.12483641e+00 2.16253356e+00 2.14621945e+00 2.15305731e+00 2.25709506e+00 2.35175857e+00 2.55313556e+00 2.75524862e+00 3.11817607e+00 3.40909477e+00 3.84333447e+00 4.29543104e+00 4.41352261e+00 3.97149948e+00 3.50704676e+00 3.23677723e+00 2.92606493e+00 2.60503618e+00 2.44136228e+00 2.29466597e+00 2.19435411e+00 2.10873205e+00 2.11763952e+00 2.12497463e+00 2.21927612e+00 2.38900545e+00 2.51169023e+00 2.79370924e+00 3.07440707e+00 3.38096613e+00 3.79268930e+00 4.20563007e+00 4.57476535e+00 4.11387883e+00 3.68902143e+00 3.26470031e+00 3.01047760e+00 2.65728992e+00 2.49922071e+00 2.36382679e+00 2.18931797e+00 2.12959767e+00 2.10544072e+00 2.15671321e+00 2.25654824e+00 2.34585958e+00 2.57264813e+00 2.74994012e+00 3.03630687e+00 3.38247372e+00 3.76892734e+00 4.18834235e+00 4.68413004e+00 4.24606178e+00 3.73095066e+00 3.39158999e+00 3.09653564e+00 2.84009077e+00 2.56956628e+00 2.35725421e+00 2.27133512e+00 2.21933293e+00 2.18179928e+00 2.16503069e+00 2.25645681e+00 2.39094807e+00 2.60016729e+00 2.77418284e+00 3.00454813e+00 3.38904730e+00 3.75762912e+00 4.15334249e+00 4.81429851e+00 4.36164826e+00 3.88846425e+00 3.51512852e+00 3.20407636e+00 2.91359529e+00 2.64941747e+00 2.50309989e+00 2.35533949e+00 2.28434134e+00 2.24781256e+00 2.25877847e+00 2.30107499e+00 2.39926986e+00 2.57816660e+00 2.81415106e+00 3.07620475e+00 3.37888491e+00 3.74307202e+00 4.15739496e+00 4.99421750e+00 4.48983770e+00 4.00638629e+00 3.63610327e+00 3.29734055e+00 3.00928033e+00 2.79623138e+00 2.56850711e+00 2.47526008e+00 2.32995290e+00 2.29359078e+00 2.35246885e+00 2.37982291e+00 2.48549441e+00 2.65496051e+00 2.84677758e+00 3.12143153e+00 3.47394938e+00 3.79325137e+00 4.20094259e+00 5.13592100e+00 4.62239466e+00 4.24483322e+00 3.80036317e+00 3.49401780e+00 3.15853256e+00 2.94113621e+00 2.72898909e+00 2.58731318e+00 2.48492311e+00 2.40444959e+00 2.42332469e+00 2.46029100e+00 2.56891810e+00 2.70076317e+00 2.96600166e+00 3.16300966e+00 3.45411194e+00 3.82703105e+00 4.21828208e+00 5.33091339e+00 4.82036210e+00 4.40942656e+00 3.96815321e+00 3.61654055e+00 3.34108775e+00 3.04067320e+00 2.86807822e+00 2.71012042e+00 2.58566652e+00 2.52201253e+00 2.51842023e+00 2.56117081e+00 2.65808345e+00 2.82808821e+00 2.98947611e+00 3.22319815e+00 3.55127443e+00 3.89817262e+00 4.29302410e+00 5.56213393e+00 5.04380594e+00 4.61939553e+00 4.17687133e+00 3.81993181e+00 3.48053380e+00 3.18681744e+00 3.01914104e+00 2.85370908e+00 2.75869765e+00 2.70701935e+00 2.68699468e+00 2.68174751e+00 2.76999360e+00 2.93540996e+00 3.12275849e+00 3.34770023e+00 3.60138405e+00 3.96497471e+00 4.37343736e+00 5.81039536e+00 5.27159196e+00 4.80846640e+00 4.37519566e+00 4.02221250e+00 3.62086871e+00 3.43413685e+00 3.23710518e+00 3.00748198e+00 2.92082146e+00 2.85810860e+00 2.83535825e+00 2.81366663e+00 2.95604287e+00 3.05563671e+00 3.21713209e+00 3.47250219e+00 3.72146132e+00 4.02348995e+00 4.38528813e+00
        </DataArray>
      </PointData>
    </Piece>
  </ImageData>
</VTKFile>
