<?xml version="1.0"?>
<VTKFile type="ImageData" version="0.1" byte_order="LittleEndian">
  <ImageData WholeExtent="0 19 0 19 0 0" Origin="0 0 0" Spacing="1 1 1">
    <Piece Extent="0 19 0 19 0 0">
      <PointData Scalars="Loss">
        <DataArray type="Float64" Name="Loss" format="ascii">
          4.67384584e+00 4.31338381e+00 3.94926550e+00 3.72898655e+00 3.48503211e+00 3.33031702e+00 3.17415731e+00 3.15839145e+00 3.10390567e+00 3.15704413e+00 3.24115709e+00 3.41043230e+00 3.59831757e+00 3.88064364e+00 4.14814096e+00 4.48669863e+00 4.90707180e+00 5.35704947e+00 5.93881115e+00 6.47169825e+00 4.60286493e+00 4.24269597e+00 3.91360189e+00 3.60691522e+00 3.30584842e+00 3.17904921e+00 3.06979454e+00 2.99281821e+00 2.91136381e+00 2.96335705e+00 3.07487615e+00 3.16669074e+00 3.39480207e+00 3.66635194e+00 3.92513308e+00 4.27506134e+00 4.69144975e+00 5.11492191e+00 5.64992551e+00 6.23410357e+00 4.53494567e+00 4.13544168e+00 3.75760857e+00 3.48650136e+00 3.27051648e+00 3.04535280e+00 2.90606370e+00 2.82322457e+00 2.75805273e+00 2.80950730e+00 2.88871231e+00 3.01649890e+00 3.16555515e+00 3.41950918e+00 3.72575732e+00 4.08950221e+00 4.40133559e+00 4.89095700e+00 5.39192567e+00 5.93528213e+00 4.48437283e+00 4.07847239e+00 3.70683081e+00 3.39858781e+00 3.10161799e+00 2.93376807e+00 2.81555007e+00 2.68508930e+00 2.68238009e+00 2.67381753e+00 2.71623908e+00 2.84713204e+00 3.03918882e+00 3.23514146e+00 3.51248136e+00 3.88424595e+00 4.24668665e+00 4.69406340e+00 5.13667944e+00 5.66239122e+00 4.45630094e+00 4.01160990e+00 3.66664152e+00 3.33674730e+00 3.08393372e+00 2.87300414e+00 2.73879134e+00 2.62122936e+00 2.55328164e+00 2.58415633e+00 2.62333330e+00 2.70900538e+00 2.87019094e+00 3.10401876e+00 3.35262508e+00 3.69411848e+00 4.04938366e+00 4.45257877e+00 4.93038523e+00 5.49134121e+00 4.42502496e+00 3.98583947e+00 3.60952592e+00 3.31422584e+00 2.98549103e+00 2.81539129e+00 2.66067083e+00 2.48667888e+00 2.45934287e+00 2.47141647e+00 2.44699428e+00 2.59799605e+00 2.74206515e+00 2.95852550e+00 3.22683604e+00 3.51875841e+00 3.88301515e+00 4.24226458e+00 4.75957389e+00 5.30412795e+00 4.44055637e+00 3.98965110e+00 3.58286030e+00 3.30795660e+00 2.97861638e+00 2.78374328e+00 2.58273331e+00 2.45911549e+00 2.39753918e+00 2.33922598e+00 2.38770400e+00 2.51865467e+00 2.65617207e+00 2.81703111e+00 3.06658094e+00 3.39846640e+00 3.74811693e+00 4.14961600e+00 4.61464805e+00 5.10095258e+00 4.49254988e+00 3.99733547e+00 3.62364051e+00 3.28322684e+00 3.01134854e+00 2.78171992e+00 2.57297903e+00 2.42031493e+00 2.34594657e+00 2.29885035e+00 2.31660975e+00 2.41735630e+00 2.54880460e+00 2.73577367e+00 2.97918342e+00 3.26000245e+00 3.61014425e+00 3.95368879e+00 4.38540220e+00 4.97049484e+00 4.53733722e+00 4.04288285e+00 3.65269110e+00 3.27619949e+00 2.98431732e+00 2.72987492e+00 2.54087829e+00 2.37531180e+00 2.29496895e+00 2.21492756e+00 2.26781913e+00 2.39280405e+00 2.42403491e+00 2.60269052e+00 2.85925625e+00 3.14955875e+00 3.49999460e+00 3.85148980e+00 4.32072361e+00 4.77399220e+00 4.59165487e+00 4.14994081e+00 3.69360286e+00 3.36906650e+00 3.02557817e+00 2.76650261e+00 2.54520668e+00 2.40977632e+00 2.31649440e+00 2.26706545e+00 2.25892327e+00 2.34687909e+00 2.41188806e+00 2.61540740e+00 2.83387239e+00 3.08937261e+00 3.41272557e+00 3.77462944e+00 4.25220570e+00 4.69359270e+00 4.70063317e+00 4.20500481e+00 3.77546738e+00 3.41656163e+00 3.08351552e+00 2.77616158e+00 2.61087036e+00 2.43469895e+00 2.30178583e+00 2.26118125e+00 2.26369687e+00 2.30528836e+00 2.41743011e+00 2.54433495e+00 2.84526108e+00 3.03433857e+00 3.33830342e+00 3.74337582e+00 4.08680599e+00 4.62311734e+00 4.80939277e+00 4.30802208e+00 3.87421408e+00 3.48670598e+00 3.15586402e+00 2.85977220e+00 2.62884995e+00 2.45814148e+00 2.35462627e+00 2.25595212e+00 2.23010122e+00 2.31945348e+00 2.42447236e+00 2.51442758e+00 2.71140893e+00 3.02297876e+00 3.30782173e+00 3.66879970e+00 4.07250196e+00 4.55022787e+00 4.99564322e+00 4.45323023e+00 3.99009574e+00 3.62474962e+00 3.23234917e+00 2.99524518e+00 2.72264540e+00 2.50901895e+00 2.46430342e+00 2.30252804e+00 2.30177423e+00 2.32157594e+00 2.40826348e+00 2.56978968e+00 2.72629471e+00 2.98719133e+00 3.23432046e+00 3.63267596e+00 4.01455847e+00 4.44625203e+00 5.12558885e+00 4.59453282e+00 4.09884640e+00 3.66498943e+00 3.37323678e+00 3.00866367e+00 2.77643977e+00 2.63324821e+00 2.47571612e+00 2.40813903e+00 2.38489213e+00 2.40623721e+00 2.42149489e+00 2.59361541e+00 2.77130706e+00 2.95562251e+00 3.28263384e+00 3.61353922e+00 4.00354580e+00 4.45445937e+00 5.26758285e+00 4.76266894e+00 4.28739684e+00 3.86664856e+00 3.46426171e+00 3.19606132e+00 2.93371734e+00 2.72494321e+00 2.56356268e+00 2.47527450e+00 2.46191332e+00 2.42948999e+00 2.48350246e+00 2.58865627e+00 2.79930896e+00 3.08399262e+00 3.30413464e+00 3.64555032e+00 3.99611042e+00 4.45504067e+00 5.45522531e+00 4.93220630e+00 4.45982814e+00 4.07613050e+00 3.61917639e+00 3.35044335e+00 3.06693822e+00 2.82601512e+00 2.71377941e+00 2.60654015e+00 2.52731610e+00 2.55024447e+00 2.61444660e+00 2.71676663e+00 2.85758969e+00 3.08424947e+00 3.32342507e+00 3.64927920e+00 4.06236196e+00 4.44686687e+00 5.65938961e+00 5.15818858e+00 4.70358865e+00 4.22605949e+00 3.83533088e+00 3.51819669e+00 3.22964065e+00 3.00817656e+00 2.84794401e+00 2.75674813e+00 2.67433828e+00 2.67728948e+00 2.66700532e+00 2.82379203e+00 2.92445635e+00 3.14080843e+00 3.43050649e+00 3.69786186e+00 4.03806613e+00 4.48170860e+00 5.98389023e+00 5.39943313e+00 4.88681709e+00 4.44099668e+00 4.05689228e+00 3.67348815e+00 3.42074443e+00 3.15339416e+00 3.05577816e+00 2.85794187e+00 2.78463228e+00 2.80453053e+00 2.81281255e+00 2.93393154e+00 3.04031392e+00 3.26803109e+00 3.46200216e+00 3.79514815e+00 4.14195903e+00 4.48934871e+00 6.18736168e+00 5.63598087e+00 5.10834182e+00 4.69354810e+00 4.28610244e+00 3.91122818e+00 3.63222216e+00 3.42738565e+00 3.22520341e+00 3.02581257e+00 2.98812926e+00 2.93871499e+00 2.96299556e+00 3.00393751e+00 3.18514562e+00 3.35776860e+00 3.57353667e+00 3.86407290e+00 4.24155515e+00 4.59331043e+00 6.46778201e+00 5.90253807e+00 5.39945972e+00 4.91566821e+00 4.53655489e+00 4.14411622e+00 3.80101396e+00 3.60404895e+00 3.38067500e+00 3.26914887e+00 3.19469218e+00 3.15011841e+00 3.13442354e+00 3.21565761e+00 3.29041747e+00 3.51070010e+00 3.69952190e+00 4.04377811e+00 4.36580394e+00 4.72199114e+00
        </DataArray>
      </PointData>
    </Piece>
  </ImageData>
</VTKFile>
