<?xml version="1.0"?>
<VTKFile type="ImageData" version="0.1" byte_order="LittleEndian">
  <ImageData WholeExtent="0 19 0 19 0 0" Origin="0 0 0" Spacing="1 1 1">
    <Piece Extent="0 19 0 19 0 0">
      <PointData Scalars="Loss">
        <DataArray type="Float64" Name="Loss" format="ascii">
          2.38491582e+00 2.19890477e+00 2.01107706e+00 1.84163335e+00 1.69698921e+00 1.61129696e+00 1.53608945e+00 1.50325996e+00 1.45717530e+00 1.46650585e+00 1.51485528e+00 1.55069769e+00 1.61794115e+00 1.74852151e+00 1.91143363e+00 2.04934398e+00 2.26159217e+00 2.46446201e+00 2.72895879e+00 2.98905909e+00 2.36100926e+00 2.14120056e+00 1.94744268e+00 1.81227531e+00 1.64421750e+00 1.55649279e+00 1.47554372e+00 1.43568549e+00 1.40204740e+00 1.38884044e+00 1.40596717e+00 1.48601833e+00 1.56537760e+00 1.67827944e+00 1.82070093e+00 1.96925317e+00 2.17452601e+00 2.36830306e+00 2.62984001e+00 2.88317136e+00 2.29978020e+00 2.11219801e+00 1.90380933e+00 1.74897018e+00 1.60692485e+00 1.51373811e+00 1.43081359e+00 1.36516103e+00 1.33427619e+00 1.32579105e+00 1.35169619e+00 1.39713485e+00 1.48701472e+00 1.60037545e+00 1.71424867e+00 1.87977928e+00 2.07889907e+00 2.29457954e+00 2.52242833e+00 2.77228749e+00 2.27537718e+00 2.05911939e+00 1.85554091e+00 1.69852261e+00 1.58115262e+00 1.44818139e+00 1.37439463e+00 1.31175613e+00 1.28561776e+00 1.27809832e+00 1.27949742e+00 1.33841217e+00 1.43331032e+00 1.51581790e+00 1.64904878e+00 1.80307826e+00 1.98242375e+00 2.19189460e+00 2.43585710e+00 2.69116555e+00 2.27097083e+00 2.04507728e+00 1.84569121e+00 1.66517945e+00 1.54181934e+00 1.42702885e+00 1.31795864e+00 1.27178921e+00 1.24167822e+00 1.23861570e+00 1.24577440e+00 1.29819950e+00 1.35637431e+00 1.45683946e+00 1.57251410e+00 1.73682729e+00 1.93457806e+00 2.11559510e+00 2.35511885e+00 2.61051533e+00 2.25269520e+00 2.04307547e+00 1.82789052e+00 1.65104595e+00 1.53021151e+00 1.38845518e+00 1.29338031e+00 1.23448320e+00 1.20099762e+00 1.18746733e+00 1.20221430e+00 1.22479497e+00 1.32534585e+00 1.41659980e+00 1.52782785e+00 1.66554817e+00 1.84293641e+00 2.05051724e+00 2.28077866e+00 2.54979873e+00 2.25964558e+00 2.00863437e+00 1.81401589e+00 1.65257296e+00 1.49699364e+00 1.37372522e+00 1.26664830e+00 1.19875621e+00 1.16353401e+00 1.16464841e+00 1.19305232e+00 1.21715559e+00 1.28228600e+00 1.36242674e+00 1.48192369e+00 1.62294507e+00 1.79357713e+00 1.98249610e+00 2.22364536e+00 2.48409027e+00 2.27626992e+00 2.03120788e+00 1.80286766e+00 1.62169475e+00 1.48356511e+00 1.35837741e+00 1.25250533e+00 1.17467877e+00 1.15149759e+00 1.12130844e+00 1.13120847e+00 1.15583098e+00 1.20536082e+00 1.31850178e+00 1.43254798e+00 1.57250797e+00 1.75181181e+00 1.93210679e+00 2.15171724e+00 2.41104076e+00 2.26890122e+00 2.02403351e+00 1.84479732e+00 1.64939558e+00 1.48861582e+00 1.35177926e+00 1.26715904e+00 1.17340641e+00 1.12366304e+00 1.12501921e+00 1.12233363e+00 1.15428610e+00 1.21799084e+00 1.32308616e+00 1.40808577e+00 1.55486786e+00 1.69147531e+00 1.90336293e+00 2.12406180e+00 2.36132201e+00 2.28988574e+00 2.06581982e+00 1.85485808e+00 1.66210339e+00 1.49956835e+00 1.36183615e+00 1.25854224e+00 1.17972026e+00 1.12956555e+00 1.44532145e+00 1.44577523e+00 1.11583381e+00 1.18778540e+00 1.28523067e+00 1.36715357e+00 1.51582131e+00 1.69180032e+00 1.86401308e+00 2.09695821e+00 2.32713554e+00 2.32933764e+00 2.09430051e+00 1.84780744e+00 1.68109427e+00 1.52823798e+00 1.38121800e+00 1.23046647e+00 1.20340682e+00 1.13025851e+00 1.44524703e+00 1.43617944e+00 1.13820130e+00 1.17859085e+00 1.26510073e+00 1.37238476e+00 1.51057721e+00 1.65533004e+00 1.84278613e+00 2.04539773e+00 2.29737881e+00 2.37843477e+00 2.13981699e+00 1.90657590e+00 1.70766146e+00 1.52701249e+00 1.39973178e+00 1.29623630e+00 1.20132323e+00 1.13565749e+00 1.10744604e+00 1.11816714e+00 1.14265054e+00 1.21053697e+00 1.25037244e+00 1.37190204e+00 1.48670957e+00 1.64692215e+00 1.84792562e+00 2.03078006e+00 2.26572331e+00 2.41573004e+00 2.18282710e+00 1.94062488e+00 1.76016754e+00 1.56187143e+00 1.43980432e+00 1.33435926e+00 1.25342045e+00 1.17226646e+00 1.11700197e+00 1.13020953e+00 1.14153844e+00 1.18077153e+00 1.27636198e+00 1.35906085e+00 1.49020365e+00 1.64602940e+00 1.82957651e+00 2.01549631e+00 2.25759031e+00 2.47475864e+00 2.22047928e+00 1.97776263e+00 1.79609915e+00 1.62689320e+00 1.48215361e+00 1.34867417e+00 1.25132691e+00 1.21490323e+00 1.16482557e+00 1.15257492e+00 1.17174205e+00 1.20583918e+00 1.27931197e+00 1.36636632e+00 1.50159494e+00 1.64547424e+00 1.81808039e+00 1.99929017e+00 2.25713830e+00 2.54291097e+00 2.28360424e+00 2.05251356e+00 1.85278052e+00 1.68914020e+00 1.52507358e+00 1.39231904e+00 1.30698929e+00 1.24539950e+00 1.20752307e+00 1.19405792e+00 1.18559674e+00 1.21909782e+00 1.29325200e+00 1.37823456e+00 1.52350295e+00 1.65430572e+00 1.84531736e+00 2.01115185e+00 2.24544509e+00 2.62810874e+00 2.35625646e+00 2.12486322e+00 1.92535860e+00 1.74012793e+00 1.56926204e+00 1.46325124e+00 1.36510891e+00 1.29839048e+00 1.23198299e+00 1.22772310e+00 1.24831353e+00 1.27003431e+00 1.32766841e+00 1.43687191e+00 1.52724087e+00 1.66627888e+00 1.84148057e+00 2.04267807e+00 2.24486231e+00 2.67311726e+00 2.43209829e+00 2.19733285e+00 1.99583790e+00 1.81539682e+00 1.65293434e+00 1.53192373e+00 1.39177125e+00 1.35748406e+00 1.30504394e+00 1.26954169e+00 1.28266507e+00 1.31354953e+00 1.36907144e+00 1.47476877e+00 1.55929145e+00 1.70360082e+00 1.85539735e+00 2.07035504e+00 2.30506684e+00 2.79936981e+00 2.52978342e+00 2.27600308e+00 2.05240529e+00 1.88449867e+00 1.74317749e+00 1.59729848e+00 1.47782578e+00 1.41214887e+00 1.35287815e+00 1.31394978e+00 1.31957473e+00 1.35877046e+00 1.40929550e+00 1.48695471e+00 1.61763742e+00 1.72670991e+00 1.90979510e+00 2.09713953e+00 2.29950782e+00 2.89351357e+00 2.62905549e+00 2.38933985e+00 2.16445986e+00 1.97689482e+00 1.80456155e+00 1.66163889e+00 1.56824051e+00 1.48333757e+00 1.41109286e+00 1.39259994e+00 1.40008640e+00 1.40044758e+00 1.47529105e+00 1.55482573e+00 1.65654430e+00 1.77219163e+00 1.94327612e+00 2.13688718e+00 2.35196356e+00 3.00612185e+00 2.74182783e+00 2.48785040e+00 2.27998641e+00 2.06806201e+00 1.90789059e+00 1.77082324e+00 1.62410110e+00 1.56816518e+00 1.51083000e+00 1.46876050e+00 1.47788010e+00 1.50797547e+00 1.54777462e+00 1.60899923e+00 1.72575231e+00 1.86975351e+00 2.02221384e+00 2.19736814e+00 2.39853437e+00
        </DataArray>
      </PointData>
    </Piece>
  </ImageData>
</VTKFile>
