<?xml version="1.0"?>
<VTKFile type="ImageData" version="0.1" byte_order="LittleEndian">
  <ImageData WholeExtent="0 19 0 19 0 0" Origin="0 0 0" Spacing="1 1 1">
    <Piece Extent="0 19 0 19 0 0">
      <PointData Scalars="Loss">
        <DataArray type="Float64" Name="Loss" format="ascii">
          6.44075877e+00 5.85158422e+00 5.37923697e+00 4.97620817e+00 4.64157739e+00 4.40504039e+00 4.23589274e+00 4.16585078e+00 4.12128338e+00 4.13067365e+00 4.16586008e+00 4.37092753e+00 4.60121236e+00 4.97192869e+00 5.42732186e+00 5.84009484e+00 6.41224043e+00 7.05159278e+00 7.74801164e+00 8.49607478e+00 6.28263962e+00 5.75035166e+00 5.21565681e+00 4.83025682e+00 4.48146097e+00 4.20640702e+00 4.04532509e+00 3.88983291e+00 3.83166661e+00 3.89425324e+00 3.97242913e+00 4.14988961e+00 4.36557673e+00 4.70026700e+00 5.07757805e+00 5.53001142e+00 6.09914359e+00 6.69217620e+00 7.32331362e+00 8.18396022e+00 6.18676610e+00 5.62076860e+00 5.10491755e+00 4.72779846e+00 4.31058858e+00 4.03499958e+00 3.87002793e+00 3.72713486e+00 3.70889267e+00 3.65554802e+00 3.78704754e+00 3.89816352e+00 4.16971837e+00 4.46393917e+00 4.78007537e+00 5.31404661e+00 5.79458300e+00 6.37633748e+00 7.07045816e+00 7.87992439e+00 6.09961866e+00 5.56640145e+00 5.06838589e+00 4.57577096e+00 4.22732978e+00 3.95482527e+00 3.66458053e+00 3.58248296e+00 3.43669809e+00 3.52938128e+00 3.55469189e+00 3.72040088e+00 3.96569170e+00 4.26902649e+00 4.58579216e+00 5.00148252e+00 5.58630393e+00 6.12877932e+00 6.77994719e+00 7.53508097e+00 6.05696670e+00 5.46391775e+00 4.93532026e+00 4.49047978e+00 4.18352721e+00 3.87104563e+00 3.51348185e+00 3.44584942e+00 3.28716348e+00 3.35840863e+00 3.46261989e+00 3.48609814e+00 3.75333150e+00 3.98852044e+00 4.36319706e+00 4.77309230e+00 5.27805320e+00 5.92721058e+00 6.51713439e+00 7.28103386e+00 6.06863972e+00 5.43866975e+00 4.91716055e+00 4.44258684e+00 4.06865260e+00 3.82826501e+00 3.53816155e+00 3.31597977e+00 3.26332963e+00 3.21946718e+00 3.32381113e+00 3.42833628e+00 3.62326581e+00 3.87692010e+00 4.19863806e+00 4.67975220e+00 5.10006981e+00 5.69920086e+00 6.33626243e+00 7.00242879e+00 6.10957191e+00 5.41730989e+00 4.86383037e+00 4.42690065e+00 4.04454805e+00 3.69661862e+00 3.47562546e+00 3.28562754e+00 3.18096206e+00 3.13010672e+00 3.17921242e+00 3.31852370e+00 3.41302312e+00 3.74045355e+00 4.10359689e+00 4.47460431e+00 4.91201018e+00 5.48410889e+00 6.11590842e+00 6.81158433e+00 6.13170633e+00 5.46599493e+00 4.90702971e+00 4.41645027e+00 4.00427191e+00 3.67847151e+00 3.45444521e+00 3.23971854e+00 3.11201877e+00 3.07430747e+00 3.05442964e+00 3.17864140e+00 3.39154745e+00 3.60510111e+00 4.00954943e+00 4.26948172e+00 4.79073881e+00 5.32253064e+00 5.94944667e+00 6.58989230e+00 6.18649907e+00 5.53978493e+00 4.94934289e+00 4.44204874e+00 3.99706775e+00 3.68152510e+00 3.36042146e+00 3.16452579e+00 3.03312906e+00 2.99635167e+00 3.06510214e+00 3.11998096e+00 3.26823186e+00 3.49218382e+00 3.86232630e+00 4.17437999e+00 4.70660128e+00 5.21199417e+00 5.79439195e+00 6.43180565e+00 6.21425460e+00 5.63022119e+00 4.99769442e+00 4.49328425e+00 4.09864329e+00 3.70830039e+00 3.41272629e+00 3.22601223e+00 3.06119568e+00 2.82390275e+00 2.85200445e+00 3.06201518e+00 3.22256874e+00 3.49804596e+00 3.77033647e+00 4.12515622e+00 4.54524694e+00 5.08791665e+00 5.62982970e+00 6.32984168e+00 6.31196247e+00 5.65117759e+00 5.05794841e+00 4.55107494e+00 4.12072701e+00 3.75238615e+00 3.42314070e+00 3.22923613e+00 3.06913249e+00 2.82256387e+00 2.79198473e+00 3.03326751e+00 3.21539338e+00 3.42518149e+00 3.66503817e+00 3.98398723e+00 4.48088634e+00 4.98226213e+00 5.59989334e+00 6.15131138e+00 6.44896548e+00 5.80179491e+00 5.19496998e+00 4.68236263e+00 4.21352414e+00 3.79027727e+00 3.49742441e+00 3.30109358e+00 3.13282966e+00 3.03803625e+00 3.00052100e+00 3.07607338e+00 3.21298416e+00 3.42455687e+00 3.64501328e+00 3.98422222e+00 4.39723309e+00 4.92544239e+00 5.48523846e+00 6.11009886e+00 6.58099200e+00 5.97914920e+00 5.32062380e+00 4.76191069e+00 4.29066419e+00 3.92021505e+00 3.59310878e+00 3.32561449e+00 3.22483968e+00 3.10844425e+00 3.03202559e+00 3.10089480e+00 3.23556576e+00 3.42468973e+00 3.67415998e+00 3.95472288e+00 4.37090314e+00 4.91023806e+00 5.44403400e+00 6.06325936e+00 6.83180396e+00 6.09913838e+00 5.44745076e+00 4.92102567e+00 4.41077914e+00 4.08253602e+00 3.67754844e+00 3.40013279e+00 3.25693926e+00 3.18685558e+00 3.11186956e+00 3.17595797e+00 3.28174182e+00 3.45723731e+00 3.69512982e+00 4.06241590e+00 4.40950618e+00 4.87958557e+00 5.37731903e+00 6.00510662e+00 6.98643676e+00 6.28330175e+00 5.68473419e+00 5.13532098e+00 4.63913749e+00 4.17381643e+00 3.84640882e+00 3.61191604e+00 3.39168730e+00 3.23307352e+00 3.20793176e+00 3.24362264e+00 3.33616366e+00 3.52857873e+00 3.81401623e+00 4.07766901e+00 4.44090241e+00 4.91037042e+00 5.45843222e+00 5.98067991e+00 7.24881011e+00 6.58901739e+00 5.88375038e+00 5.29599593e+00 4.79993650e+00 4.35477731e+00 3.97578162e+00 3.77174037e+00 3.52685089e+00 3.43633823e+00 3.38777690e+00 3.35905498e+00 3.43521271e+00 3.56622631e+00 3.80631411e+00 4.13090425e+00 4.49989631e+00 4.91353687e+00 5.46754137e+00 5.94045533e+00 7.56106887e+00 6.78515064e+00 6.15320481e+00 5.53365099e+00 5.01480514e+00 4.58901611e+00 4.24439774e+00 3.93604968e+00 3.78348179e+00 3.57217460e+00 3.53966086e+00 3.49079121e+00 3.59792980e+00 3.72800435e+00 3.94110923e+00 4.18606523e+00 4.51670179e+00 4.98057362e+00 5.50811590e+00 6.03747624e+00 7.74964944e+00 7.03230548e+00 6.38986057e+00 5.74735075e+00 5.27612069e+00 4.85205811e+00 4.45372959e+00 4.15268604e+00 3.86603526e+00 3.69225946e+00 3.68174182e+00 3.66141260e+00 3.73893726e+00 3.82326048e+00 4.10907830e+00 4.33474876e+00 4.63162486e+00 5.07618742e+00 5.61736357e+00 6.20149362e+00 8.10347380e+00 7.39364540e+00 6.67957825e+00 6.06179925e+00 5.55824742e+00 5.08431647e+00 4.69828287e+00 4.32312152e+00 4.13321153e+00 3.99702995e+00 3.89556811e+00 3.89718866e+00 3.92687057e+00 4.03031922e+00 4.20328640e+00 4.44341463e+00 4.86886391e+00 5.22063073e+00 5.70007477e+00 6.19515602e+00 8.45950190e+00 7.70560554e+00 6.98720236e+00 6.31579348e+00 5.80401339e+00 5.34685701e+00 4.94811841e+00 4.61990354e+00 4.35639617e+00 4.19267873e+00 4.09934613e+00 4.07674121e+00 4.11348571e+00 4.21996534e+00 4.44228390e+00 4.66352667e+00 4.92242382e+00 5.36218809e+00 5.78587234e+00 6.36233608e+00
        </DataArray>
      </PointData>
    </Piece>
  </ImageData>
</VTKFile>
