<?xml version="1.0"?>
<VTKFile type="ImageData" version="0.1" byte_order="LittleEndian">
  <ImageData WholeExtent="0 19 0 19 0 0" Origin="0 0 0" Spacing="1 1 1">
    <Piece Extent="0 19 0 19 0 0">
      <PointData Scalars="Loss">
        <DataArray type="Float64" Name="Loss" format="ascii">
          6.74388094e+00 6.08379666e+00 5.49563337e+00 5.11622968e+00 4.75089217e+00 4.42313554e+00 4.24670550e+00 4.10837560e+00 4.03925988e+00 4.02600121e+00 4.21661040e+00 4.32174109e+00 4.55490263e+00 4.85118684e+00 5.24977983e+00 5.75580099e+00 6.24963392e+00 6.89084598e+00 7.58722457e+00 8.40723593e+00 6.65920293e+00 6.00173225e+00 5.43413145e+00 5.03565725e+00 4.59971961e+00 4.29025840e+00 4.07003207e+00 3.93467048e+00 3.83826890e+00 3.86750204e+00 3.88120377e+00 4.10520699e+00 4.29100350e+00 4.68497920e+00 5.08743678e+00 5.45814031e+00 6.06948182e+00 6.69141608e+00 7.33777867e+00 8.18309211e+00 6.50335743e+00 5.92514835e+00 5.35761008e+00 4.88879147e+00 4.50274207e+00 4.18339582e+00 4.00631703e+00 3.82669311e+00 3.72237609e+00 3.68938579e+00 3.77615177e+00 3.89442006e+00 4.15722461e+00 4.39074549e+00 4.86387414e+00 5.28644974e+00 5.76446531e+00 6.40454015e+00 7.17572263e+00 7.91378620e+00 6.45684852e+00 5.83865304e+00 5.31231475e+00 4.78723265e+00 4.37388209e+00 4.07618054e+00 3.82244426e+00 3.71321420e+00 3.53778456e+00 3.55455540e+00 3.62574266e+00 3.72238879e+00 3.95351050e+00 4.30201351e+00 4.67541905e+00 5.07226803e+00 5.67656864e+00 6.19823695e+00 6.89800186e+00 7.70207300e+00 6.42232149e+00 5.83014556e+00 5.23481715e+00 4.72396420e+00 4.36085249e+00 4.03513523e+00 3.70133534e+00 3.57886399e+00 3.43075278e+00 3.43774513e+00 3.47778366e+00 3.65145708e+00 3.85422238e+00 4.08616824e+00 4.49927813e+00 4.88165376e+00 5.44965511e+00 6.09411542e+00 6.67000849e+00 7.39751233e+00 6.41475863e+00 5.79413795e+00 5.23400386e+00 4.69397327e+00 4.29432158e+00 3.96372762e+00 3.69596551e+00 3.49134578e+00 3.35544516e+00 3.36102040e+00 3.43420141e+00 3.52658438e+00 3.67329399e+00 3.98210468e+00 4.32625730e+00 4.78182812e+00 5.31576868e+00 5.88360775e+00 6.53011337e+00 7.22535507e+00 6.44402062e+00 5.73417003e+00 5.15848896e+00 4.66701082e+00 4.29977476e+00 3.91367669e+00 3.61458710e+00 3.41185684e+00 3.29822109e+00 3.25380382e+00 3.30720914e+00 3.39601215e+00 3.57566225e+00 3.83602445e+00 4.20981260e+00 4.64076915e+00 5.12043713e+00 5.70105151e+00 6.34067446e+00 7.08105502e+00 6.54624098e+00 5.82207707e+00 5.23157428e+00 4.65467844e+00 4.25452728e+00 3.85198984e+00 3.60320464e+00 3.37074424e+00 3.24304663e+00 3.21887349e+00 3.30605541e+00 3.30228531e+00 3.54006128e+00 3.79650397e+00 4.11986581e+00 4.50822065e+00 4.96514261e+00 5.56119398e+00 6.21582345e+00 6.86526282e+00 6.50714252e+00 5.88272689e+00 5.17917712e+00 4.73374866e+00 4.27078590e+00 3.87328763e+00 3.60076695e+00 3.38494518e+00 3.18643549e+00 3.17087608e+00 3.18897897e+00 3.33238631e+00 3.40053112e+00 3.70475510e+00 3.96520962e+00 4.44486022e+00 4.88389467e+00 5.42627427e+00 6.09810818e+00 6.78298420e+00 6.53161564e+00 5.91055867e+00 5.27072184e+00 4.76372009e+00 4.28732358e+00 3.90641123e+00 3.63401346e+00 3.35214666e+00 3.22162120e+00 2.92794461e+00 2.99142726e+00 3.25159235e+00 3.37475716e+00 3.62632055e+00 3.97557105e+00 4.32136067e+00 4.80128498e+00 5.36172997e+00 5.93368790e+00 6.63986625e+00 6.71236593e+00 5.94139661e+00 5.31271158e+00 4.78728307e+00 4.30292548e+00 3.95920917e+00 3.67670652e+00 3.39170761e+00 3.20622268e+00 3.01953183e+00 2.96477750e+00 3.22887755e+00 3.36819259e+00 3.57160819e+00 3.96309585e+00 4.27849148e+00 4.79002413e+00 5.25043914e+00 5.94256369e+00 6.55286708e+00 6.77502222e+00 6.05041600e+00 5.44292778e+00 4.91171079e+00 4.43811651e+00 4.01755868e+00 3.69320966e+00 3.38345246e+00 3.29571827e+00 3.21953578e+00 3.21077485e+00 3.18480832e+00 3.37946142e+00 3.62383424e+00 3.83412095e+00 4.27111206e+00 4.73782913e+00 5.22602183e+00 5.83010695e+00 6.50229895e+00 6.91645671e+00 6.13580321e+00 5.54411676e+00 4.98916473e+00 4.55652604e+00 4.09614650e+00 3.76571394e+00 3.47024928e+00 3.33262880e+00 3.22937051e+00 3.24534355e+00 3.25054640e+00 3.37486063e+00 3.61077729e+00 3.84797972e+00 4.28404152e+00 4.68939236e+00 5.21456324e+00 5.76607513e+00 6.40865867e+00 7.12674600e+00 6.32914514e+00 5.69996173e+00 5.14773490e+00 4.60797757e+00 4.21760882e+00 3.84748253e+00 3.63425332e+00 3.43067617e+00 3.38709328e+00 3.20672967e+00 3.29128833e+00 3.40391358e+00 3.60080526e+00 3.91194595e+00 4.23233552e+00 4.70681612e+00 5.20246606e+00 5.78557301e+00 6.38333623e+00 7.22150631e+00 6.49343611e+00 5.80809779e+00 5.25054891e+00 4.76538577e+00 4.33925543e+00 4.01697568e+00 3.70956588e+00 3.52680032e+00 3.33212128e+00 3.39612263e+00 3.40898748e+00 3.49670695e+00 3.64041994e+00 3.94378649e+00 4.32394491e+00 4.77239843e+00 5.24610614e+00 5.73051229e+00 6.34332510e+00 7.44350365e+00 6.67468791e+00 6.01929392e+00 5.39539659e+00 4.95427489e+00 4.47829263e+00 4.12948285e+00 3.82902321e+00 3.60487584e+00 3.48094943e+00 3.42276658e+00 3.43926799e+00 3.60353458e+00 3.78498297e+00 4.05726884e+00 4.38647477e+00 4.77450947e+00 5.21601934e+00 5.79095254e+00 6.46619459e+00 7.61767852e+00 6.84145149e+00 6.22588766e+00 5.65667461e+00 5.05933779e+00 4.64217326e+00 4.28455122e+00 4.01827846e+00 3.81142530e+00 3.61874249e+00 3.59982639e+00 3.56037736e+00 3.65030580e+00 3.83892750e+00 4.08478225e+00 4.40914150e+00 4.83716774e+00 5.25144832e+00 5.83329617e+00 6.49774693e+00 7.91640276e+00 7.11149333e+00 6.41560304e+00 5.84343312e+00 5.29391062e+00 4.87359188e+00 4.48826897e+00 4.17342109e+00 3.93664138e+00 3.78714380e+00 3.72152911e+00 3.74045403e+00 3.80874117e+00 3.95634446e+00 4.20988384e+00 4.50626909e+00 4.87279121e+00 5.32575836e+00 5.91464204e+00 6.50309403e+00 8.10101633e+00 7.34750597e+00 6.67102392e+00 6.07749341e+00 5.50320506e+00 5.06212967e+00 4.66247811e+00 4.39394561e+00 4.08217304e+00 3.93933678e+00 3.86203596e+00 3.87202879e+00 3.94709774e+00 4.11117165e+00 4.30476628e+00 4.59030268e+00 4.97813039e+00 5.45967276e+00 6.01303368e+00 6.58842663e+00 8.45092213e+00 7.63962055e+00 6.90403798e+00 6.34049220e+00 5.73546298e+00 5.21399032e+00 4.82741548e+00 4.44953651e+00 4.32402455e+00 4.14686237e+00 4.12476068e+00 4.05269839e+00 4.09504125e+00 4.24549515e+00 4.44413378e+00 4.74539336e+00 5.10038958e+00 5.51450173e+00 6.06766488e+00 6.69232224e+00
        </DataArray>
      </PointData>
    </Piece>
  </ImageData>
</VTKFile>
