<?xml version="1.0"?>
<VTKFile type="ImageData" version="0.1" byte_order="LittleEndian">
  <ImageData WholeExtent="0 19 0 19 0 0" Origin="0 0 0" Spacing="1 1 1">
    <Piece Extent="0 19 0 19 0 0">
      <PointData Scalars="Loss">
        <DataArray type="Float64" Name="Loss" format="ascii">
          3.19196623e+00 2.93742545e+00 2.71905898e+00 2.51769147e+00 2.39600290e+00 2.28835011e+00 2.22487016e+00 2.13354474e+00 2.15774756e+00 2.19448364e+00 2.26831720e+00 2.40239384e+00 2.53658697e+00 2.73818320e+00 2.95604427e+00 3.20240429e+00 3.49507277e+00 3.83959276e+00 4.15277213e+00 4.61306034e+00 3.11618823e+00 2.89637722e+00 2.64952668e+00 2.45632037e+00 2.30672276e+00 2.14837251e+00 2.08237617e+00 2.03635011e+00 2.05107148e+00 2.03317654e+00 2.13147257e+00 2.25975260e+00 2.39050652e+00 2.56240361e+00 2.78936852e+00 3.02091327e+00 3.32772145e+00 3.66331002e+00 3.97272835e+00 4.38812194e+00 3.09854837e+00 2.81903395e+00 2.58533156e+00 2.37804460e+00 2.19668021e+00 2.10183876e+00 2.02727640e+00 1.96315321e+00 1.92463174e+00 1.93894421e+00 2.02160528e+00 2.14142241e+00 2.24198633e+00 2.43922448e+00 2.61795151e+00 2.86592274e+00 3.11369321e+00 3.45980481e+00 3.77671134e+00 4.19309854e+00 3.05296536e+00 2.79340685e+00 2.55385435e+00 2.31915699e+00 2.15461457e+00 2.02584989e+00 1.95922007e+00 1.86350829e+00 1.83279656e+00 1.87095611e+00 1.91414216e+00 2.00375512e+00 2.11436614e+00 2.29451957e+00 2.47552902e+00 2.71606991e+00 2.98031075e+00 3.27967103e+00 3.64035951e+00 4.03897195e+00 3.04452057e+00 2.74275394e+00 2.52080454e+00 2.30144347e+00 2.10456438e+00 1.95115797e+00 1.87927393e+00 1.78461173e+00 1.76971450e+00 1.76939147e+00 1.81897661e+00 1.88421029e+00 2.02086141e+00 2.16983052e+00 2.33049383e+00 2.56823129e+00 2.84477487e+00 3.12309161e+00 3.47479346e+00 3.84809347e+00 3.01224010e+00 2.72788063e+00 2.49438135e+00 2.24129877e+00 2.07105362e+00 1.92207329e+00 1.81406107e+00 1.73041221e+00 1.67840662e+00 1.70977043e+00 1.74806756e+00 1.81970742e+00 1.93426064e+00 2.07242227e+00 2.25896394e+00 2.45440095e+00 2.70428429e+00 2.98662687e+00 3.31705975e+00 3.71210328e+00 3.03974238e+00 2.73646737e+00 2.47027072e+00 2.25456373e+00 2.06599629e+00 1.91065826e+00 1.77916103e+00 1.73140003e+00 1.65496354e+00 1.66910546e+00 1.69058407e+00 1.72454695e+00 1.82453278e+00 1.95621823e+00 2.14245771e+00 2.36202875e+00 2.61508318e+00 2.89243466e+00 3.20042808e+00 3.53445901e+00 3.06278296e+00 2.76142874e+00 2.49333906e+00 2.24504970e+00 2.04848357e+00 1.87835996e+00 1.75291590e+00 1.67268481e+00 1.60813577e+00 1.59681512e+00 1.59932715e+00 1.69610536e+00 1.77068664e+00 1.89558269e+00 2.07011469e+00 2.27349692e+00 2.53196022e+00 2.78216580e+00 3.09728408e+00 3.45097170e+00 3.10578304e+00 2.81415698e+00 2.50027922e+00 2.25832371e+00 2.08408452e+00 1.92058192e+00 1.76134587e+00 1.66503421e+00 1.62419172e+00 1.56536054e+00 1.59776352e+00 1.64289044e+00 1.71735226e+00 1.84005865e+00 1.99291345e+00 2.20208726e+00 2.38942667e+00 2.69617188e+00 3.02175893e+00 3.34872285e+00 3.17320947e+00 2.83816919e+00 2.59986631e+00 2.32526764e+00 2.09630194e+00 1.91057499e+00 1.78157770e+00 1.69180505e+00 1.59602883e+00 1.78318972e+00 1.75547673e+00 1.63317536e+00 1.69817933e+00 1.83587390e+00 1.94779467e+00 2.16166154e+00 2.37726065e+00 2.64185917e+00 2.95182991e+00 3.23969658e+00 3.22486244e+00 2.92525363e+00 2.61982181e+00 2.35301202e+00 2.16040685e+00 1.95318855e+00 1.80914410e+00 1.70625268e+00 1.60845632e+00 1.78478531e+00 1.76301302e+00 1.58814902e+00 1.68014858e+00 1.78210926e+00 1.93861420e+00 2.07310789e+00 2.32076700e+00 2.55016030e+00 2.87195937e+00 3.17085417e+00 3.33810566e+00 2.97849000e+00 2.68986609e+00 2.43407943e+00 2.18319368e+00 2.00809214e+00 1.84393545e+00 1.75832908e+00 1.63390275e+00 1.59137405e+00 1.59605220e+00 1.59812106e+00 1.66297187e+00 1.75749283e+00 1.89211296e+00 2.04315733e+00 2.27755735e+00 2.48178968e+00 2.79506267e+00 3.11857980e+00 3.46547339e+00 3.11772765e+00 2.78534228e+00 2.51906832e+00 2.29587643e+00 2.07753858e+00 1.87676872e+00 1.79082319e+00 1.69642390e+00 1.62400240e+00 1.58844995e+00 1.64576449e+00 1.70356948e+00 1.74888122e+00 1.91049501e+00 2.05053628e+00 2.27198107e+00 2.48659649e+00 2.77942411e+00 3.09748533e+00 3.56535355e+00 3.21514903e+00 2.89589135e+00 2.62185876e+00 2.36048609e+00 2.14008076e+00 1.95971690e+00 1.83989020e+00 1.74243901e+00 1.68598097e+00 1.64927783e+00 1.65458496e+00 1.71512467e+00 1.75285233e+00 1.86722768e+00 2.05361525e+00 2.23117030e+00 2.48516619e+00 2.76558073e+00 3.08173494e+00 3.71044168e+00 3.35688290e+00 3.01602374e+00 2.72321332e+00 2.48024234e+00 2.26347832e+00 2.07232739e+00 1.93278945e+00 1.78976754e+00 1.75553508e+00 1.70851731e+00 1.72600212e+00 1.75272321e+00 1.82778797e+00 1.96188496e+00 2.06252155e+00 2.25578497e+00 2.46574528e+00 2.74802452e+00 3.04282657e+00 3.83867371e+00 3.48650120e+00 3.13410811e+00 2.81500106e+00 2.57353432e+00 2.32479100e+00 2.16995213e+00 1.99960988e+00 1.89607895e+00 1.81458996e+00 1.76023002e+00 1.76988105e+00 1.80483510e+00 1.87785463e+00 1.97296184e+00 2.12495184e+00 2.31861310e+00 2.50254979e+00 2.73832876e+00 3.03984451e+00 4.00822403e+00 3.64631325e+00 3.29376418e+00 2.98734611e+00 2.71134990e+00 2.47541168e+00 2.28746643e+00 2.13067334e+00 1.99632703e+00 1.92280075e+00 1.88635217e+00 1.83066935e+00 1.85370919e+00 1.89584981e+00 2.02804667e+00 2.14770259e+00 2.33241588e+00 2.53028287e+00 2.75900501e+00 3.04310241e+00 4.19652312e+00 3.80672996e+00 3.46235076e+00 3.14236832e+00 2.86132342e+00 2.61263912e+00 2.41289110e+00 2.23541521e+00 2.14675788e+00 2.01134982e+00 1.98504219e+00 1.94727578e+00 1.94898308e+00 2.00970173e+00 2.08584716e+00 2.21732328e+00 2.38533185e+00 2.56612459e+00 2.78730591e+00 3.06836115e+00 4.41129294e+00 3.98501056e+00 3.61458857e+00 3.32121982e+00 3.01630752e+00 2.77193575e+00 2.58137068e+00 2.38560052e+00 2.26236664e+00 2.14156988e+00 2.09039402e+00 2.03395158e+00 2.06539484e+00 2.12102437e+00 2.16966234e+00 2.28858243e+00 2.44412822e+00 2.66793718e+00 2.85230465e+00 3.12977574e+00 4.59030734e+00 4.15695305e+00 3.81354860e+00 3.51140173e+00 3.18571706e+00 2.94105791e+00 2.71671513e+00 2.53926266e+00 2.41063195e+00 2.31482279e+00 2.20025573e+00 2.17469201e+00 2.16329176e+00 2.22743607e+00 2.26994097e+00 2.40862588e+00 2.52889317e+00 2.70754246e+00 2.92874776e+00 3.22487088e+00
        </DataArray>
      </PointData>
    </Piece>
  </ImageData>
</VTKFile>
