<?xml version="1.0"?>
<VTKFile type="ImageData" version="0.1" byte_order="LittleEndian">
  <ImageData WholeExtent="0 19 0 19 0 0" Origin="0 0 0" Spacing="1 1 1">
    <Piece Extent="0 19 0 19 0 0">
      <PointData Scalars="Loss">
        <DataArray type="Float64" Name="Loss" format="ascii">
          4.83501376e+00 4.39972895e+00 4.10283353e+00 3.76747424e+00 3.56530540e+00 3.37023961e+00 3.24414685e+00 3.19440381e+00 3.19087495e+00 3.21960551e+00 3.29877349e+00 3.47180759e+00 3.65450041e+00 3.93369034e+00 4.23468265e+00 4.64166806e+00 5.03527214e+00 5.52227444e+00 6.07242508e+00 6.63598595e+00 4.73788679e+00 4.28125409e+00 3.99568992e+00 3.61945051e+00 3.45441609e+00 3.22848553e+00 3.10884110e+00 3.03257258e+00 2.99040718e+00 3.02316569e+00 3.12847924e+00 3.24075582e+00 3.46374767e+00 3.70936482e+00 4.03092062e+00 4.37576968e+00 4.80648235e+00 5.21120553e+00 5.78033779e+00 6.40887211e+00 4.61680156e+00 4.21156584e+00 3.85379974e+00 3.54462477e+00 3.33879419e+00 3.14139315e+00 2.97789331e+00 2.91661422e+00 2.83391148e+00 2.86289274e+00 2.95402821e+00 3.10550064e+00 3.23142890e+00 3.49313052e+00 3.81672469e+00 4.15511092e+00 4.58757776e+00 5.01201378e+00 5.50254474e+00 6.07762911e+00 4.60578264e+00 4.17231714e+00 3.77103299e+00 3.48901797e+00 3.20346233e+00 3.06313525e+00 2.85588131e+00 2.77087028e+00 2.73437473e+00 2.73848367e+00 2.80786419e+00 2.89126921e+00 3.06702142e+00 3.32136414e+00 3.63021366e+00 3.94056819e+00 4.33952884e+00 4.79859884e+00 5.24466268e+00 5.83596721e+00 4.56630878e+00 4.13215444e+00 3.71835865e+00 3.44140906e+00 3.18640889e+00 2.95705583e+00 2.80921804e+00 2.63291345e+00 2.56777575e+00 2.58312398e+00 2.64486698e+00 2.77289478e+00 2.94302851e+00 3.09360423e+00 3.38265603e+00 3.75219690e+00 4.17052816e+00 4.56505922e+00 5.12744523e+00 5.59645058e+00 4.53772722e+00 4.07892356e+00 3.67297283e+00 3.35342752e+00 3.08135049e+00 2.86711088e+00 2.72427724e+00 2.54415523e+00 2.53472909e+00 2.45953527e+00 2.55741305e+00 2.67547443e+00 2.80438599e+00 2.98575401e+00 3.28894302e+00 3.57342853e+00 3.97709021e+00 4.39135705e+00 4.87174658e+00 5.42214842e+00 4.52914997e+00 4.12489199e+00 3.69666444e+00 3.37305538e+00 3.07202751e+00 2.83917364e+00 2.63606194e+00 2.52168780e+00 2.47568332e+00 2.41673091e+00 2.40786313e+00 2.51633950e+00 2.69400273e+00 2.86452459e+00 3.12580684e+00 3.44197385e+00 3.80750654e+00 4.18605322e+00 4.71934619e+00 5.23972514e+00 4.55385562e+00 4.09343693e+00 3.69954243e+00 3.33622803e+00 3.04956471e+00 2.82391658e+00 2.62028541e+00 2.47465450e+00 2.39618668e+00 2.36047588e+00 2.34861519e+00 2.48462101e+00 2.60997892e+00 2.79965422e+00 3.01188634e+00 3.31051805e+00 3.66216339e+00 4.11616423e+00 4.48975975e+00 5.03726524e+00 4.61036172e+00 4.10997879e+00 3.74374917e+00 3.38060472e+00 3.10924377e+00 2.81400979e+00 2.60748464e+00 2.44351699e+00 2.35617274e+00 2.31580501e+00 2.31308802e+00 2.42074198e+00 2.49168243e+00 2.72851919e+00 2.92318555e+00 3.23212424e+00 3.55686507e+00 3.93242473e+00 4.41532486e+00 4.98095519e+00 4.70072052e+00 4.17483304e+00 3.78100051e+00 3.41423390e+00 3.10174724e+00 2.83027248e+00 2.62802800e+00 2.46753860e+00 2.32405413e+00 2.30048007e+00 2.31255703e+00 2.38866027e+00 2.50740881e+00 2.61279643e+00 2.96041447e+00 3.14910468e+00 3.48458777e+00 3.87919106e+00 4.30972993e+00 4.78239502e+00 4.80956203e+00 4.30343401e+00 3.87277883e+00 3.48896194e+00 3.11877544e+00 2.90667537e+00 2.64985256e+00 2.46065453e+00 2.35999166e+00 2.31085631e+00 2.31785999e+00 2.35745264e+00 2.44564585e+00 2.60502888e+00 2.80758875e+00 3.12989311e+00 3.37141328e+00 3.78449380e+00 4.22430621e+00 4.71593483e+00 4.94285529e+00 4.40934916e+00 3.98887561e+00 3.59974160e+00 3.29187278e+00 2.92767350e+00 2.73321251e+00 2.55580433e+00 2.40026554e+00 2.37531379e+00 2.29117027e+00 2.38543041e+00 2.43729870e+00 2.58227834e+00 2.80416055e+00 3.05868175e+00 3.36079566e+00 3.77707599e+00 4.17042447e+00 4.63628705e+00 5.08095187e+00 4.55414989e+00 4.06641349e+00 3.68786905e+00 3.33202200e+00 3.01910816e+00 2.76908171e+00 2.62097608e+00 2.48181097e+00 2.34155133e+00 2.36146174e+00 2.39181649e+00 2.52371069e+00 2.60113716e+00 2.81146364e+00 3.05118987e+00 3.40135292e+00 3.71060570e+00 4.10608576e+00 4.55552157e+00 5.20538104e+00 4.70205642e+00 4.22159267e+00 3.80319468e+00 3.41864067e+00 3.15340230e+00 2.86910161e+00 2.71311755e+00 2.53652258e+00 2.46437598e+00 2.37907066e+00 2.47654916e+00 2.47665912e+00 2.67067748e+00 2.81040516e+00 3.05761062e+00 3.35682317e+00 3.70826935e+00 4.11391107e+00 4.53805394e+00 5.41674007e+00 4.86559554e+00 4.39612203e+00 3.94930902e+00 3.58391057e+00 3.30055650e+00 3.03882407e+00 2.85938378e+00 2.69241228e+00 2.56198381e+00 2.47378132e+00 2.47908798e+00 2.55503633e+00 2.70088082e+00 2.91423670e+00 3.14317907e+00 3.38141947e+00 3.70006204e+00 4.08014801e+00 4.52030711e+00 5.61408660e+00 5.09777485e+00 4.52360517e+00 4.10547814e+00 3.76616183e+00 3.40090226e+00 3.17499176e+00 2.93463117e+00 2.76869761e+00 2.68584026e+00 2.61768207e+00 2.60657867e+00 2.62753988e+00 2.76385261e+00 2.92897462e+00 3.13685547e+00 3.40294199e+00 3.72065826e+00 4.15412377e+00 4.56261516e+00 5.86084062e+00 5.32799001e+00 4.75625973e+00 4.38544300e+00 3.96067066e+00 3.62238504e+00 3.31093965e+00 3.09540004e+00 2.88207347e+00 2.78069191e+00 2.73433293e+00 2.67733159e+00 2.73937915e+00 2.85510095e+00 3.03259397e+00 3.23133625e+00 3.47361200e+00 3.76757407e+00 4.13964246e+00 4.57511047e+00 6.10688603e+00 5.57676690e+00 4.97970441e+00 4.57464364e+00 4.13350817e+00 3.79342390e+00 3.52678552e+00 3.24410707e+00 3.10233596e+00 2.93905081e+00 2.85367906e+00 2.82326216e+00 2.89064955e+00 2.94775880e+00 3.16047914e+00 3.35301403e+00 3.53944452e+00 3.85497563e+00 4.25598962e+00 4.62233601e+00 6.33897108e+00 5.78818785e+00 5.25125561e+00 4.79106195e+00 4.36886721e+00 3.98878854e+00 3.74070731e+00 3.47152884e+00 3.24286063e+00 3.12737166e+00 3.02019798e+00 3.01985409e+00 2.99046099e+00 3.08803042e+00 3.18883030e+00 3.45821380e+00 3.66508501e+00 3.95823799e+00 4.29616737e+00 4.74174600e+00 6.61652910e+00 6.05124198e+00 5.49276699e+00 5.02604132e+00 4.61223675e+00 4.21973888e+00 3.94627247e+00 3.66486777e+00 3.49349239e+00 3.29206146e+00 3.24865996e+00 3.18846661e+00 3.20880767e+00 3.24876478e+00 3.39447013e+00 3.54852521e+00 3.77439610e+00 4.05361613e+00 4.38351893e+00 4.81433426e+00
        </DataArray>
      </PointData>
    </Piece>
  </ImageData>
</VTKFile>
