<?xml version="1.0"?>
<VTKFile type="ImageData" version="0.1" byte_order="LittleEndian">
  <ImageData WholeExtent="0 19 0 19 0 0" Origin="0 0 0" Spacing="1 1 1">
    <Piece Extent="0 19 0 19 0 0">
      <PointData Scalars="Loss">
        <DataArray type="Float64" Name="Loss" format="ascii">
          2.72702983e+00 2.44219528e+00 2.27030477e+00 2.08034939e+00 1.97392194e+00 1.78862439e+00 1.75983495e+00 1.74740834e+00 1.72834873e+00 1.77893901e+00 1.92074686e+00 2.05358269e+00 2.23537493e+00 2.45789660e+00 2.71810399e+00 3.04550096e+00 3.36427106e+00 3.81026922e+00 4.17573687e+00 4.65502790e+00 2.81675415e+00 2.53379435e+00 2.32050944e+00 2.10132458e+00 1.95386478e+00 1.82408471e+00 1.75145419e+00 1.74598205e+00 1.74011487e+00 1.79592850e+00 1.91689928e+00 2.01835211e+00 2.19454875e+00 2.39218019e+00 2.66532376e+00 2.92898777e+00 3.30895037e+00 3.66173372e+00 4.05953873e+00 4.54491500e+00 2.88298092e+00 2.58596569e+00 2.35985032e+00 2.13712861e+00 1.95563822e+00 1.85559605e+00 1.77922767e+00 1.75338863e+00 1.76155867e+00 1.79707934e+00 1.85924745e+00 2.01115949e+00 2.14108782e+00 2.36601811e+00 2.60402004e+00 2.85463754e+00 3.18373798e+00 3.60069411e+00 3.94129000e+00 4.38596472e+00 2.97070517e+00 2.68917075e+00 2.41744117e+00 2.21162659e+00 2.05812275e+00 1.92877960e+00 1.80926245e+00 1.72396799e+00 1.72681424e+00 1.77784651e+00 1.80792321e+00 1.94581055e+00 2.08873268e+00 2.30616312e+00 2.54876955e+00 2.79478443e+00 3.10000213e+00 3.47442906e+00 3.83090022e+00 4.28468881e+00 3.04664438e+00 2.77396649e+00 2.47482525e+00 2.29881317e+00 2.05656090e+00 1.91251013e+00 1.84315697e+00 1.75093168e+00 1.71471847e+00 1.75224899e+00 1.82061928e+00 1.92135889e+00 2.07079771e+00 2.22774382e+00 2.46003787e+00 2.69149854e+00 3.02366723e+00 3.32937727e+00 3.70861545e+00 4.16592925e+00 3.13427763e+00 2.80766477e+00 2.54562853e+00 2.32228902e+00 2.09802512e+00 1.93533460e+00 1.84387619e+00 1.74461800e+00 1.73283022e+00 1.76303610e+00 1.79097300e+00 1.89319034e+00 2.01680093e+00 2.18981185e+00 2.37817542e+00 2.63212217e+00 2.96630370e+00 3.28627368e+00 3.64004768e+00 4.04097789e+00 3.23489689e+00 2.89218090e+00 2.62999587e+00 2.40299225e+00 2.14564256e+00 2.01101737e+00 1.87609482e+00 1.79154497e+00 1.73342848e+00 1.75613136e+00 1.77360526e+00 1.89841699e+00 1.99140219e+00 2.15151741e+00 2.31431259e+00 2.58541343e+00 2.83853580e+00 3.18861112e+00 3.51497523e+00 3.94400189e+00 3.32997600e+00 2.98720003e+00 2.68733119e+00 2.41131142e+00 2.21441650e+00 2.02072382e+00 1.89457387e+00 1.79838808e+00 1.72397240e+00 1.72315175e+00 1.77897957e+00 1.84631233e+00 1.92378672e+00 2.06650937e+00 2.25938669e+00 2.54494585e+00 2.77627760e+00 3.05870137e+00 3.42081405e+00 3.83585930e+00 3.40257343e+00 3.07206435e+00 2.76958653e+00 2.49736362e+00 2.25556533e+00 2.05614612e+00 1.93088963e+00 1.84812943e+00 1.77644441e+00 1.71644715e+00 1.73864859e+00 1.82692258e+00 1.91247431e+00 2.03165345e+00 2.19606038e+00 2.44860571e+00 2.68854629e+00 2.99101364e+00 3.35487967e+00 3.70851858e+00 3.53319236e+00 3.15579223e+00 2.82185211e+00 2.57726517e+00 2.30873856e+00 2.12670866e+00 1.98629832e+00 1.85863332e+00 1.75611057e+00 1.91624731e+00 1.92839110e+00 1.79935003e+00 1.85869201e+00 2.01360213e+00 2.17042912e+00 2.37057868e+00 2.65663836e+00 2.91685408e+00 3.22335329e+00 3.59872730e+00 3.59560567e+00 3.25002349e+00 2.91047159e+00 2.61226657e+00 2.38908425e+00 2.16751126e+00 2.00373968e+00 1.87749399e+00 1.76408058e+00 1.92514352e+00 1.90836128e+00 1.78127679e+00 1.83944652e+00 1.95432852e+00 2.09423941e+00 2.33256886e+00 2.54998861e+00 2.81788161e+00 3.09962675e+00 3.50556279e+00 3.73547734e+00 3.32563882e+00 3.01488762e+00 2.70138446e+00 2.42483611e+00 2.22086898e+00 2.04760141e+00 1.89856429e+00 1.77786056e+00 1.72491266e+00 1.72197792e+00 1.76578355e+00 1.81153910e+00 1.92578771e+00 2.06828432e+00 2.27126541e+00 2.48841114e+00 2.73490601e+00 3.08398901e+00 3.44450586e+00 3.81186389e+00 3.43660466e+00 3.07957097e+00 2.75502747e+00 2.50854438e+00 2.29588186e+00 2.07132511e+00 1.95343543e+00 1.83295530e+00 1.77073948e+00 1.77795833e+00 1.73980309e+00 1.79825156e+00 1.90328182e+00 2.05853892e+00 2.23428880e+00 2.41803327e+00 2.70513709e+00 2.97976201e+00 3.33785939e+00 3.93880402e+00 3.53002271e+00 3.16938199e+00 2.85363464e+00 2.57396859e+00 2.29778902e+00 2.10646984e+00 1.95816941e+00 1.85210474e+00 1.76864394e+00 1.74933406e+00 1.73744516e+00 1.75436012e+00 1.85456222e+00 1.94281976e+00 2.14927941e+00 2.35107104e+00 2.62807285e+00 2.88706409e+00 3.23564533e+00 4.04903477e+00 3.61804393e+00 3.26320801e+00 2.92216122e+00 2.62611563e+00 2.40632063e+00 2.18081034e+00 2.05712346e+00 1.91497176e+00 1.78960240e+00 1.73294770e+00 1.73912455e+00 1.75131429e+00 1.83935062e+00 1.95625981e+00 2.13079674e+00 2.29331460e+00 2.51207806e+00 2.82064186e+00 3.14694002e+00 4.16649122e+00 3.76207117e+00 3.35171403e+00 3.00782125e+00 2.71892491e+00 2.46291995e+00 2.23414948e+00 2.05209531e+00 1.90606823e+00 1.81460630e+00 1.76143769e+00 1.72205695e+00 1.72335312e+00 1.84887671e+00 1.93146323e+00 2.04494768e+00 2.28549504e+00 2.49923299e+00 2.75116453e+00 3.06747937e+00 4.27814819e+00 3.84879741e+00 3.44529082e+00 3.12707814e+00 2.81006492e+00 2.50905873e+00 2.29993761e+00 2.09882323e+00 1.95039822e+00 1.81985315e+00 1.76274628e+00 1.73571574e+00 1.74051526e+00 1.81729570e+00 1.88569126e+00 2.03855477e+00 2.21992134e+00 2.42922298e+00 2.70056115e+00 2.97206411e+00 4.38705069e+00 3.95640051e+00 3.51981569e+00 3.17625034e+00 2.86478242e+00 2.57583531e+00 2.33408178e+00 2.15920696e+00 1.97772882e+00 1.86498762e+00 1.79595825e+00 1.74419310e+00 1.75147101e+00 1.77669149e+00 1.87396623e+00 1.98377330e+00 2.15483647e+00 2.34976589e+00 2.61100920e+00 2.86948200e+00 4.50282527e+00 4.06236472e+00 3.63707928e+00 3.27497688e+00 2.95121309e+00 2.66522789e+00 2.42317015e+00 2.19396824e+00 1.99859144e+00 1.87470780e+00 1.76293171e+00 1.75782465e+00 1.76178115e+00 1.79840439e+00 1.84916914e+00 1.96883000e+00 2.11016169e+00 2.28920188e+00 2.54179963e+00 2.82304184e+00 4.64354780e+00 4.16728128e+00 3.75101440e+00 3.34691488e+00 3.03553773e+00 2.70624228e+00 2.45766892e+00 2.26480501e+00 2.07649188e+00 1.88694745e+00 1.82611163e+00 1.74944567e+00 1.71748487e+00 1.74045387e+00 1.83687683e+00 1.95022588e+00 2.07626031e+00 2.23709345e+00 2.49339336e+00 2.75922898e+00
        </DataArray>
      </PointData>
    </Piece>
  </ImageData>
</VTKFile>
