<?xml version="1.0"?>
<VTKFile type="ImageData" version="0.1" byte_order="LittleEndian">
  <ImageData WholeExtent="0 19 0 19 0 0" Origin="0 0 0" Spacing="1 1 1">
    <Piece Extent="0 19 0 19 0 0">
      <PointData Scalars="Loss">
        <DataArray type="Float64" Name="Loss" format="ascii">
          2.54296714e+00 2.35355559e+00 2.20154823e+00 2.01580152e+00 1.95829419e+00 1.85845984e+00 1.82879393e+00 1.79771536e+00 1.82559986e+00 1.85489697e+00 1.91442436e+00 2.03106472e+00 2.14886357e+00 2.32133803e+00 2.52380074e+00 2.76134294e+00 2.99094123e+00 3.24771767e+00 3.57608234e+00 3.94401525e+00 2.50019685e+00 2.32539867e+00 2.13274505e+00 1.99725275e+00 1.87657255e+00 1.80686457e+00 1.72154799e+00 1.68294940e+00 1.72157937e+00 1.72383737e+00 1.82472620e+00 1.89220491e+00 2.01784433e+00 2.16677555e+00 2.37599519e+00 2.57861998e+00 2.79463568e+00 3.12218830e+00 3.42029681e+00 3.75415921e+00 2.49299954e+00 2.26999934e+00 2.08920922e+00 1.95995122e+00 1.83826644e+00 1.69187957e+00 1.66888728e+00 1.61779046e+00 1.60275719e+00 1.66049928e+00 1.72575229e+00 1.79287724e+00 1.91243669e+00 2.07453285e+00 2.22014563e+00 2.42991155e+00 2.68667268e+00 2.96556077e+00 3.24172734e+00 3.56710687e+00 2.47938990e+00 2.23408153e+00 2.06694603e+00 1.91666464e+00 1.76949621e+00 1.67219565e+00 1.61194832e+00 1.53418598e+00 1.53405947e+00 1.56187015e+00 1.59276484e+00 1.70499265e+00 1.81949860e+00 1.94353675e+00 2.13490686e+00 2.32136968e+00 2.53048945e+00 2.80158163e+00 3.10864708e+00 3.41520813e+00 2.47778142e+00 2.22518345e+00 2.04640858e+00 1.89429515e+00 1.73159818e+00 1.63734126e+00 1.55466690e+00 1.47665602e+00 1.51478032e+00 1.49681490e+00 1.56203350e+00 1.61986797e+00 1.72591135e+00 1.83020594e+00 1.97963122e+00 2.19336750e+00 2.41650284e+00 2.67542101e+00 2.95888704e+00 3.26713539e+00 2.46669101e+00 2.27025514e+00 2.03559327e+00 1.87124880e+00 1.72287401e+00 1.58133878e+00 1.51256463e+00 1.48435968e+00 1.43905514e+00 1.45433383e+00 1.47126156e+00 1.57440378e+00 1.62935806e+00 1.75538212e+00 1.90239139e+00 2.08674283e+00 2.31280091e+00 2.55364111e+00 2.84220296e+00 3.13098033e+00 2.48799143e+00 2.25478413e+00 2.05818123e+00 1.85685166e+00 1.71243475e+00 1.59024774e+00 1.48985223e+00 1.44113378e+00 1.39367293e+00 1.36530883e+00 1.44066298e+00 1.49261032e+00 1.54514303e+00 1.66835908e+00 1.82048568e+00 2.00287959e+00 2.20633234e+00 2.45504755e+00 2.71320581e+00 3.02297905e+00 2.52909484e+00 2.28478028e+00 2.06529692e+00 1.85387996e+00 1.69885395e+00 1.60105474e+00 1.46541685e+00 1.42295953e+00 1.36983516e+00 1.34373770e+00 1.36233370e+00 1.40844777e+00 1.50271195e+00 1.62333821e+00 1.77721450e+00 1.91163168e+00 2.13298384e+00 2.37183817e+00 2.62434460e+00 2.88943527e+00 2.58302909e+00 2.32884043e+00 2.11901954e+00 1.88620317e+00 1.75341557e+00 1.57715711e+00 1.47471878e+00 1.38743550e+00 1.37914091e+00 1.32689267e+00 1.35555068e+00 1.37252982e+00 1.47561832e+00 1.56440590e+00 1.69287348e+00 1.86759828e+00 2.02860494e+00 2.25902911e+00 2.51277785e+00 2.82436310e+00 2.65073880e+00 2.37924391e+00 2.14831357e+00 1.93441178e+00 1.75134233e+00 1.64220008e+00 1.47774594e+00 1.40597509e+00 1.35082895e+00 1.61270446e+00 1.60496107e+00 1.36541783e+00 1.40531834e+00 1.50648002e+00 1.65035040e+00 1.80048371e+00 1.99069500e+00 2.18903387e+00 2.45674531e+00 2.72204568e+00 2.72202198e+00 2.45704421e+00 2.19923910e+00 2.01061416e+00 1.77491294e+00 1.66009982e+00 1.52818299e+00 1.42066814e+00 1.35545362e+00 1.61484613e+00 1.60303150e+00 1.35271346e+00 1.43944710e+00 1.51284477e+00 1.58456099e+00 1.77138057e+00 1.93219854e+00 2.14006822e+00 2.39143161e+00 2.65296414e+00 2.81238507e+00 2.52482252e+00 2.29225901e+00 2.03910647e+00 1.87559326e+00 1.71355015e+00 1.56307371e+00 1.46760571e+00 1.38190485e+00 1.36493416e+00 1.32889521e+00 1.34402958e+00 1.43322869e+00 1.46833425e+00 1.59079956e+00 1.72148914e+00 1.87952306e+00 2.09043050e+00 2.31179196e+00 2.56211840e+00 2.88902908e+00 2.63054186e+00 2.35902863e+00 2.12355336e+00 1.92144771e+00 1.76903011e+00 1.62846949e+00 1.53666884e+00 1.44809208e+00 1.38519028e+00 1.33904793e+00 1.35544631e+00 1.40581620e+00 1.48862979e+00 1.59814425e+00 1.70965789e+00 1.88305335e+00 2.07531689e+00 2.29593444e+00 2.53291115e+00 3.02869563e+00 2.72329531e+00 2.44986063e+00 2.20874779e+00 1.98893975e+00 1.81499443e+00 1.67523336e+00 1.56014801e+00 1.45964539e+00 1.40892576e+00 1.38692764e+00 1.39589663e+00 1.43467093e+00 1.46332126e+00 1.59933267e+00 1.69317522e+00 1.85082070e+00 2.03024176e+00 2.26709958e+00 2.49428895e+00 3.13670055e+00 2.82726527e+00 2.52834661e+00 2.31784006e+00 2.09283900e+00 1.90917511e+00 1.74367005e+00 1.64016802e+00 1.53418689e+00 1.48889618e+00 1.43808093e+00 1.43163921e+00 1.46336662e+00 1.50003330e+00 1.59322282e+00 1.70445387e+00 1.85639042e+00 2.05036154e+00 2.23064364e+00 2.48620205e+00 3.28554652e+00 2.94959212e+00 2.67469483e+00 2.43443404e+00 2.19737992e+00 2.03633685e+00 1.84502040e+00 1.69732013e+00 1.59562944e+00 1.53755402e+00 1.49809384e+00 1.48743250e+00 1.50344446e+00 1.55250197e+00 1.63197415e+00 1.71525908e+00 1.86306335e+00 2.03552648e+00 2.25529436e+00 2.48628887e+00 3.42461249e+00 3.11261827e+00 2.79460341e+00 2.56021650e+00 2.32168466e+00 2.12459632e+00 1.94884496e+00 1.79728033e+00 1.69871176e+00 1.62900201e+00 1.55123082e+00 1.54690351e+00 1.54524123e+00 1.58132313e+00 1.66001232e+00 1.77759753e+00 1.90344552e+00 2.06497018e+00 2.26185229e+00 2.47003420e+00 3.56393798e+00 3.24516995e+00 2.94125980e+00 2.67625505e+00 2.45193519e+00 2.24117098e+00 2.04992390e+00 1.90380907e+00 1.78794132e+00 1.69658945e+00 1.64771225e+00 1.64463946e+00 1.63454864e+00 1.65217949e+00 1.72148467e+00 1.83160473e+00 1.93285760e+00 2.08288442e+00 2.27758423e+00 2.48408875e+00 3.75294703e+00 3.41713966e+00 3.14586775e+00 2.85066232e+00 2.60020066e+00 2.36752392e+00 2.18769836e+00 2.04346073e+00 1.89536513e+00 1.79972193e+00 1.75930421e+00 1.71744590e+00 1.70554495e+00 1.70548383e+00 1.77526077e+00 1.87316958e+00 1.97793007e+00 2.11834992e+00 2.32580983e+00 2.51295560e+00 3.93871130e+00 3.59515713e+00 3.27897423e+00 2.97009294e+00 2.75081219e+00 2.49067258e+00 2.32013855e+00 2.18039402e+00 2.02127939e+00 1.95592823e+00 1.85464866e+00 1.83366920e+00 1.81091486e+00 1.79766325e+00 1.86314851e+00 1.92837183e+00 2.05186015e+00 2.17394019e+00 2.37314982e+00 2.52723717e+00
        </DataArray>
      </PointData>
    </Piece>
  </ImageData>
</VTKFile>
