<?xml version="1.0"?>
<VTKFile type="ImageData" version="0.1" byte_order="LittleEndian">
  <ImageData WholeExtent="0 19 0 19 0 0" Origin="0 0 0" Spacing="1 1 1">
    <Piece Extent="0 19 0 19 0 0">
      <PointData Scalars="Loss">
        <DataArray type="Float64" Name="Loss" format="ascii">
          2.81972712e+00 2.62829950e+00 2.40607184e+00 2.22671184e+00 2.11675570e+00 1.98486482e+00 1.92357135e+00 1.91110717e+00 1.91206503e+00 1.92116155e+00 1.99503673e+00 2.07876285e+00 2.21284623e+00 2.37927000e+00 2.55987392e+00 2.79960381e+00 3.06138690e+00 3.37373902e+00 3.67751465e+00 4.02921004e+00 2.79318128e+00 2.56941278e+00 2.32087581e+00 2.16539178e+00 2.02283869e+00 1.93612652e+00 1.82485686e+00 1.82755766e+00 1.81289352e+00 1.84554603e+00 1.90332857e+00 1.96096879e+00 2.10031303e+00 2.23128740e+00 2.41519813e+00 2.62325540e+00 2.89707192e+00 3.20354104e+00 3.51909504e+00 3.88012298e+00 2.74267228e+00 2.51026822e+00 2.25429432e+00 2.12763997e+00 1.95905611e+00 1.86168913e+00 1.76308871e+00 1.73564029e+00 1.70365379e+00 1.74163437e+00 1.76265489e+00 1.87873939e+00 1.98535789e+00 2.14640991e+00 2.32174429e+00 2.49717285e+00 2.76013821e+00 3.02331981e+00 3.35200452e+00 3.68943137e+00 2.70733463e+00 2.47800985e+00 2.25148161e+00 2.05311321e+00 1.91884501e+00 1.79011539e+00 1.69820025e+00 1.65372030e+00 1.62315496e+00 1.65049977e+00 1.68853699e+00 1.73039913e+00 1.87641789e+00 2.01517466e+00 2.17915753e+00 2.38222091e+00 2.62407038e+00 2.91963600e+00 3.21596820e+00 3.55503872e+00 2.72196960e+00 2.44204182e+00 2.21901556e+00 2.03738872e+00 1.87747642e+00 1.74201707e+00 1.65720366e+00 1.56617539e+00 1.59244059e+00 1.58019319e+00 1.60339156e+00 1.64884765e+00 1.79357289e+00 1.89921203e+00 2.06541616e+00 2.26471480e+00 2.52807435e+00 2.78039540e+00 3.06905715e+00 3.42234592e+00 2.73500429e+00 2.43307867e+00 2.19654621e+00 2.00568046e+00 1.86128222e+00 1.72349308e+00 1.59437908e+00 1.53136569e+00 1.51625200e+00 1.51380611e+00 1.53464312e+00 1.57847184e+00 1.69557257e+00 1.82960724e+00 1.97997909e+00 2.17383269e+00 2.42276352e+00 2.65866986e+00 2.99229962e+00 3.28486770e+00 2.72451187e+00 2.42890501e+00 2.21407846e+00 1.99990517e+00 1.81917411e+00 1.69182510e+00 1.61023409e+00 1.49511515e+00 1.48116260e+00 1.46961057e+00 1.47754918e+00 1.54560628e+00 1.62205967e+00 1.73783128e+00 1.93345107e+00 2.10735460e+00 2.31289333e+00 2.54321242e+00 2.84106043e+00 3.20067679e+00 2.72582726e+00 2.45181158e+00 2.20462298e+00 2.00506052e+00 1.81940826e+00 1.66958347e+00 1.55602731e+00 1.46870803e+00 1.42208031e+00 1.43192768e+00 1.44168999e+00 1.52644405e+00 1.59698963e+00 1.68939358e+00 1.84311790e+00 2.04215773e+00 2.22733578e+00 2.46546703e+00 2.78703010e+00 3.06337079e+00 2.77727655e+00 2.53164628e+00 2.23494514e+00 2.01591652e+00 1.84656458e+00 1.68002918e+00 1.59728327e+00 1.48083857e+00 1.46219605e+00 1.40835368e+00 1.41243360e+00 1.45459033e+00 1.50238488e+00 1.64058879e+00 1.78767162e+00 1.97396620e+00 2.18191749e+00 2.39942102e+00 2.68507974e+00 2.98288471e+00 2.81992337e+00 2.52995867e+00 2.29441386e+00 2.08974730e+00 1.89285831e+00 1.70629343e+00 1.63086385e+00 1.49094130e+00 1.41340657e+00 1.65642835e+00 1.67628556e+00 1.42694464e+00 1.50652716e+00 1.60017908e+00 1.71035888e+00 1.89225355e+00 2.10639466e+00 2.32672129e+00 2.60196964e+00 2.89645382e+00 2.92573025e+00 2.59832749e+00 2.33674240e+00 2.09993625e+00 1.92459590e+00 1.71952039e+00 1.60796815e+00 1.48574954e+00 1.42410189e+00 1.64101296e+00 1.65171293e+00 1.43081628e+00 1.47250627e+00 1.56553955e+00 1.71329731e+00 1.88732749e+00 2.06677911e+00 2.26822459e+00 2.56112422e+00 2.83831917e+00 2.98992728e+00 2.66477911e+00 2.39125614e+00 2.16266053e+00 1.96042115e+00 1.78521913e+00 1.66217349e+00 1.50803676e+00 1.48577055e+00 1.41100747e+00 1.39363899e+00 1.44407978e+00 1.47923303e+00 1.54705369e+00 1.69272379e+00 1.86095972e+00 2.03590624e+00 2.25350133e+00 2.49550947e+00 2.79462549e+00 3.07022840e+00 2.75113155e+00 2.46225895e+00 2.22162274e+00 2.00942643e+00 1.82512692e+00 1.69501625e+00 1.58973000e+00 1.48802533e+00 1.44293282e+00 1.43005823e+00 1.42869380e+00 1.50666721e+00 1.56929965e+00 1.69975790e+00 1.83938538e+00 2.04632750e+00 2.22707912e+00 2.49565636e+00 2.75302763e+00 3.14784159e+00 2.84229565e+00 2.56075554e+00 2.29818250e+00 2.06852469e+00 1.91764032e+00 1.75706704e+00 1.61411564e+00 1.55746272e+00 1.47510879e+00 1.46639361e+00 1.47444574e+00 1.52108434e+00 1.58816920e+00 1.67635274e+00 1.82676222e+00 2.02373235e+00 2.21642472e+00 2.46773504e+00 2.74368154e+00 3.26421868e+00 2.93707090e+00 2.66864858e+00 2.40923370e+00 2.17605539e+00 1.97351624e+00 1.81079360e+00 1.70414393e+00 1.60867340e+00 1.54972949e+00 1.49521578e+00 1.50153634e+00 1.58462091e+00 1.60860304e+00 1.70111314e+00 1.83310508e+00 2.01056368e+00 2.19989124e+00 2.43161546e+00 2.70195658e+00 3.41345957e+00 3.06222147e+00 2.79070567e+00 2.51378167e+00 2.28266674e+00 2.09783617e+00 1.92258932e+00 1.77958228e+00 1.68675350e+00 1.59390390e+00 1.57625808e+00 1.54148722e+00 1.60384877e+00 1.64593359e+00 1.74791388e+00 1.88958640e+00 2.03186734e+00 2.23627650e+00 2.44710093e+00 2.69324648e+00 3.54631445e+00 3.20698157e+00 2.91398020e+00 2.60689974e+00 2.38417421e+00 2.19792674e+00 2.00165635e+00 1.86764337e+00 1.75796670e+00 1.68292388e+00 1.62387644e+00 1.61355285e+00 1.64440692e+00 1.72884960e+00 1.79327345e+00 1.92024687e+00 2.07600772e+00 2.25975167e+00 2.44883078e+00 2.72648700e+00 3.69596028e+00 3.35390195e+00 3.02247480e+00 2.75297962e+00 2.51243096e+00 2.30960661e+00 2.11257041e+00 1.97075999e+00 1.86347435e+00 1.77060042e+00 1.72777667e+00 1.69054200e+00 1.70735280e+00 1.73221461e+00 1.86502520e+00 1.93584029e+00 2.10334239e+00 2.28400422e+00 2.49356804e+00 2.73576540e+00 3.83627637e+00 3.54457224e+00 3.19710163e+00 2.90421035e+00 2.64462549e+00 2.45950575e+00 2.27687132e+00 2.09712889e+00 1.97406901e+00 1.89025983e+00 1.82936694e+00 1.79952356e+00 1.78427336e+00 1.84456252e+00 1.91730129e+00 1.99837919e+00 2.17407429e+00 2.33719589e+00 2.55418337e+00 2.79743211e+00 4.08093437e+00 3.67421696e+00 3.38093667e+00 3.06089668e+00 2.81897388e+00 2.57250122e+00 2.36077253e+00 2.25752332e+00 2.10145515e+00 2.00023154e+00 1.93863751e+00 1.91945944e+00 1.88290987e+00 1.93847787e+00 2.01644330e+00 2.12315844e+00 2.22978833e+00 2.41939773e+00 2.60912795e+00 2.84184426e+00
        </DataArray>
      </PointData>
    </Piece>
  </ImageData>
</VTKFile>
