<?xml version="1.0"?>
<VTKFile type="ImageData" version="0.1" byte_order="LittleEndian">
  <ImageData WholeExtent="0 19 0 19 0 0" Origin="0 0 0" Spacing="1 1 1">
    <Piece Extent="0 19 0 19 0 0">
      <PointData Scalars="Loss">
        <DataArray type="Float64" Name="Loss" format="ascii">
          2.80956942e+00 2.58292461e+00 2.40147792e+00 2.21795425e+00 2.08306983e+00 1.97586982e+00 1.89048582e+00 1.87725896e+00 1.86729684e+00 1.89447478e+00 1.95480780e+00 2.03546012e+00 2.17583059e+00 2.30851161e+00 2.48922495e+00 2.72557362e+00 2.97225873e+00 3.25031118e+00 3.57773911e+00 3.94210506e+00 2.78248967e+00 2.53822394e+00 2.32403182e+00 2.15196864e+00 2.00842597e+00 1.91124908e+00 1.85176161e+00 1.75124991e+00 1.77340929e+00 1.80557778e+00 1.85915677e+00 1.92244346e+00 2.02708446e+00 2.19659354e+00 2.35366037e+00 2.60485463e+00 2.83645496e+00 3.10739104e+00 3.42313113e+00 3.77427475e+00 2.72008599e+00 2.46247446e+00 2.25845815e+00 2.09154747e+00 1.93374873e+00 1.80686798e+00 1.72820834e+00 1.69677892e+00 1.66378283e+00 1.68015806e+00 1.73301581e+00 1.82636103e+00 1.92473174e+00 2.07512148e+00 2.24884854e+00 2.43803146e+00 2.68307440e+00 2.97789646e+00 3.27129180e+00 3.59715759e+00 2.68812582e+00 2.43971110e+00 2.24912156e+00 2.02398306e+00 1.90970476e+00 1.78561444e+00 1.68793977e+00 1.62260422e+00 1.60993626e+00 1.58062131e+00 1.65635287e+00 1.72467565e+00 1.83371677e+00 1.95680466e+00 2.12053629e+00 2.31266725e+00 2.56466999e+00 2.82209899e+00 3.10878570e+00 3.48486693e+00 2.67801855e+00 2.42957970e+00 2.22210918e+00 2.00149684e+00 1.85076186e+00 1.73052790e+00 1.62197275e+00 1.56709647e+00 1.54919708e+00 1.54153934e+00 1.55678609e+00 1.63454167e+00 1.74440828e+00 1.88637866e+00 2.02688646e+00 2.24094636e+00 2.46147790e+00 2.73833126e+00 3.00858890e+00 3.34183611e+00 2.67531506e+00 2.42458579e+00 2.18665713e+00 1.98043549e+00 1.83522252e+00 1.67606505e+00 1.55280641e+00 1.50068429e+00 1.48147376e+00 1.46887943e+00 1.51228805e+00 1.56413286e+00 1.65548972e+00 1.78120901e+00 1.95947980e+00 2.13907005e+00 2.38093385e+00 2.62777891e+00 2.90647249e+00 3.22972541e+00 2.69650854e+00 2.43861469e+00 2.17522421e+00 1.97841253e+00 1.80366366e+00 1.68215265e+00 1.56421649e+00 1.49138755e+00 1.42625469e+00 1.42470706e+00 1.44688079e+00 1.53213054e+00 1.56830642e+00 1.73072531e+00 1.87641186e+00 2.01855081e+00 2.26714228e+00 2.50386588e+00 2.82171198e+00 3.10124416e+00 2.72845449e+00 2.43538865e+00 2.17735782e+00 1.99952663e+00 1.79824519e+00 1.65491664e+00 1.53462097e+00 1.47581209e+00 1.42078533e+00 1.38717504e+00 1.40896805e+00 1.46288920e+00 1.55728735e+00 1.67094657e+00 1.82078838e+00 1.96442028e+00 2.17606688e+00 2.43075441e+00 2.71638626e+00 3.01407599e+00 2.75977397e+00 2.46558075e+00 2.23354446e+00 2.01017454e+00 1.83749185e+00 1.67563628e+00 1.54648625e+00 1.43559974e+00 1.40635230e+00 1.37576716e+00 1.39010360e+00 1.44720216e+00 1.50109240e+00 1.61880166e+00 1.75632590e+00 1.89812372e+00 2.12141574e+00 2.38030681e+00 2.62476529e+00 2.92163485e+00 2.78978874e+00 2.47607814e+00 2.24975489e+00 2.02784267e+00 1.83684514e+00 1.66903253e+00 1.55330144e+00 1.46176898e+00 1.36501737e+00 1.64117790e+00 1.64059808e+00 1.39592788e+00 1.46637627e+00 1.58341215e+00 1.72013334e+00 1.88157859e+00 2.07016152e+00 2.29028423e+00 2.53305042e+00 2.86721288e+00 2.84994199e+00 2.58675012e+00 2.30721899e+00 2.05255921e+00 1.86812688e+00 1.68832621e+00 1.56785310e+00 1.51978636e+00 1.42048840e+00 1.67229562e+00 1.64817234e+00 1.41458958e+00 1.46540106e+00 1.57214963e+00 1.67565891e+00 1.84685664e+00 2.03141693e+00 2.26796942e+00 2.51857885e+00 2.80572520e+00 2.90122182e+00 2.66746795e+00 2.35410233e+00 2.12438149e+00 1.92220497e+00 1.77917498e+00 1.59915518e+00 1.48809476e+00 1.44722995e+00 1.38859732e+00 1.38177346e+00 1.38880120e+00 1.43203647e+00 1.55579291e+00 1.66731959e+00 1.80453926e+00 2.01790721e+00 2.24173710e+00 2.49110804e+00 2.76170660e+00 3.02586508e+00 2.71124199e+00 2.43142446e+00 2.19217139e+00 2.02594754e+00 1.82113012e+00 1.66185035e+00 1.54250606e+00 1.43688854e+00 1.41777662e+00 1.40319776e+00 1.40988897e+00 1.46796354e+00 1.53759888e+00 1.63414325e+00 1.80660055e+00 2.01105924e+00 2.18219654e+00 2.40479281e+00 2.71563317e+00 3.10159447e+00 2.78752412e+00 2.48877805e+00 2.27140637e+00 2.03705573e+00 1.87021781e+00 1.70491995e+00 1.60397316e+00 1.50872193e+00 1.42834029e+00 1.44673342e+00 1.46142859e+00 1.47086328e+00 1.56847533e+00 1.66641401e+00 1.82038664e+00 1.97275574e+00 2.22271186e+00 2.40164974e+00 2.68140729e+00 3.24703677e+00 2.87643123e+00 2.60606499e+00 2.37927493e+00 2.15132423e+00 1.95406861e+00 1.78587562e+00 1.63947312e+00 1.54684723e+00 1.52522371e+00 1.49288955e+00 1.47074893e+00 1.52324518e+00 1.57717304e+00 1.71370385e+00 1.81494604e+00 1.98194073e+00 2.19202385e+00 2.40014872e+00 2.68325352e+00 3.35865317e+00 2.99780384e+00 2.72001211e+00 2.49193666e+00 2.24023911e+00 2.03015533e+00 1.86203276e+00 1.74916878e+00 1.63615324e+00 1.58570775e+00 1.54643799e+00 1.54192296e+00 1.55458138e+00 1.61281507e+00 1.75044052e+00 1.83280366e+00 1.99181622e+00 2.19732075e+00 2.42738342e+00 2.67949744e+00 3.48050338e+00 3.14278550e+00 2.85351301e+00 2.55682841e+00 2.33015510e+00 2.13952670e+00 1.95499770e+00 1.84236316e+00 1.72523453e+00 1.63250700e+00 1.59780628e+00 1.61807553e+00 1.62360837e+00 1.67161438e+00 1.76891887e+00 1.89323668e+00 2.04794506e+00 2.20576367e+00 2.42777865e+00 2.67943167e+00 3.58899260e+00 3.27894924e+00 2.99225864e+00 2.70827542e+00 2.46491337e+00 2.25367018e+00 2.03277339e+00 1.92921073e+00 1.81582702e+00 1.74962386e+00 1.68977400e+00 1.66744163e+00 1.69763486e+00 1.73901832e+00 1.82198022e+00 1.93515049e+00 2.09961767e+00 2.27455034e+00 2.50159826e+00 2.71291408e+00 3.77215714e+00 3.46692815e+00 3.12342562e+00 2.81929201e+00 2.59429567e+00 2.37450533e+00 2.19264157e+00 2.03975964e+00 1.89207173e+00 1.82738161e+00 1.80430848e+00 1.76945972e+00 1.76161504e+00 1.80336257e+00 1.91985469e+00 2.02446298e+00 2.14702401e+00 2.34371329e+00 2.53228880e+00 2.76238593e+00 3.93379741e+00 3.56927905e+00 3.26129706e+00 2.95673109e+00 2.72764890e+00 2.49540742e+00 2.30597502e+00 2.16946609e+00 2.02370922e+00 1.96144155e+00 1.92009063e+00 1.85459371e+00 1.90062887e+00 1.91228019e+00 1.95763823e+00 2.08389462e+00 2.24038609e+00 2.36811603e+00 2.60567982e+00 2.79711830e+00
        </DataArray>
      </PointData>
    </Piece>
  </ImageData>
</VTKFile>
