<?xml version="1.0"?>
<VTKFile type="ImageData" version="0.1" byte_order="LittleEndian">
  <ImageData WholeExtent="0 19 0 19 0 0" Origin="0 0 0" Spacing="1 1 1">
    <Piece Extent="0 19 0 19 0 0">
      <PointData Scalars="Loss">
        <DataArray type="Float64" Name="Loss" format="ascii">
          5.78576615e+00 5.29873353e+00 4.88274665e+00 4.48333094e+00 4.20821795e+00 3.99116765e+00 3.79266136e+00 3.71576172e+00 3.68729468e+00 3.66436178e+00 3.75941869e+00 3.95423517e+00 4.14132550e+00 4.38531584e+00 4.73776845e+00 5.20768504e+00 5.68018653e+00 6.15657246e+00 6.78735736e+00 7.43931576e+00 5.63427668e+00 5.17071553e+00 4.74108722e+00 4.36813900e+00 4.07440259e+00 3.84833719e+00 3.63761632e+00 3.50259287e+00 3.45017154e+00 3.47634249e+00 3.59231683e+00 3.75242877e+00 3.87154320e+00 4.19410110e+00 4.55394598e+00 4.88068274e+00 5.38759926e+00 5.95421169e+00 6.51820070e+00 7.18697535e+00 5.59515432e+00 5.05407316e+00 4.60020807e+00 4.26264075e+00 3.92766024e+00 3.68423701e+00 3.49814291e+00 3.39255896e+00 3.27082310e+00 3.27345817e+00 3.36699321e+00 3.50416407e+00 3.73425265e+00 3.97190366e+00 4.33698149e+00 4.71624950e+00 5.15222231e+00 5.69170232e+00 6.27054898e+00 6.96213263e+00 5.48279440e+00 5.02008577e+00 4.54791957e+00 4.10523916e+00 3.80978033e+00 3.55147730e+00 3.28591442e+00 3.21213111e+00 3.13838192e+00 3.17758081e+00 3.18099141e+00 3.28590995e+00 3.50156477e+00 3.77478151e+00 4.04865971e+00 4.48106302e+00 4.96225539e+00 5.44131678e+00 6.02449621e+00 6.67757229e+00 5.45064443e+00 4.96115799e+00 4.44355270e+00 4.06978543e+00 3.65624198e+00 3.47858554e+00 3.23057982e+00 3.07288801e+00 3.01608507e+00 3.02562513e+00 3.06531804e+00 3.18600513e+00 3.39116675e+00 3.55488228e+00 3.89915374e+00 4.30493369e+00 4.77862386e+00 5.24951135e+00 5.82628716e+00 6.39288789e+00 5.42803008e+00 4.92472714e+00 4.42228998e+00 3.97882857e+00 3.66362339e+00 3.40089872e+00 3.20633575e+00 2.98158732e+00 2.91350321e+00 2.89127689e+00 2.89299020e+00 3.06378531e+00 3.19477627e+00 3.40390573e+00 3.76397276e+00 4.14963132e+00 4.53851750e+00 5.08988281e+00 5.58069315e+00 6.21734862e+00 5.46377066e+00 4.87674640e+00 4.42490069e+00 3.96946963e+00 3.64437224e+00 3.36034127e+00 3.08261127e+00 2.95320951e+00 2.85644699e+00 2.81487814e+00 2.85530961e+00 2.92036765e+00 3.13832240e+00 3.32184503e+00 3.62231330e+00 3.92989631e+00 4.41598169e+00 4.91291924e+00 5.43123380e+00 5.98429888e+00 5.43214550e+00 4.88984588e+00 4.44317392e+00 3.96080949e+00 3.57056697e+00 3.31253292e+00 3.03603075e+00 2.89679474e+00 2.77490321e+00 2.71776389e+00 2.75612988e+00 2.86040253e+00 2.97654732e+00 3.21403567e+00 3.47741193e+00 3.84263786e+00 4.29145212e+00 4.75241874e+00 5.29275679e+00 5.87039190e+00 5.50314522e+00 4.93970361e+00 4.40980186e+00 3.97595597e+00 3.60252207e+00 3.28074018e+00 3.03288075e+00 2.86321540e+00 2.72891012e+00 2.70606727e+00 2.69761833e+00 2.81016093e+00 2.94882850e+00 3.15803195e+00 3.43053424e+00 3.75493701e+00 4.12711754e+00 4.61991258e+00 5.19455557e+00 5.78893188e+00 5.53432594e+00 4.96646413e+00 4.46051111e+00 4.01134261e+00 3.62556735e+00 3.35665559e+00 3.10396364e+00 2.87478272e+00 2.72457762e+00 2.58638414e+00 2.61471769e+00 2.74207371e+00 2.89330894e+00 3.05404553e+00 3.34459492e+00 3.70802157e+00 4.07505119e+00 4.55649244e+00 5.01555147e+00 5.64108411e+00 5.63293063e+00 5.05356077e+00 4.55210160e+00 4.05323833e+00 3.69553362e+00 3.38069124e+00 3.10760591e+00 2.84724015e+00 2.75058361e+00 2.56324913e+00 2.58050234e+00 2.74107313e+00 2.88750461e+00 3.03156423e+00 3.32038639e+00 3.63402550e+00 3.97554929e+00 4.44757843e+00 4.97510084e+00 5.54740450e+00 5.75709902e+00 5.14254010e+00 4.65020098e+00 4.16152404e+00 3.79030334e+00 3.42308521e+00 3.15041313e+00 2.91538425e+00 2.80387115e+00 2.73293095e+00 2.68016533e+00 2.78720857e+00 2.88427065e+00 3.04734135e+00 3.31057347e+00 3.56916857e+00 3.95385820e+00 4.46794416e+00 4.91028512e+00 5.45999461e+00 5.89089214e+00 5.27074690e+00 4.77304628e+00 4.23623527e+00 3.83656245e+00 3.52633673e+00 3.25421515e+00 3.02891479e+00 2.84697753e+00 2.75406508e+00 2.72499080e+00 2.80643076e+00 2.91703088e+00 3.10431168e+00 3.26794522e+00 3.58108011e+00 3.92014830e+00 4.36931723e+00 4.88392448e+00 5.44609846e+00 6.02413064e+00 5.42021974e+00 4.93464267e+00 4.36777121e+00 3.94569017e+00 3.60990681e+00 3.31488682e+00 3.10111889e+00 2.94001297e+00 2.83889598e+00 2.85423203e+00 2.82215195e+00 2.94990652e+00 3.08502588e+00 3.36455300e+00 3.63816098e+00 3.98037597e+00 4.44788282e+00 4.86043653e+00 5.45053457e+00 6.21783189e+00 5.60054128e+00 5.03035902e+00 4.51197250e+00 4.13089768e+00 3.73103474e+00 3.44089273e+00 3.22427963e+00 3.09451273e+00 2.95152519e+00 2.89418380e+00 2.90898791e+00 3.03856264e+00 3.17685961e+00 3.39098264e+00 3.69039127e+00 3.96229208e+00 4.45787445e+00 4.86778608e+00 5.43561150e+00 6.42657000e+00 5.81177635e+00 5.18640421e+00 4.74450155e+00 4.27013460e+00 3.89470824e+00 3.58015487e+00 3.33716521e+00 3.16118863e+00 3.03971257e+00 3.02080529e+00 3.04035574e+00 3.08101564e+00 3.25305186e+00 3.50043483e+00 3.70421253e+00 4.08179170e+00 4.42110643e+00 4.92318429e+00 5.48209979e+00 6.68302713e+00 6.03796463e+00 5.42137560e+00 4.94144080e+00 4.51878365e+00 4.09320499e+00 3.73053186e+00 3.48675052e+00 3.32440152e+00 3.19435974e+00 3.16003144e+00 3.16398598e+00 3.18347745e+00 3.32823486e+00 3.49462309e+00 3.80743022e+00 4.15184030e+00 4.55040617e+00 4.96772762e+00 5.51131360e+00 6.94151908e+00 6.23180387e+00 5.63147674e+00 5.14860330e+00 4.66231310e+00 4.26288494e+00 3.95258062e+00 3.66985271e+00 3.49974492e+00 3.40870462e+00 3.29434621e+00 3.27210125e+00 3.33464798e+00 3.46886908e+00 3.68594360e+00 3.95081683e+00 4.25373018e+00 4.64775818e+00 5.02354458e+00 5.59133163e+00 7.15335582e+00 6.49531065e+00 5.91432117e+00 5.35173490e+00 4.96972933e+00 4.51527023e+00 4.17101999e+00 3.90720087e+00 3.70456180e+00 3.52134953e+00 3.43987458e+00 3.45089893e+00 3.54526422e+00 3.64532672e+00 3.79277719e+00 4.02248513e+00 4.32485053e+00 4.78443228e+00 5.18695801e+00 5.67101730e+00 7.45725756e+00 6.80099321e+00 6.20597959e+00 5.65699555e+00 5.17178500e+00 4.75225560e+00 4.43828409e+00 4.13725100e+00 3.87961306e+00 3.72438322e+00 3.67541653e+00 3.70198405e+00 3.73657218e+00 3.79732558e+00 3.96502767e+00 4.19317557e+00 4.50686271e+00 4.85736378e+00 5.28746778e+00 5.78364491e+00
        </DataArray>
      </PointData>
    </Piece>
  </ImageData>
</VTKFile>
