<?xml version="1.0"?>
<VTKFile type="ImageData" version="0.1" byte_order="LittleEndian">
  <ImageData WholeExtent="0 19 0 19 0 0" Origin="0 0 0" Spacing="1 1 1">
    <Piece Extent="0 19 0 19 0 0">
      <PointData Scalars="Loss">
        <DataArray type="Float64" Name="Loss" format="ascii">
          1.83738745e+00 1.67478446e+00 1.55162374e+00 1.43979182e+00 1.34192294e+00 1.27362152e+00 1.22245450e+00 1.21221166e+00 1.19279187e+00 1.20254133e+00 1.24655299e+00 1.29922479e+00 1.38485410e+00 1.48463800e+00 1.57302792e+00 1.71575544e+00 1.86589740e+00 2.07280811e+00 2.26648857e+00 2.47454132e+00 1.79630401e+00 1.62695357e+00 1.50819481e+00 1.39190793e+00 1.29297604e+00 1.23573925e+00 1.16438674e+00 1.13292037e+00 1.14610684e+00 1.13809486e+00 1.17374860e+00 1.21804803e+00 1.30341385e+00 1.38566326e+00 1.50820079e+00 1.63782465e+00 1.78100295e+00 1.95703039e+00 2.17233347e+00 2.37419625e+00 1.76047887e+00 1.60220529e+00 1.47948256e+00 1.34224764e+00 1.25383011e+00 1.18052504e+00 1.12721821e+00 1.08410057e+00 1.06090278e+00 1.08813728e+00 1.10179470e+00 1.15241712e+00 1.22454741e+00 1.31256704e+00 1.44267342e+00 1.56186423e+00 1.70685683e+00 1.86415883e+00 2.07656635e+00 2.27861746e+00 1.72640407e+00 1.58363152e+00 1.43505370e+00 1.31070422e+00 1.22605606e+00 1.13467300e+00 1.08217823e+00 1.03908534e+00 1.02158907e+00 1.02118741e+00 1.04273929e+00 1.10335650e+00 1.16763424e+00 1.22991695e+00 1.35805019e+00 1.47280958e+00 1.61770679e+00 1.79497206e+00 1.97747390e+00 2.19710309e+00 1.72026344e+00 1.56646641e+00 1.42271855e+00 1.29890717e+00 1.18818315e+00 1.10452922e+00 1.03410577e+00 1.00807002e+00 9.81210681e-01 9.77819109e-01 9.99849688e-01 1.04007445e+00 1.09848179e+00 1.18031063e+00 1.27463005e+00 1.41411024e+00 1.55079731e+00 1.70599766e+00 1.90332031e+00 2.10146463e+00 1.70278298e+00 1.54934129e+00 1.40448474e+00 1.27354576e+00 1.15873289e+00 1.06723071e+00 1.02270730e+00 9.79701646e-01 9.62532107e-01 9.35970433e-01 9.58422477e-01 9.91352051e-01 1.05577512e+00 1.12921822e+00 1.24823676e+00 1.34583586e+00 1.49664650e+00 1.66443600e+00 1.82055484e+00 2.03149773e+00 1.71448530e+00 1.55365739e+00 1.39734684e+00 1.26668573e+00 1.16208759e+00 1.05213362e+00 1.00204971e+00 9.36738330e-01 9.41484899e-01 9.04019422e-01 9.01137980e-01 9.41928074e-01 1.00996009e+00 1.07782559e+00 1.18937048e+00 1.29497419e+00 1.43021629e+00 1.58340957e+00 1.74166035e+00 1.95853507e+00 1.73266729e+00 1.53257322e+00 1.41200366e+00 1.27727407e+00 1.14306839e+00 1.05306699e+00 9.76994268e-01 9.27043491e-01 8.94462040e-01 8.90479588e-01 9.00796124e-01 9.23751146e-01 9.68189928e-01 1.03040910e+00 1.14153424e+00 1.25393191e+00 1.38252895e+00 1.53426578e+00 1.70190861e+00 1.90186621e+00 1.74671107e+00 1.56082981e+00 1.41705831e+00 1.26850925e+00 1.14685613e+00 1.04563140e+00 9.82281415e-01 9.25528140e-01 8.87238872e-01 8.70386046e-01 8.73940827e-01 8.89980269e-01 9.42700092e-01 1.01960685e+00 1.09685259e+00 1.21017509e+00 1.33600056e+00 1.49316589e+00 1.66919225e+00 1.85871387e+00 1.76896554e+00 1.58235201e+00 1.41760071e+00 1.27994758e+00 1.15058023e+00 1.07335064e+00 9.73402859e-01 9.33761955e-01 8.92910552e-01 1.30340864e+00 1.30521251e+00 8.80383599e-01 9.37370885e-01 9.99910579e-01 1.08263002e+00 1.19594310e+00 1.29507658e+00 1.45463695e+00 1.63254846e+00 1.80980602e+00 1.81391570e+00 1.61715798e+00 1.46094420e+00 1.33217971e+00 1.18129257e+00 1.07082070e+00 9.97012194e-01 9.10633799e-01 8.89832203e-01 1.31365424e+00 1.31094870e+00 8.95697986e-01 9.36748251e-01 9.75591165e-01 1.06306011e+00 1.15617152e+00 1.29094505e+00 1.42470226e+00 1.60090350e+00 1.78206241e+00 1.83590848e+00 1.65486810e+00 1.48912141e+00 1.35487599e+00 1.20358985e+00 1.10002934e+00 1.01212040e+00 9.45667916e-01 9.11670855e-01 8.83617348e-01 8.71270202e-01 8.91285419e-01 9.10888096e-01 9.66408865e-01 1.04740113e+00 1.15440666e+00 1.26097953e+00 1.39580945e+00 1.56051854e+00 1.75592237e+00 1.89315217e+00 1.71438650e+00 1.54239914e+00 1.36413746e+00 1.23494270e+00 1.13772296e+00 1.04201829e+00 9.77679477e-01 9.23740758e-01 8.96198709e-01 8.96924752e-01 9.04424744e-01 9.41478376e-01 9.71080470e-01 1.05967595e+00 1.16328798e+00 1.25071768e+00 1.40263115e+00 1.56387320e+00 1.71702334e+00 1.95747407e+00 1.75762168e+00 1.58113570e+00 1.41965728e+00 1.27546427e+00 1.17510303e+00 1.09188930e+00 1.00256350e+00 9.56228897e-01 9.28502259e-01 9.03884200e-01 9.22785142e-01 9.45174850e-01 9.81813664e-01 1.04151292e+00 1.14892889e+00 1.27785322e+00 1.40506685e+00 1.53849256e+00 1.72645973e+00 2.02516111e+00 1.83527713e+00 1.64261605e+00 1.48510014e+00 1.33554918e+00 1.23639849e+00 1.13047590e+00 1.05501184e+00 1.00574840e+00 9.49168329e-01 9.48919549e-01 9.53860413e-01 9.69422018e-01 1.01088114e+00 1.08328588e+00 1.16501499e+00 1.25874392e+00 1.41013432e+00 1.54772047e+00 1.72429452e+00 2.09860748e+00 1.89243219e+00 1.71303910e+00 1.54286138e+00 1.41323083e+00 1.29053107e+00 1.17556489e+00 1.10057969e+00 1.03879421e+00 9.94489346e-01 9.71427397e-01 9.63442243e-01 1.01012753e+00 1.04075863e+00 1.10714009e+00 1.18674739e+00 1.30147729e+00 1.41951592e+00 1.57428157e+00 1.72532058e+00 2.19757652e+00 1.96263233e+00 1.78405553e+00 1.62227407e+00 1.47672372e+00 1.32503906e+00 1.23593505e+00 1.16347095e+00 1.10837823e+00 1.04379621e+00 1.01639147e+00 1.00800614e+00 1.03504775e+00 1.07311603e+00 1.13461854e+00 1.20126861e+00 1.31287551e+00 1.43638707e+00 1.58164881e+00 1.74408765e+00 2.26664956e+00 2.07337629e+00 1.87946613e+00 1.69966595e+00 1.54814683e+00 1.41040316e+00 1.31454165e+00 1.22409206e+00 1.14815434e+00 1.09351536e+00 1.07062115e+00 1.09044861e+00 1.07592922e+00 1.11837623e+00 1.16981919e+00 1.25027761e+00 1.35725182e+00 1.46555264e+00 1.58725024e+00 1.74357743e+00 2.37800845e+00 2.16357189e+00 1.96907283e+00 1.78972428e+00 1.64601322e+00 1.50425757e+00 1.38027948e+00 1.30159384e+00 1.23342903e+00 1.17923832e+00 1.13405385e+00 1.12801962e+00 1.13681031e+00 1.17490878e+00 1.21606982e+00 1.29181306e+00 1.39662595e+00 1.49614384e+00 1.61488904e+00 1.78753362e+00 2.48340030e+00 2.25364473e+00 2.07360834e+00 1.88637432e+00 1.71451934e+00 1.59173607e+00 1.48179966e+00 1.36904599e+00 1.30567926e+00 1.25987004e+00 1.22121643e+00 1.19268451e+00 1.20310197e+00 1.23943053e+00 1.28972576e+00 1.34692141e+00 1.45382595e+00 1.54113157e+00 1.68721402e+00 1.84438455e+00
        </DataArray>
      </PointData>
    </Piece>
  </ImageData>
</VTKFile>
