<?xml version="1.0"?>
<VTKFile type="ImageData" version="0.1" byte_order="LittleEndian">
  <ImageData WholeExtent="0 19 0 19 0 0" Origin="0 0 0" Spacing="1 1 1">
    <Piece Extent="0 19 0 19 0 0">
      <PointData Scalars="Loss">
        <DataArray type="Float64" Name="Loss" format="ascii">
          4.96246736e+00 4.58540606e+00 4.18851836e+00 3.85550995e+00 3.62500716e+00 3.41072480e+00 3.25028810e+00 3.16396571e+00 3.12994127e+00 3.13597824e+00 3.23684665e+00 3.40265149e+00 3.58279094e+00 3.80694312e+00 4.13056238e+00 4.53440242e+00 4.95391523e+00 5.41847893e+00 5.90188545e+00 6.51979746e+00 4.88456784e+00 4.39213785e+00 4.07598055e+00 3.72620112e+00 3.48446509e+00 3.25231970e+00 3.08574114e+00 2.99821443e+00 3.01053499e+00 2.98779137e+00 3.07515931e+00 3.20330314e+00 3.37643427e+00 3.62650015e+00 3.89346563e+00 4.27276428e+00 4.69619201e+00 5.13746728e+00 5.69475178e+00 6.25943942e+00 4.78789052e+00 4.33674326e+00 3.99343208e+00 3.66418243e+00 3.42411006e+00 3.20393241e+00 3.01032356e+00 2.92255215e+00 2.88888946e+00 2.83613347e+00 2.91813152e+00 3.03087623e+00 3.17665437e+00 3.46595737e+00 3.71605523e+00 4.08552707e+00 4.46498249e+00 4.92874070e+00 5.44113194e+00 5.95834371e+00 4.75112330e+00 4.27933563e+00 3.89865087e+00 3.57749542e+00 3.28011578e+00 3.05789062e+00 2.90430528e+00 2.77171948e+00 2.69398913e+00 2.73845092e+00 2.75015848e+00 2.90833895e+00 3.04203665e+00 3.29377515e+00 3.55205200e+00 3.86728278e+00 4.32531649e+00 4.75537554e+00 5.24625015e+00 5.80250770e+00 4.70795113e+00 4.26177967e+00 3.89624562e+00 3.46220879e+00 3.20884237e+00 2.97829243e+00 2.78725325e+00 2.67775798e+00 2.58974914e+00 2.59151342e+00 2.65433970e+00 2.77217823e+00 2.90780422e+00 3.12719268e+00 3.37710468e+00 3.73877189e+00 4.09069595e+00 4.60217993e+00 5.09221874e+00 5.58916750e+00 4.66632535e+00 4.23875464e+00 3.84827076e+00 3.48025832e+00 3.17590860e+00 2.94444885e+00 2.74357932e+00 2.59671059e+00 2.52549234e+00 2.51997980e+00 2.53400518e+00 2.62925758e+00 2.80262344e+00 2.98096979e+00 3.27534461e+00 3.61092924e+00 3.95389292e+00 4.43038006e+00 4.91811788e+00 5.39398842e+00 4.71555120e+00 4.26761725e+00 3.87446286e+00 3.39542585e+00 3.12022414e+00 2.90599229e+00 2.67721311e+00 2.55866592e+00 2.49636401e+00 2.42282646e+00 2.44894311e+00 2.52198322e+00 2.67175482e+00 2.90299619e+00 3.12923398e+00 3.46557707e+00 3.83677159e+00 4.26999836e+00 4.71807309e+00 5.26132801e+00 4.71448982e+00 4.26559615e+00 3.80891244e+00 3.46852602e+00 3.13952227e+00 2.86724349e+00 2.69428312e+00 2.50479470e+00 2.41410771e+00 2.38754186e+00 2.40187982e+00 2.49144821e+00 2.56738470e+00 2.80892966e+00 3.02251248e+00 3.37582101e+00 3.73796443e+00 4.11873237e+00 4.58997801e+00 5.13802919e+00 4.76799890e+00 4.27164632e+00 3.83336467e+00 3.45712298e+00 3.14048717e+00 2.88575878e+00 2.62411325e+00 2.49629090e+00 2.36929196e+00 2.31042393e+00 2.32291299e+00 2.41974571e+00 2.55741261e+00 2.73497751e+00 2.97642540e+00 3.26846561e+00 3.60826674e+00 4.03140109e+00 4.51867261e+00 5.06136354e+00 4.75403448e+00 4.34462506e+00 3.88687562e+00 3.42442370e+00 3.15841655e+00 2.86175109e+00 2.70111275e+00 2.53681136e+00 2.38245914e+00 2.31737819e+00 2.33632542e+00 2.44117161e+00 2.52927585e+00 2.69059615e+00 2.90889041e+00 3.23167022e+00 3.55108150e+00 3.93870787e+00 4.42129162e+00 4.95226159e+00 4.92917112e+00 4.42661190e+00 3.93189423e+00 3.55744412e+00 3.19590731e+00 2.92349225e+00 2.66404304e+00 2.49749077e+00 2.42778928e+00 2.30624708e+00 2.32181211e+00 2.38240349e+00 2.48760586e+00 2.67125860e+00 2.85948172e+00 3.15939591e+00 3.44420577e+00 3.88185023e+00 4.31989990e+00 4.90517544e+00 5.02687348e+00 4.50586848e+00 3.97982852e+00 3.61682141e+00 3.27179773e+00 2.98794227e+00 2.77449700e+00 2.50424752e+00 2.45186253e+00 2.37231411e+00 2.34539200e+00 2.38572700e+00 2.47534689e+00 2.68121030e+00 2.91080503e+00 3.12662298e+00 3.42067539e+00 3.83928983e+00 4.25351790e+00 4.79424786e+00 5.09993205e+00 4.59647800e+00 4.14122371e+00 3.70058495e+00 3.37411753e+00 3.03070539e+00 2.77934834e+00 2.65177072e+00 2.50738237e+00 2.40961718e+00 2.41126946e+00 2.42913306e+00 2.52588904e+00 2.68092097e+00 2.88149117e+00 3.10032927e+00 3.42662066e+00 3.81191950e+00 4.23961309e+00 4.70240294e+00 5.23314041e+00 4.69768611e+00 4.23882727e+00 3.85788651e+00 3.47744412e+00 3.15809197e+00 2.93181947e+00 2.66914984e+00 2.55739909e+00 2.45155074e+00 2.44572399e+00 2.44707409e+00 2.53713404e+00 2.63354514e+00 2.87718271e+00 3.12325597e+00 3.46484089e+00 3.78427305e+00 4.26555507e+00 4.73329934e+00 5.39940795e+00 4.86074336e+00 4.35646404e+00 3.99284893e+00 3.60693106e+00 3.24356921e+00 3.04394670e+00 2.80348369e+00 2.61713338e+00 2.56235680e+00 2.53826053e+00 2.52235431e+00 2.60422466e+00 2.71628008e+00 2.87497823e+00 3.18786742e+00 3.42514795e+00 3.82265763e+00 4.27469300e+00 4.69200491e+00 5.62656546e+00 5.04709910e+00 4.55045526e+00 4.12823714e+00 3.76216054e+00 3.39109372e+00 3.12215864e+00 2.87212624e+00 2.74007175e+00 2.63866936e+00 2.65159219e+00 2.59173206e+00 2.68518406e+00 2.79481844e+00 2.99665246e+00 3.21948462e+00 3.56676947e+00 3.87984152e+00 4.26003305e+00 4.70988752e+00 5.79860335e+00 5.22434705e+00 4.71499821e+00 4.30664336e+00 3.87126244e+00 3.57166134e+00 3.28562753e+00 3.06373912e+00 2.90976178e+00 2.79491802e+00 2.73460571e+00 2.72111624e+00 2.78808328e+00 2.88162547e+00 3.03736508e+00 3.25283482e+00 3.58304764e+00 3.92481931e+00 4.29634420e+00 4.74582102e+00 5.98495704e+00 5.44634757e+00 4.94515349e+00 4.46929888e+00 4.09286909e+00 3.73765117e+00 3.42602506e+00 3.20737674e+00 3.02592090e+00 2.90510429e+00 2.83120422e+00 2.86745480e+00 2.90457231e+00 3.00685429e+00 3.16246594e+00 3.38574779e+00 3.62032065e+00 4.01343082e+00 4.37565449e+00 4.80722131e+00 6.22730566e+00 5.68135327e+00 5.11455913e+00 4.66403620e+00 4.23327841e+00 3.92794470e+00 3.65380994e+00 3.37251138e+00 3.18164107e+00 3.05568732e+00 2.99891616e+00 2.94958646e+00 3.01380799e+00 3.11693586e+00 3.31785580e+00 3.50443812e+00 3.75407582e+00 4.08669211e+00 4.45395034e+00 4.89566493e+00 6.47899159e+00 5.86455074e+00 5.38680183e+00 4.94306755e+00 4.47530136e+00 4.14820521e+00 3.85670218e+00 3.58709600e+00 3.36343687e+00 3.20384654e+00 3.16989614e+00 3.14043379e+00 3.17024952e+00 3.30294631e+00 3.40359448e+00 3.58981055e+00 3.86013994e+00 4.17622400e+00 4.54735537e+00 4.97117315e+00
        </DataArray>
      </PointData>
    </Piece>
  </ImageData>
</VTKFile>
