<?xml version="1.0"?>
<VTKFile type="ImageData" version="0.1" byte_order="LittleEndian">
  <ImageData WholeExtent="0 19 0 19 0 0" Origin="0 0 0" Spacing="1 1 1">
    <Piece Extent="0 19 0 19 0 0">
      <PointData Scalars="Loss">
        <DataArray type="Float64" Name="Loss" format="ascii">
          4.99346737e+00 4.55879224e+00 4.18166655e+00 3.87856941e+00 3.63885970e+00 3.41649910e+00 3.28439220e+00 3.20520722e+00 3.18628734e+00 3.22599001e+00 3.29965192e+00 3.44863903e+00 3.67308236e+00 3.92973747e+00 4.21696034e+00 4.64916147e+00 5.01845830e+00 5.48993714e+00 6.05375582e+00 6.68770162e+00 4.88104112e+00 4.47518962e+00 4.06873846e+00 3.77904488e+00 3.51422299e+00 3.29155455e+00 3.18488269e+00 3.05107846e+00 3.05220002e+00 3.02456004e+00 3.17537035e+00 3.27545591e+00 3.42215033e+00 3.70622315e+00 4.02210783e+00 4.36961499e+00 4.80295153e+00 5.28537184e+00 5.80169469e+00 6.40863389e+00 4.80848273e+00 4.38109456e+00 4.03323816e+00 3.66964425e+00 3.39986296e+00 3.21483203e+00 3.01220929e+00 2.89723130e+00 2.89575872e+00 2.89971943e+00 2.95511283e+00 3.10187965e+00 3.28009385e+00 3.50581898e+00 3.83125868e+00 4.13354680e+00 4.58480730e+00 5.04119975e+00 5.59936501e+00 6.15195406e+00 4.81237344e+00 4.28852982e+00 3.93671445e+00 3.61810056e+00 3.32232694e+00 3.08345152e+00 2.89841401e+00 2.80238978e+00 2.78058912e+00 2.75785774e+00 2.76408264e+00 2.95817273e+00 3.13609719e+00 3.36140837e+00 3.64131156e+00 3.98340642e+00 4.39021655e+00 4.79833525e+00 5.35668003e+00 5.93900760e+00 4.77265205e+00 4.26768753e+00 3.88079793e+00 3.59509795e+00 3.24793248e+00 3.03647375e+00 2.86004498e+00 2.73656483e+00 2.64376259e+00 2.63483121e+00 2.71307568e+00 2.81640728e+00 2.99164540e+00 3.20236439e+00 3.45017482e+00 3.83603180e+00 4.18625096e+00 4.67805204e+00 5.18348724e+00 5.77769401e+00 4.74851922e+00 4.28021042e+00 3.87410148e+00 3.50781152e+00 3.22902952e+00 2.94618880e+00 2.76394477e+00 2.68155986e+00 2.57021416e+00 2.58806239e+00 2.58804659e+00 2.65688707e+00 2.88425443e+00 3.08861562e+00 3.32638544e+00 3.62908869e+00 3.98696766e+00 4.52927000e+00 4.97272449e+00 5.58398166e+00 4.75229352e+00 4.22984316e+00 3.85993982e+00 3.47149846e+00 3.17121538e+00 2.92069046e+00 2.69288609e+00 2.62832769e+00 2.45759840e+00 2.52730667e+00 2.53484266e+00 2.60245651e+00 2.76129614e+00 2.97731695e+00 3.19049963e+00 3.57969553e+00 3.92410968e+00 4.36208169e+00 4.83463732e+00 5.39130590e+00 4.79532573e+00 4.30827632e+00 3.86143827e+00 3.46528985e+00 3.19605728e+00 2.87576452e+00 2.66520629e+00 2.55266939e+00 2.48532114e+00 2.43503129e+00 2.45819234e+00 2.48483108e+00 2.68031148e+00 2.86239361e+00 3.09213110e+00 3.44133633e+00 3.76612994e+00 4.18517482e+00 4.68278078e+00 5.23950470e+00 4.86740335e+00 4.29903849e+00 3.92254038e+00 3.51732553e+00 3.19808599e+00 2.88442858e+00 2.67899466e+00 2.51743418e+00 2.44839910e+00 2.40504587e+00 2.40079518e+00 2.46302598e+00 2.62820979e+00 2.80400071e+00 3.07139925e+00 3.33837240e+00 3.64776574e+00 4.12512677e+00 4.56054995e+00 5.10876335e+00 4.91130970e+00 4.36996012e+00 3.90776643e+00 3.52548940e+00 3.20844088e+00 2.96483125e+00 2.70593840e+00 2.51216993e+00 2.40447532e+00 2.37415075e+00 2.35688368e+00 2.41188978e+00 2.59365460e+00 2.73554012e+00 2.98762851e+00 3.25703325e+00 3.60211640e+00 4.01665249e+00 4.45096733e+00 4.94482643e+00 4.93198358e+00 4.44522171e+00 4.02455577e+00 3.58595319e+00 3.27707608e+00 3.00093668e+00 2.73236662e+00 2.56749903e+00 2.48652691e+00 2.39831836e+00 2.36152623e+00 2.45882919e+00 2.54055144e+00 2.73779299e+00 2.91323499e+00 3.23331349e+00 3.52698970e+00 3.94957597e+00 4.42233310e+00 4.88323546e+00 5.06529998e+00 4.55782451e+00 4.13153126e+00 3.66826493e+00 3.31721256e+00 3.02375717e+00 2.76641652e+00 2.59934219e+00 2.48488585e+00 2.45060954e+00 2.45598881e+00 2.42054148e+00 2.58339476e+00 2.67959767e+00 2.89345433e+00 3.21770706e+00 3.52400003e+00 3.86454085e+00 4.33447491e+00 4.83026531e+00 5.19652238e+00 4.70200263e+00 4.17308978e+00 3.77118418e+00 3.39301511e+00 3.14574136e+00 2.83843270e+00 2.64836766e+00 2.50755436e+00 2.46698829e+00 2.41088148e+00 2.46655643e+00 2.53991860e+00 2.69356621e+00 2.90143385e+00 3.17518667e+00 3.48675633e+00 3.83992868e+00 4.26882093e+00 4.77439057e+00 5.37396883e+00 4.81288267e+00 4.34386529e+00 3.89112186e+00 3.53836129e+00 3.14358603e+00 2.95511433e+00 2.74582270e+00 2.57609195e+00 2.51636367e+00 2.49038172e+00 2.47038563e+00 2.60430493e+00 2.73129387e+00 2.89398878e+00 3.17955019e+00 3.50580165e+00 3.87450756e+00 4.25077203e+00 4.76387274e+00 5.55275914e+00 4.97699601e+00 4.51813096e+00 4.06712238e+00 3.63641172e+00 3.37412154e+00 3.05443043e+00 2.87260544e+00 2.70472999e+00 2.62800020e+00 2.54579449e+00 2.55218670e+00 2.68547850e+00 2.80377721e+00 2.96085340e+00 3.15554506e+00 3.48478286e+00 3.83675361e+00 4.26865158e+00 4.74067907e+00 5.68821702e+00 5.15351583e+00 4.69106018e+00 4.20405040e+00 3.82601888e+00 3.48737780e+00 3.15370924e+00 2.97239672e+00 2.82539002e+00 2.71589906e+00 2.63778012e+00 2.67940305e+00 2.75181505e+00 2.81577168e+00 2.98512225e+00 3.24289343e+00 3.54489585e+00 3.88149184e+00 4.32120143e+00 4.77087287e+00 5.95164232e+00 5.32053180e+00 4.81505428e+00 4.39022759e+00 3.98606037e+00 3.62483914e+00 3.33203612e+00 3.10292564e+00 2.92784790e+00 2.82461041e+00 2.74626131e+00 2.79537868e+00 2.81202288e+00 2.91839500e+00 3.08433723e+00 3.36004593e+00 3.56793971e+00 3.96286643e+00 4.31306103e+00 4.79076203e+00 6.14653024e+00 5.56301440e+00 5.01545241e+00 4.56746696e+00 4.16019591e+00 3.82378635e+00 3.51620861e+00 3.25782366e+00 2.99398010e+00 2.93780557e+00 2.87231500e+00 2.85569485e+00 2.89381391e+00 3.00055959e+00 3.20885665e+00 3.39752315e+00 3.62857014e+00 3.96977438e+00 4.41662945e+00 4.84486703e+00 6.39253798e+00 5.78364048e+00 5.24124049e+00 4.77918192e+00 4.42270864e+00 4.04249930e+00 3.72174649e+00 3.44160729e+00 3.25968057e+00 3.17377219e+00 3.08191141e+00 3.02542548e+00 3.00909158e+00 3.15430609e+00 3.27637022e+00 3.50604517e+00 3.75975546e+00 4.12116820e+00 4.49452179e+00 4.89065840e+00 6.63202984e+00 6.09271269e+00 5.50852117e+00 5.03217639e+00 4.61653390e+00 4.24037288e+00 3.94640665e+00 3.65279356e+00 3.46499868e+00 3.29201150e+00 3.22779466e+00 3.21236851e+00 3.20744367e+00 3.27021936e+00 3.46766060e+00 3.62338406e+00 3.86480709e+00 4.21065695e+00 4.52694813e+00 5.03361688e+00
        </DataArray>
      </PointData>
    </Piece>
  </ImageData>
</VTKFile>
