<?xml version="1.0"?>
<VTKFile type="ImageData" version="0.1" byte_order="LittleEndian">
  <ImageData WholeExtent="0 19 0 19 0 0" Origin="0 0 0" Spacing="1 1 1">
    <Piece Extent="0 19 0 19 0 0">
      <PointData Scalars="Loss">
        <DataArray type="Float64" Name="Loss" format="ascii">
          4.38190552e+00 4.05718450e+00 3.71941121e+00 3.42767450e+00 3.23202472e+00 3.04963273e+00 2.98689030e+00 2.88183491e+00 2.86538843e+00 2.86266598e+00 2.94816235e+00 3.08600656e+00 3.27636492e+00 3.51886322e+00 3.80203780e+00 4.11908556e+00 4.52359202e+00 4.90463223e+00 5.47033351e+00 5.97946835e+00 4.28401545e+00 3.93847313e+00 3.61166708e+00 3.29673639e+00 3.09504283e+00 2.93259646e+00 2.82330593e+00 2.70673813e+00 2.68868435e+00 2.71333778e+00 2.79683619e+00 2.92043665e+00 3.08543444e+00 3.28987478e+00 3.57827162e+00 3.90921826e+00 4.26057640e+00 4.68595845e+00 5.22946027e+00 5.68205267e+00 4.24070547e+00 3.85714417e+00 3.52696117e+00 3.17798467e+00 2.98528573e+00 2.82134666e+00 2.69128369e+00 2.59137977e+00 2.56251090e+00 2.55956782e+00 2.63535653e+00 2.76186162e+00 2.95220956e+00 3.11584498e+00 3.40522028e+00 3.69641954e+00 4.07285439e+00 4.51759827e+00 4.95673816e+00 5.45993649e+00 4.22322575e+00 3.80225976e+00 3.48852716e+00 3.18947431e+00 2.91243882e+00 2.72027258e+00 2.60705590e+00 2.48867932e+00 2.43409612e+00 2.43661606e+00 2.48228570e+00 2.62233681e+00 2.76144853e+00 2.96624182e+00 3.21905168e+00 3.50880444e+00 3.91451041e+00 4.30308518e+00 4.76334922e+00 5.25858221e+00 4.20402961e+00 3.77435590e+00 3.41602129e+00 3.14586423e+00 2.85211563e+00 2.64284027e+00 2.52149994e+00 2.40915911e+00 2.34847030e+00 2.35006516e+00 2.39740662e+00 2.49193142e+00 2.66386729e+00 2.83028779e+00 3.06272547e+00 3.38157072e+00 3.72564414e+00 4.09472379e+00 4.56581530e+00 5.04940372e+00 4.14033129e+00 3.75227130e+00 3.35711488e+00 3.04813090e+00 2.78943689e+00 2.63854937e+00 2.43259043e+00 2.31008863e+00 2.27281481e+00 2.25124287e+00 2.27877808e+00 2.41680538e+00 2.49616291e+00 2.72173666e+00 2.98147853e+00 3.25152551e+00 3.54181887e+00 4.00479256e+00 4.40203509e+00 4.88487472e+00 4.17603889e+00 3.76953617e+00 3.40507752e+00 3.09313236e+00 2.77277490e+00 2.54913090e+00 2.35619314e+00 2.27238472e+00 2.24620021e+00 2.21003084e+00 2.22416018e+00 2.32230051e+00 2.44590820e+00 2.60927991e+00 2.82579558e+00 3.14881653e+00 3.43975969e+00 3.84000024e+00 4.27671867e+00 4.72301529e+00 4.20574458e+00 3.75380996e+00 3.40908030e+00 3.06142902e+00 2.81887228e+00 2.57227535e+00 2.40595780e+00 2.24395842e+00 2.15414237e+00 2.13042025e+00 2.14656384e+00 2.24915148e+00 2.38105679e+00 2.53919908e+00 2.77096019e+00 2.99781510e+00 3.37797122e+00 3.68773609e+00 4.12444578e+00 4.59942086e+00 4.24022560e+00 3.80395261e+00 3.41482967e+00 3.07014336e+00 2.82135897e+00 2.51594117e+00 2.36241547e+00 2.23532387e+00 2.12832323e+00 2.09095664e+00 2.11485373e+00 2.17681366e+00 2.29858693e+00 2.43494831e+00 2.66020477e+00 2.92411467e+00 3.23813575e+00 3.62929120e+00 3.98195534e+00 4.48777508e+00 4.29250377e+00 3.84894588e+00 3.46548336e+00 3.15347315e+00 2.84072362e+00 2.60360402e+00 2.39080216e+00 2.24492267e+00 2.14243162e+00 2.21543606e+00 2.20806407e+00 2.12703400e+00 2.25003355e+00 2.39776659e+00 2.56457879e+00 2.89126887e+00 3.18041960e+00 3.52084171e+00 3.97538469e+00 4.41208754e+00 4.40301409e+00 3.94240275e+00 3.54748709e+00 3.15750980e+00 2.89061847e+00 2.63052329e+00 2.43132611e+00 2.25529428e+00 2.19450113e+00 2.19852152e+00 2.20062782e+00 2.13406260e+00 2.23323329e+00 2.36442228e+00 2.62893828e+00 2.81163905e+00 3.14536773e+00 3.47183972e+00 3.88380136e+00 4.33067631e+00 4.49873647e+00 4.01521695e+00 3.64451264e+00 3.24357786e+00 2.92152136e+00 2.66026687e+00 2.43336724e+00 2.30949973e+00 2.15752368e+00 2.15336097e+00 2.11668331e+00 2.11638586e+00 2.23595747e+00 2.38707201e+00 2.55115900e+00 2.79565971e+00 3.07502425e+00 3.38569337e+00 3.81952848e+00 4.24187019e+00 4.61401097e+00 4.13754762e+00 3.72191548e+00 3.30770357e+00 3.04601831e+00 2.79231952e+00 2.54396518e+00 2.35723901e+00 2.22235763e+00 2.18717434e+00 2.10088994e+00 2.17652841e+00 2.29664329e+00 2.36569565e+00 2.53754434e+00 2.79016906e+00 3.04676850e+00 3.41003984e+00 3.77678301e+00 4.21857450e+00 4.77331492e+00 4.27503483e+00 3.83456222e+00 3.43881730e+00 3.07159123e+00 2.84756101e+00 2.61513589e+00 2.44505033e+00 2.27836641e+00 2.22707773e+00 2.17795675e+00 2.21137725e+00 2.27181221e+00 2.38193466e+00 2.58648419e+00 2.78631039e+00 3.08022711e+00 3.40110646e+00 3.74973767e+00 4.15704786e+00 4.88947083e+00 4.38866711e+00 3.95104542e+00 3.55903948e+00 3.24890749e+00 2.97097560e+00 2.71368758e+00 2.54519505e+00 2.37740051e+00 2.30667350e+00 2.23961480e+00 2.29779041e+00 2.30994376e+00 2.46659156e+00 2.56702295e+00 2.78374400e+00 3.07013904e+00 3.41103806e+00 3.75318772e+00 4.19798081e+00 5.07209097e+00 4.56182300e+00 4.12635881e+00 3.67883320e+00 3.37816530e+00 3.07216962e+00 2.83366992e+00 2.61677948e+00 2.50241560e+00 2.39502135e+00 2.35750611e+00 2.36360158e+00 2.38362806e+00 2.49027487e+00 2.66722665e+00 2.85388221e+00 3.12179581e+00 3.41851910e+00 3.79389911e+00 4.16790326e+00 5.27149689e+00 4.74686611e+00 4.27386288e+00 3.89222417e+00 3.50172605e+00 3.22340448e+00 3.03087670e+00 2.79392595e+00 2.60622696e+00 2.49894399e+00 2.43510939e+00 2.46484449e+00 2.50853866e+00 2.55774793e+00 2.72360668e+00 2.93656007e+00 3.18152867e+00 3.49361080e+00 3.78214142e+00 4.20523541e+00 5.47340285e+00 4.97968818e+00 4.49240590e+00 4.07788427e+00 3.73916895e+00 3.37069699e+00 3.10547602e+00 2.90154700e+00 2.71072981e+00 2.65379949e+00 2.56249591e+00 2.55438188e+00 2.62370757e+00 2.68945907e+00 2.82670638e+00 2.99068295e+00 3.22938024e+00 3.53407942e+00 3.87774051e+00 4.25690449e+00 5.72802157e+00 5.14934469e+00 4.75694606e+00 4.28576881e+00 3.91802014e+00 3.55372814e+00 3.33187747e+00 3.09187998e+00 2.89129848e+00 2.78127597e+00 2.73614265e+00 2.70606773e+00 2.70092936e+00 2.78962909e+00 2.93259226e+00 3.09017889e+00 3.31370700e+00 3.60286650e+00 3.94364729e+00 4.30315178e+00 5.93179806e+00 5.42158900e+00 4.94456380e+00 4.53528374e+00 4.10098056e+00 3.79060242e+00 3.49757084e+00 3.28876749e+00 3.12420197e+00 2.91534266e+00 2.89441340e+00 2.83863523e+00 2.87475311e+00 2.95388924e+00 3.08091582e+00 3.18646573e+00 3.41237080e+00 3.72420517e+00 4.06020983e+00 4.42766466e+00
        </DataArray>
      </PointData>
    </Piece>
  </ImageData>
</VTKFile>
