<?xml version="1.0"?>
<VTKFile type="ImageData" version="0.1" byte_order="LittleEndian">
  <ImageData WholeExtent="0 19 0 19 0 0" Origin="0 0 0" Spacing="1 1 1">
    <Piece Extent="0 19 0 19 0 0">
      <PointData Scalars="Loss">
        <DataArray type="Float64" Name="Loss" format="ascii">
          3.38816270e+00 3.07074583e+00 2.83829401e+00 2.65381938e+00 2.49142064e+00 2.34095022e+00 2.29474693e+00 2.20715375e+00 2.18591253e+00 2.18548924e+00 2.26999325e+00 2.30947391e+00 2.46923553e+00 2.65891101e+00 2.88396523e+00 3.13424389e+00 3.38968545e+00 3.75133108e+00 4.10632780e+00 4.50422869e+00 3.34020344e+00 3.01757060e+00 2.77728760e+00 2.56861333e+00 2.38475481e+00 2.23553440e+00 2.12455091e+00 2.03746560e+00 2.07022098e+00 2.08013583e+00 2.12031471e+00 2.22248702e+00 2.34282770e+00 2.51296680e+00 2.75623872e+00 2.92056745e+00 3.26692380e+00 3.55590011e+00 3.91604995e+00 4.31946347e+00 3.26323330e+00 2.97164888e+00 2.70121005e+00 2.46257144e+00 2.32039391e+00 2.17614563e+00 2.06656721e+00 1.99302047e+00 1.96579470e+00 1.97892057e+00 2.00506359e+00 2.08429611e+00 2.25007378e+00 2.37369047e+00 2.57790974e+00 2.81751820e+00 3.09540434e+00 3.38353705e+00 3.74940733e+00 4.13441676e+00 3.21460888e+00 2.93077972e+00 2.64839401e+00 2.42838718e+00 2.23556935e+00 2.08554297e+00 1.96642819e+00 1.90293913e+00 1.88084721e+00 1.86770380e+00 1.92665602e+00 1.99565196e+00 2.09195778e+00 2.23976582e+00 2.47037950e+00 2.69084377e+00 2.94371209e+00 3.22362200e+00 3.58561030e+00 4.01880267e+00 3.19947081e+00 2.85536980e+00 2.62447245e+00 2.37371158e+00 2.13372552e+00 2.04610674e+00 1.90573193e+00 1.84355870e+00 1.81078268e+00 1.81703681e+00 1.81388002e+00 1.90107846e+00 2.00702445e+00 2.16712735e+00 2.34240854e+00 2.58861224e+00 2.82504875e+00 3.13321419e+00 3.46092660e+00 3.84038557e+00 3.17319939e+00 2.86727622e+00 2.58096217e+00 2.34580554e+00 2.15096088e+00 2.02106122e+00 1.85598007e+00 1.78446275e+00 1.74443039e+00 1.72002348e+00 1.74502718e+00 1.84161289e+00 1.92041300e+00 2.05980641e+00 2.23639639e+00 2.46072782e+00 2.70305343e+00 3.00272703e+00 3.37681876e+00 3.70117473e+00 3.17612727e+00 2.86641030e+00 2.60760431e+00 2.34020014e+00 2.15362048e+00 1.96918494e+00 1.85079010e+00 1.72656928e+00 1.70170839e+00 1.64949975e+00 1.67227236e+00 1.75168569e+00 1.86745790e+00 1.95795031e+00 2.14335582e+00 2.37276811e+00 2.64413910e+00 2.90414209e+00 3.22230886e+00 3.62087974e+00 3.19371301e+00 2.85711571e+00 2.58511278e+00 2.36636691e+00 2.13612827e+00 1.96449189e+00 1.81023073e+00 1.73907313e+00 1.64246440e+00 1.59418154e+00 1.63286416e+00 1.70977637e+00 1.78907719e+00 1.90292928e+00 2.07410598e+00 2.29505302e+00 2.54330982e+00 2.81012055e+00 3.15178854e+00 3.49773742e+00 3.22635601e+00 2.88982770e+00 2.61780731e+00 2.35286499e+00 2.11048773e+00 1.98223003e+00 1.79237099e+00 1.68802950e+00 1.61964802e+00 1.58557713e+00 1.60910292e+00 1.64641621e+00 1.76090378e+00 1.86960903e+00 2.05016689e+00 2.23447478e+00 2.46894792e+00 2.73109646e+00 3.06336110e+00 3.38401235e+00 3.26775202e+00 2.93876177e+00 2.63911307e+00 2.35364744e+00 2.14477566e+00 1.96741465e+00 1.80593411e+00 1.67638464e+00 1.62269629e+00 1.81397129e+00 1.80840167e+00 1.62291129e+00 1.72840149e+00 1.82934135e+00 1.98485396e+00 2.19868689e+00 2.43957837e+00 2.65349104e+00 2.98710838e+00 3.34527448e+00 3.36307224e+00 2.99268493e+00 2.68153079e+00 2.40305092e+00 2.18368140e+00 2.03344811e+00 1.82411646e+00 1.74950209e+00 1.63971265e+00 1.80953133e+00 1.82197731e+00 1.63839402e+00 1.67502285e+00 1.80843147e+00 1.94281056e+00 2.14140231e+00 2.36997303e+00 2.66769890e+00 2.92946478e+00 3.24913269e+00 3.42164179e+00 3.04149569e+00 2.73895284e+00 2.44287434e+00 2.25068557e+00 2.03597420e+00 1.88053224e+00 1.74696796e+00 1.65559754e+00 1.59260831e+00 1.64058074e+00 1.61112303e+00 1.68293540e+00 1.81888883e+00 1.94775871e+00 2.11916769e+00 2.35398524e+00 2.64406080e+00 2.89182164e+00 3.24091396e+00 3.46357519e+00 3.11324108e+00 2.81043359e+00 2.49641456e+00 2.27829355e+00 2.07397284e+00 1.92002614e+00 1.78185206e+00 1.67885379e+00 1.64192060e+00 1.62250916e+00 1.66578376e+00 1.72369291e+00 1.81632086e+00 1.93967997e+00 2.13468911e+00 2.33442005e+00 2.60261935e+00 2.86046334e+00 3.20774893e+00 3.58647403e+00 3.24015870e+00 2.88902031e+00 2.59222322e+00 2.35720326e+00 2.15149623e+00 1.98002780e+00 1.86819574e+00 1.75779000e+00 1.68647327e+00 1.64680930e+00 1.65908285e+00 1.75847916e+00 1.85434970e+00 1.92717234e+00 2.13059494e+00 2.34569066e+00 2.57016038e+00 2.86517238e+00 3.14798826e+00 3.71706424e+00 3.36772571e+00 3.00514295e+00 2.69497201e+00 2.45513883e+00 2.24069006e+00 2.05570994e+00 1.89893852e+00 1.84128616e+00 1.74536388e+00 1.73076863e+00 1.73306623e+00 1.80040560e+00 1.89908195e+00 1.96650957e+00 2.12075141e+00 2.34147444e+00 2.57984585e+00 2.87418338e+00 3.18060817e+00 3.86042244e+00 3.47463044e+00 3.12350041e+00 2.82342191e+00 2.56805166e+00 2.35102984e+00 2.17051684e+00 2.00868402e+00 1.91695215e+00 1.82918846e+00 1.80298063e+00 1.78663647e+00 1.81679170e+00 1.94473344e+00 2.02600086e+00 2.18857732e+00 2.37100246e+00 2.61054752e+00 2.87995648e+00 3.19926986e+00 3.98701402e+00 3.62161946e+00 3.24997126e+00 2.97627888e+00 2.65832049e+00 2.44048391e+00 2.27218984e+00 2.09507159e+00 1.98031704e+00 1.91237575e+00 1.88382305e+00 1.84653076e+00 1.91868898e+00 1.98528923e+00 2.09979056e+00 2.22818610e+00 2.40413721e+00 2.65564168e+00 2.93677065e+00 3.20377486e+00 4.12742148e+00 3.76545258e+00 3.41193600e+00 3.08538319e+00 2.80445303e+00 2.58493024e+00 2.36950969e+00 2.20985303e+00 2.08728634e+00 2.03121345e+00 1.95180010e+00 1.94772996e+00 1.99671661e+00 2.04844954e+00 2.17237069e+00 2.29903079e+00 2.49715770e+00 2.68117499e+00 2.96425124e+00 3.24071235e+00 4.33516149e+00 3.89286991e+00 3.57529063e+00 3.25260732e+00 2.97093095e+00 2.73949239e+00 2.50933140e+00 2.34320012e+00 2.24236460e+00 2.15961188e+00 2.08153396e+00 2.05350655e+00 2.10176105e+00 2.15821059e+00 2.26680045e+00 2.39362489e+00 2.56630217e+00 2.76810767e+00 3.03376636e+00 3.32102693e+00 4.49449495e+00 4.09617423e+00 3.72444096e+00 3.42315108e+00 3.13371672e+00 2.88494026e+00 2.65365997e+00 2.48198341e+00 2.38650383e+00 2.25404710e+00 2.20251936e+00 2.16297838e+00 2.15564794e+00 2.23382446e+00 2.35875323e+00 2.47782023e+00 2.60522251e+00 2.85088771e+00 3.08771901e+00 3.34559574e+00
        </DataArray>
      </PointData>
    </Piece>
  </ImageData>
</VTKFile>
