<?xml version="1.0"?>
<VTKFile type="ImageData" version="0.1" byte_order="LittleEndian">
  <ImageData WholeExtent="0 19 0 19 0 0" Origin="0 0 0" Spacing="1 1 1">
    <Piece Extent="0 19 0 19 0 0">
      <PointData Scalars="Loss">
        <DataArray type="Float64" Name="Loss" format="ascii">
          7.46786016e+00 6.84959166e+00 6.27092356e+00 5.82110805e+00 5.49223313e+00 5.18985428e+00 4.97483354e+00 4.88868512e+00 4.85637249e+00 4.92168267e+00 5.04926788e+00 5.27494399e+00 5.58106003e+00 5.96434232e+00 6.43163046e+00 7.07237206e+00 7.67763850e+00 8.46089894e+00 9.32419938e+00 1.01440291e+01 7.38452332e+00 6.58082514e+00 6.12770633e+00 5.61694537e+00 5.21123122e+00 4.95114424e+00 4.75012181e+00 4.66514902e+00 4.63268308e+00 4.60003813e+00 4.83573167e+00 5.03505482e+00 5.31656270e+00 5.66259409e+00 6.18494768e+00 6.62621813e+00 7.38495236e+00 8.03392254e+00 8.97533252e+00 9.91291950e+00 7.24989563e+00 6.59673243e+00 6.03972385e+00 5.50770415e+00 5.04806171e+00 4.76250872e+00 4.54575661e+00 4.40449021e+00 4.37207317e+00 4.41254511e+00 4.53884633e+00 4.72901871e+00 4.93378258e+00 5.37440763e+00 5.83345303e+00 6.37543589e+00 7.00855823e+00 7.74940271e+00 8.50580054e+00 9.45264647e+00 7.14126762e+00 6.51390720e+00 5.89169765e+00 5.36271048e+00 4.98222606e+00 4.69103028e+00 4.35767746e+00 4.31201469e+00 4.21641959e+00 4.19968500e+00 4.31589005e+00 4.49832087e+00 4.74605836e+00 5.15998214e+00 5.50695156e+00 6.11446709e+00 6.71994627e+00 7.40031032e+00 8.18920851e+00 9.07191459e+00 7.19165379e+00 6.42419033e+00 5.77141372e+00 5.25392844e+00 4.91523014e+00 4.58297792e+00 4.32805191e+00 4.05760613e+00 3.94571074e+00 4.04037925e+00 4.09722593e+00 4.31123932e+00 4.52918669e+00 4.86682535e+00 5.35270727e+00 5.82440748e+00 6.39004766e+00 7.07426154e+00 7.84311126e+00 8.80286734e+00 7.19978181e+00 6.43661379e+00 5.84217890e+00 5.35215717e+00 4.74914524e+00 4.54343934e+00 4.23615106e+00 4.02899116e+00 3.87958713e+00 3.87653090e+00 3.90648358e+00 4.17593132e+00 4.36937996e+00 4.71179445e+00 5.18416365e+00 5.66610212e+00 6.15482848e+00 6.80466217e+00 7.64250032e+00 8.38907638e+00 7.16310037e+00 6.45998168e+00 5.85345777e+00 5.29287491e+00 4.86354310e+00 4.44211572e+00 4.11435528e+00 3.91390258e+00 3.78756064e+00 3.77450344e+00 3.83342281e+00 3.93380473e+00 4.20208858e+00 4.49401966e+00 4.92272697e+00 5.44001201e+00 5.98749912e+00 6.60164706e+00 7.33201390e+00 8.17578809e+00 7.24302536e+00 6.50114238e+00 5.86777069e+00 5.26367092e+00 4.83118208e+00 4.43555457e+00 4.10721350e+00 3.92066537e+00 3.72626734e+00 3.63226517e+00 3.70558833e+00 3.87277303e+00 4.06168829e+00 4.36534838e+00 4.75785476e+00 5.16277604e+00 5.74860515e+00 6.49657463e+00 7.13008409e+00 7.92658399e+00 7.28896788e+00 6.55252483e+00 5.88898345e+00 5.29683325e+00 4.76604965e+00 4.39461227e+00 4.07290571e+00 3.85104324e+00 3.70553711e+00 3.61858008e+00 3.70737779e+00 3.81851954e+00 3.96089087e+00 4.27412721e+00 4.69909429e+00 5.03384688e+00 5.62046747e+00 6.24070454e+00 6.91124227e+00 7.68295669e+00 7.37841740e+00 6.59684881e+00 5.97801463e+00 5.41858007e+00 4.86956505e+00 4.40878996e+00 4.13452000e+00 3.81356516e+00 3.67076453e+00 3.27025380e+00 3.23102095e+00 3.76703733e+00 3.89157839e+00 4.23104546e+00 4.54666381e+00 4.91290161e+00 5.46601210e+00 6.13625860e+00 6.82152831e+00 7.57294501e+00 7.59568404e+00 6.73876014e+00 6.08816919e+00 5.49062599e+00 4.95647450e+00 4.51558726e+00 4.11632002e+00 3.85883163e+00 3.69048922e+00 3.25343645e+00 3.25960692e+00 3.69710066e+00 3.85825400e+00 4.11658971e+00 4.42888045e+00 4.83980174e+00 5.36892148e+00 6.02124726e+00 6.68362478e+00 7.46137198e+00 7.75878372e+00 6.95412682e+00 6.16693071e+00 5.57203518e+00 5.00820286e+00 4.62532035e+00 4.26231502e+00 3.98236490e+00 3.78709758e+00 3.60550729e+00 3.62128387e+00 3.67184610e+00 3.83815546e+00 4.09568219e+00 4.39420501e+00 4.87334362e+00 5.29258280e+00 5.87793737e+00 6.59938234e+00 7.31803000e+00 7.94449359e+00 7.11108324e+00 6.46682186e+00 5.79317525e+00 5.19599925e+00 4.75666057e+00 4.36744065e+00 4.07159952e+00 3.79697287e+00 3.78293434e+00 3.66604700e+00 3.75809994e+00 3.91889939e+00 4.11854495e+00 4.35566456e+00 4.69335556e+00 5.24716212e+00 5.87743761e+00 6.44489422e+00 7.28818306e+00 8.16377515e+00 7.34161675e+00 6.66139105e+00 5.94651324e+00 5.36118717e+00 4.95456547e+00 4.51026458e+00 4.22163346e+00 3.92905824e+00 3.83809726e+00 3.72576362e+00 3.78347613e+00 3.88146249e+00 4.10739489e+00 4.33976873e+00 4.82404553e+00 5.26780834e+00 5.76986703e+00 6.46818964e+00 7.16054289e+00 8.42048801e+00 7.58450659e+00 6.78662525e+00 6.15832122e+00 5.56671984e+00 5.06120181e+00 4.62945951e+00 4.28280349e+00 4.10107338e+00 3.91726988e+00 3.91156480e+00 3.89003831e+00 4.09267050e+00 4.21803189e+00 4.47527057e+00 4.80704096e+00 5.33142522e+00 5.84328332e+00 6.43898845e+00 7.15176526e+00 8.70427684e+00 7.84401124e+00 7.09067779e+00 6.33433923e+00 5.80360596e+00 5.25070843e+00 4.92822235e+00 4.52169914e+00 4.29930286e+00 4.09816453e+00 4.01507087e+00 3.99889943e+00 4.15980867e+00 4.29546437e+00 4.56866886e+00 4.84001505e+00 5.30871686e+00 5.89112441e+00 6.53277379e+00 7.20572588e+00 9.06070542e+00 8.18141756e+00 7.34577902e+00 6.67062168e+00 6.07891554e+00 5.56553820e+00 5.16891481e+00 4.75795120e+00 4.54625032e+00 4.33024540e+00 4.26393728e+00 4.20278569e+00 4.24747172e+00 4.39208242e+00 4.64415496e+00 4.99532751e+00 5.44785410e+00 5.97077895e+00 6.42578745e+00 7.17750315e+00 9.47852912e+00 8.50818463e+00 7.68884727e+00 7.04290928e+00 6.44961066e+00 5.77034883e+00 5.41741270e+00 5.06875843e+00 4.69615484e+00 4.48183250e+00 4.37986501e+00 4.39543282e+00 4.45157855e+00 4.59332063e+00 4.75915050e+00 5.12372589e+00 5.53229479e+00 6.01338850e+00 6.55760319e+00 7.22686572e+00 9.75692576e+00 8.90118762e+00 8.06733529e+00 7.39454853e+00 6.67182723e+00 6.15316127e+00 5.69645979e+00 5.27139214e+00 4.96508128e+00 4.76674149e+00 4.60833349e+00 4.55925490e+00 4.60606465e+00 4.79501170e+00 4.96912289e+00 5.25627887e+00 5.63646600e+00 6.16327367e+00 6.66172378e+00 7.29110350e+00 1.02400931e+01 9.31060659e+00 8.48623058e+00 7.70887006e+00 7.04410390e+00 6.47042706e+00 6.00171155e+00 5.59912929e+00 5.26838297e+00 4.96635264e+00 4.89535341e+00 4.93316668e+00 4.91074791e+00 4.91356113e+00 5.13662422e+00 5.35036638e+00 5.90913773e+00 6.32931649e+00 6.89077015e+00 7.46107996e+00
        </DataArray>
      </PointData>
    </Piece>
  </ImageData>
</VTKFile>
