<?xml version="1.0"?>
<VTKFile type="ImageData" version="0.1" byte_order="LittleEndian">
  <ImageData WholeExtent="0 19 0 19 0 0" Origin="0 0 0" Spacing="1 1 1">
    <Piece Extent="0 19 0 19 0 0">
      <PointData Scalars="Loss">
        <DataArray type="Float64" Name="Loss" format="ascii">
          3.05684554e+00 2.76140852e+00 2.54917350e+00 2.38141910e+00 2.19668045e+00 2.09053638e+00 1.99372124e+00 1.93743795e+00 1.94871867e+00 1.94564759e+00 2.03407896e+00 2.11898745e+00 2.27648320e+00 2.41671141e+00 2.59461929e+00 2.84487118e+00 3.12725790e+00 3.41593255e+00 3.77924963e+00 4.15893668e+00 2.96196643e+00 2.69626137e+00 2.48277591e+00 2.28339278e+00 2.14257218e+00 1.98793290e+00 1.92452106e+00 1.88994570e+00 1.85524689e+00 1.87430823e+00 1.90218318e+00 2.02796006e+00 2.10408053e+00 2.28478865e+00 2.48741954e+00 2.70048183e+00 2.97646881e+00 3.27776412e+00 3.62115257e+00 3.97549957e+00 2.94214559e+00 2.65362394e+00 2.41683339e+00 2.22967775e+00 2.08358290e+00 1.93328052e+00 1.83675816e+00 1.76937840e+00 1.74821047e+00 1.77778855e+00 1.82087804e+00 1.93094582e+00 2.03693990e+00 2.18774439e+00 2.35930961e+00 2.58101354e+00 2.83821890e+00 3.14034272e+00 3.48043850e+00 3.82884934e+00 2.91999528e+00 2.63185349e+00 2.40193131e+00 2.18382929e+00 2.01878379e+00 1.88200828e+00 1.78447016e+00 1.73906501e+00 1.67132577e+00 1.71991302e+00 1.72590201e+00 1.82243974e+00 1.93152713e+00 2.06056338e+00 2.25210179e+00 2.47607819e+00 2.71612563e+00 2.98699457e+00 3.31959339e+00 3.68523214e+00 2.90682895e+00 2.60828174e+00 2.35647739e+00 2.17491976e+00 1.99746606e+00 1.86377715e+00 1.75705648e+00 1.69587490e+00 1.63288470e+00 1.62508841e+00 1.70013480e+00 1.74058811e+00 1.83635510e+00 2.02163118e+00 2.14290944e+00 2.39671330e+00 2.61969759e+00 2.90051704e+00 3.20548810e+00 3.54534797e+00 2.91470812e+00 2.59774997e+00 2.38972223e+00 2.17751222e+00 1.97265450e+00 1.80778484e+00 1.69763511e+00 1.63703684e+00 1.57008305e+00 1.58306991e+00 1.60090363e+00 1.67451008e+00 1.76031710e+00 1.90758004e+00 2.05117117e+00 2.28709471e+00 2.53422171e+00 2.77778881e+00 3.10015113e+00 3.46233614e+00 2.91090434e+00 2.61614275e+00 2.39011877e+00 2.13630901e+00 1.94219636e+00 1.78685666e+00 1.66102563e+00 1.58695875e+00 1.55760572e+00 1.55603587e+00 1.54494837e+00 1.61320312e+00 1.70796760e+00 1.82592318e+00 1.99932747e+00 2.18523501e+00 2.43420687e+00 2.70918781e+00 2.97611265e+00 3.31089879e+00 2.95783631e+00 2.62449274e+00 2.38042733e+00 2.16152776e+00 1.95629796e+00 1.80913656e+00 1.68244491e+00 1.59096454e+00 1.52375232e+00 1.53344243e+00 1.49491643e+00 1.57366630e+00 1.65812908e+00 1.78434546e+00 1.93272554e+00 2.12408051e+00 2.33950026e+00 2.63226687e+00 2.87887263e+00 3.21219488e+00 2.99592404e+00 2.67434986e+00 2.39511320e+00 2.14291997e+00 1.96275953e+00 1.80929649e+00 1.68601327e+00 1.59187116e+00 1.47955951e+00 1.47712242e+00 1.49395635e+00 1.52096577e+00 1.59987316e+00 1.72733986e+00 1.88741242e+00 2.07519018e+00 2.27156557e+00 2.54976242e+00 2.81382962e+00 3.16274870e+00 3.00359035e+00 2.70243014e+00 2.43214855e+00 2.17325075e+00 1.96760663e+00 1.79322807e+00 1.69386931e+00 1.54092602e+00 1.50893490e+00 1.73426591e+00 1.76867124e+00 1.52620464e+00 1.59024527e+00 1.70362626e+00 1.83552245e+00 2.01210451e+00 2.24026581e+00 2.48743032e+00 2.75764535e+00 3.05755741e+00 3.05207571e+00 2.74649973e+00 2.45675982e+00 2.22899339e+00 2.02919644e+00 1.83199748e+00 1.68347432e+00 1.56053234e+00 1.50927728e+00 1.76071005e+00 1.76063776e+00 1.50803278e+00 1.56200798e+00 1.67050507e+00 1.82967723e+00 1.98515341e+00 2.17626052e+00 2.43634348e+00 2.70447531e+00 3.03764008e+00 3.15865946e+00 2.83396153e+00 2.54855186e+00 2.27078742e+00 2.08108590e+00 1.88747806e+00 1.72192624e+00 1.63058886e+00 1.53250224e+00 1.47733699e+00 1.48468340e+00 1.51787911e+00 1.55455529e+00 1.65899893e+00 1.79877425e+00 1.95516153e+00 2.18098741e+00 2.42571814e+00 2.69124318e+00 2.98385535e+00 3.24686004e+00 2.90638073e+00 2.59948828e+00 2.33122714e+00 2.13005036e+00 1.93043406e+00 1.79521630e+00 1.66441271e+00 1.55978365e+00 1.52198923e+00 1.50707482e+00 1.51747970e+00 1.57773804e+00 1.69271993e+00 1.82160655e+00 1.95952003e+00 2.11964708e+00 2.37067106e+00 2.62599924e+00 2.91264268e+00 3.32039703e+00 2.99188707e+00 2.68965881e+00 2.43385296e+00 2.18885918e+00 2.01198468e+00 1.83906918e+00 1.70529318e+00 1.60821109e+00 1.55947328e+00 1.55266529e+00 1.56320137e+00 1.60765328e+00 1.67823007e+00 1.81723591e+00 1.95612697e+00 2.14925747e+00 2.38094339e+00 2.58871689e+00 2.90841561e+00 3.44810807e+00 3.09879934e+00 2.76916360e+00 2.48803231e+00 2.27011293e+00 2.07372427e+00 1.89856082e+00 1.77315157e+00 1.64813867e+00 1.61646281e+00 1.57374293e+00 1.56188038e+00 1.61692673e+00 1.73760131e+00 1.82754723e+00 1.97338291e+00 2.13302854e+00 2.36610455e+00 2.60360767e+00 2.91994632e+00 3.57722813e+00 3.19308688e+00 2.88774903e+00 2.60552932e+00 2.36839047e+00 2.14815286e+00 1.96867355e+00 1.86174629e+00 1.75006310e+00 1.66952980e+00 1.64684432e+00 1.63204970e+00 1.66736271e+00 1.73181386e+00 1.85440608e+00 1.97290814e+00 2.14933668e+00 2.36869191e+00 2.62054907e+00 2.89866390e+00 3.69727066e+00 3.33754993e+00 3.01111402e+00 2.72038725e+00 2.44571455e+00 2.27374584e+00 2.07662215e+00 1.96014764e+00 1.83130788e+00 1.74904045e+00 1.70856289e+00 1.70541467e+00 1.73439556e+00 1.77988580e+00 1.91341644e+00 2.00395489e+00 2.17545937e+00 2.40155377e+00 2.63766732e+00 2.90801758e+00 3.82011376e+00 3.45536903e+00 3.15046914e+00 2.83662524e+00 2.60667248e+00 2.39606814e+00 2.14969383e+00 2.02834413e+00 1.91281794e+00 1.81787854e+00 1.78589915e+00 1.74970457e+00 1.76767677e+00 1.83110180e+00 1.94175908e+00 2.06884494e+00 2.23451146e+00 2.43441811e+00 2.66933521e+00 2.96382779e+00 3.96630040e+00 3.58532796e+00 3.28712937e+00 2.95621291e+00 2.71461989e+00 2.46643421e+00 2.29642011e+00 2.12208910e+00 2.00912484e+00 1.93195700e+00 1.86282924e+00 1.84201976e+00 1.85175484e+00 1.89980836e+00 1.99057996e+00 2.13898853e+00 2.30391790e+00 2.46578903e+00 2.72365986e+00 2.98320850e+00 4.15096957e+00 3.75610593e+00 3.42177515e+00 3.15358814e+00 2.84946552e+00 2.62061544e+00 2.41805885e+00 2.27510926e+00 2.12505973e+00 2.02806151e+00 1.96079881e+00 1.96620379e+00 1.97350149e+00 1.98006191e+00 2.11236118e+00 2.18815037e+00 2.34926556e+00 2.55994737e+00 2.76314784e+00 3.01590462e+00
        </DataArray>
      </PointData>
    </Piece>
  </ImageData>
</VTKFile>
