<?xml version="1.0"?>
<VTKFile type="ImageData" version="0.1" byte_order="LittleEndian">
  <ImageData WholeExtent="0 19 0 19 0 0" Origin="0 0 0" Spacing="1 1 1">
    <Piece Extent="0 19 0 19 0 0">
      <PointData Scalars="Loss">
        <DataArray type="Float64" Name="Loss" format="ascii">
          6.13491070e+00 5.61746031e+00 5.11637004e+00 4.73597141e+00 4.40083975e+00 4.09151351e+00 3.89087577e+00 3.77258993e+00 3.69147232e+00 3.69873857e+00 3.78702142e+00 3.79923810e+00 4.03460189e+00 4.24714178e+00 4.56385328e+00 5.01273257e+00 5.47908314e+00 6.00065377e+00 6.53690234e+00 7.18768222e+00 6.05352685e+00 5.46628349e+00 5.01235968e+00 4.56197984e+00 4.15287345e+00 3.92769029e+00 3.77374356e+00 3.58634094e+00 3.50024131e+00 3.46309608e+00 3.50863837e+00 3.60040007e+00 3.84685663e+00 4.09077636e+00 4.37290257e+00 4.71022888e+00 5.15995809e+00 5.71845685e+00 6.28931806e+00 6.95601860e+00 5.87801686e+00 5.30907297e+00 4.83957903e+00 4.40563518e+00 4.04223979e+00 3.73222628e+00 3.57836634e+00 3.42302671e+00 3.36985006e+00 3.25348136e+00 3.33634015e+00 3.48972647e+00 3.63972412e+00 3.85844361e+00 4.17959613e+00 4.54403850e+00 4.98706488e+00 5.44676139e+00 6.10479822e+00 6.68157599e+00 5.78699101e+00 5.25126331e+00 4.76045361e+00 4.30633960e+00 3.93773471e+00 3.66083023e+00 3.42270961e+00 3.27701994e+00 3.13988392e+00 3.16461254e+00 3.14644983e+00 3.28994704e+00 3.48427583e+00 3.68919455e+00 3.95199909e+00 4.37354749e+00 4.77644025e+00 5.27282867e+00 5.85508892e+00 6.52245809e+00 5.72888637e+00 5.14893091e+00 4.60943689e+00 4.21697813e+00 3.83196238e+00 3.57080204e+00 3.33230556e+00 3.14391917e+00 3.03414913e+00 3.01544133e+00 3.10461677e+00 3.12634531e+00 3.32446198e+00 3.53764063e+00 3.83152240e+00 4.19890867e+00 4.62912155e+00 5.09457091e+00 5.65992108e+00 6.28700174e+00 5.63960513e+00 5.04003826e+00 4.64622130e+00 4.15436724e+00 3.81416406e+00 3.46011555e+00 3.24034359e+00 3.08290650e+00 2.94237236e+00 2.88299994e+00 2.92039960e+00 2.97358891e+00 3.13849007e+00 3.38399422e+00 3.68928302e+00 4.05332466e+00 4.45246099e+00 4.97586453e+00 5.53892381e+00 6.14069262e+00 5.55685605e+00 5.00088134e+00 4.52949419e+00 4.04874819e+00 3.70348672e+00 3.43702000e+00 3.19564075e+00 2.95846969e+00 2.82635401e+00 2.79015317e+00 2.81304547e+00 2.95296911e+00 3.09053355e+00 3.29460908e+00 3.56374507e+00 3.90961432e+00 4.33660782e+00 4.83119824e+00 5.39718065e+00 6.00041258e+00 5.60605555e+00 5.00093598e+00 4.55200333e+00 4.06055162e+00 3.69731068e+00 3.38162633e+00 3.09629814e+00 2.91327981e+00 2.79478778e+00 2.77263234e+00 2.74335667e+00 2.83920041e+00 2.97934058e+00 3.22181767e+00 3.53401565e+00 3.79913725e+00 4.23239396e+00 4.74145781e+00 5.30801937e+00 5.90073326e+00 5.57670914e+00 5.02348358e+00 4.47525443e+00 4.05788055e+00 3.64543144e+00 3.29888277e+00 3.15441041e+00 2.90510904e+00 2.78590038e+00 2.67793756e+00 2.71071578e+00 2.75996560e+00 2.98086351e+00 3.13068320e+00 3.41393979e+00 3.76922116e+00 4.14518689e+00 4.61680628e+00 5.16904415e+00 5.73414449e+00 5.63148252e+00 5.01422119e+00 4.49620451e+00 4.09826866e+00 3.63972513e+00 3.32128768e+00 3.08855685e+00 2.85331334e+00 2.76319110e+00 2.61557169e+00 2.63501993e+00 2.78458459e+00 2.88373747e+00 3.11891761e+00 3.41316953e+00 3.77267098e+00 4.09898819e+00 4.56575924e+00 5.07409518e+00 5.68077968e+00 5.71836068e+00 5.07458928e+00 4.62649331e+00 4.11456095e+00 3.69682162e+00 3.33539158e+00 3.10145032e+00 2.88957343e+00 2.73858836e+00 2.62504554e+00 2.58379378e+00 2.77127221e+00 2.89403354e+00 3.09575304e+00 3.36943718e+00 3.70027830e+00 4.09061690e+00 4.45438008e+00 5.07308723e+00 5.66698511e+00 5.80580048e+00 5.18866648e+00 4.63119590e+00 4.14163396e+00 3.72454245e+00 3.44935708e+00 3.14502109e+00 2.92670528e+00 2.79882552e+00 2.76199428e+00 2.76866456e+00 2.74979011e+00 2.85167110e+00 3.10813695e+00 3.33532284e+00 3.64790614e+00 4.05319609e+00 4.52211921e+00 5.00967532e+00 5.58012385e+00 5.88867523e+00 5.28286610e+00 4.70605461e+00 4.26887699e+00 3.85130801e+00 3.48128465e+00 3.22699453e+00 2.97106161e+00 2.83763948e+00 2.77376271e+00 2.74073363e+00 2.83571393e+00 2.88226802e+00 3.11035589e+00 3.30873926e+00 3.73271891e+00 4.05544506e+00 4.52237679e+00 5.00302718e+00 5.58515395e+00 6.02303066e+00 5.37036404e+00 4.83888025e+00 4.33236243e+00 3.89949732e+00 3.56604534e+00 3.27738042e+00 3.05170554e+00 2.93430433e+00 2.87115436e+00 2.81110538e+00 2.86856731e+00 2.94652772e+00 3.20538041e+00 3.41191073e+00 3.68029115e+00 4.05864149e+00 4.53144264e+00 5.04644357e+00 5.63251407e+00 6.10704844e+00 5.51238751e+00 4.93479090e+00 4.49545730e+00 4.06572918e+00 3.73082473e+00 3.42343156e+00 3.20207333e+00 3.01216443e+00 2.92522868e+00 2.85861522e+00 2.97462502e+00 3.05516549e+00 3.22886211e+00 3.45498576e+00 3.75453990e+00 4.14529014e+00 4.57105523e+00 5.07135174e+00 5.65421450e+00 6.32523256e+00 5.67411914e+00 5.06771066e+00 4.57769600e+00 4.19118346e+00 3.81365988e+00 3.53183937e+00 3.29191163e+00 3.15129819e+00 3.01157814e+00 2.98541883e+00 3.04324690e+00 3.15783133e+00 3.29568272e+00 3.58103087e+00 3.84921413e+00 4.22926443e+00 4.62852668e+00 5.16064032e+00 5.70983553e+00 6.45956920e+00 5.82608456e+00 5.29191855e+00 4.82521281e+00 4.38895139e+00 3.97211353e+00 3.70190147e+00 3.46196948e+00 3.26238455e+00 3.15709201e+00 3.15960549e+00 3.17384546e+00 3.26745073e+00 3.44749362e+00 3.62281281e+00 3.93348306e+00 4.28239253e+00 4.72438738e+00 5.21932309e+00 5.78749114e+00 6.73340314e+00 6.09056297e+00 5.47967370e+00 4.98468074e+00 4.55532543e+00 4.24606588e+00 3.89555919e+00 3.63209834e+00 3.44023664e+00 3.37652659e+00 3.28931748e+00 3.29801776e+00 3.43383423e+00 3.58219724e+00 3.76220890e+00 4.08079744e+00 4.39859309e+00 4.86989848e+00 5.32906341e+00 5.94088454e+00 6.91766267e+00 6.32270997e+00 5.71253203e+00 5.22410658e+00 4.77192585e+00 4.37359945e+00 4.09286163e+00 3.83650711e+00 3.61080532e+00 3.52203232e+00 3.50337788e+00 3.43295639e+00 3.57852975e+00 3.72734453e+00 3.93453774e+00 4.22411001e+00 4.58451673e+00 4.99657053e+00 5.49009897e+00 5.97558299e+00 7.17439887e+00 6.56981763e+00 5.96874112e+00 5.41242327e+00 4.98754164e+00 4.55158630e+00 4.28911444e+00 4.08698064e+00 3.85678948e+00 3.75927449e+00 3.62416607e+00 3.69881412e+00 3.78598427e+00 3.90878461e+00 4.09106159e+00 4.40766186e+00 4.73006364e+00 5.16005746e+00 5.55982398e+00 6.15508804e+00
        </DataArray>
      </PointData>
    </Piece>
  </ImageData>
</VTKFile>
