<?xml version="1.0"?>
<VTKFile type="ImageData" version="0.1" byte_order="LittleEndian">
  <ImageData WholeExtent="0 19 0 19 0 0" Origin="0 0 0" Spacing="1 1 1">
    <Piece Extent="0 19 0 19 0 0">
      <PointData Scalars="Loss">
        <DataArray type="Float64" Name="Loss" format="ascii">
          6.45926723e+00 5.83254359e+00 5.39894144e+00 4.96700283e+00 4.59735028e+00 4.29652893e+00 4.10769368e+00 3.95300457e+00 3.85184573e+00 3.86975999e+00 3.89653193e+00 4.08207297e+00 4.31777287e+00 4.53135871e+00 4.87054750e+00 5.30792350e+00 5.79049370e+00 6.31503743e+00 6.97575870e+00 7.75799515e+00 6.31733727e+00 5.78143360e+00 5.18533766e+00 4.79300570e+00 4.46746381e+00 4.09320308e+00 3.92879009e+00 3.69335566e+00 3.66796853e+00 3.65454527e+00 3.74445281e+00 3.85518160e+00 4.06365117e+00 4.35834261e+00 4.66433833e+00 5.12593147e+00 5.55684896e+00 6.12659523e+00 6.70024497e+00 7.42767339e+00 6.14843723e+00 5.59798571e+00 5.06857249e+00 4.65728912e+00 4.27384124e+00 3.95315708e+00 3.79068398e+00 3.59462139e+00 3.50866297e+00 3.47493867e+00 3.53738330e+00 3.62925773e+00 3.87371458e+00 4.08178509e+00 4.41911099e+00 4.87721339e+00 5.24646753e+00 5.87629740e+00 6.47162294e+00 7.14663275e+00 6.10662821e+00 5.51539756e+00 4.99299934e+00 4.51375917e+00 4.14194327e+00 3.83155748e+00 3.60965095e+00 3.43264605e+00 3.32268736e+00 3.30159613e+00 3.32067617e+00 3.51447883e+00 3.68369394e+00 3.89674383e+00 4.22562281e+00 4.67097796e+00 5.11398668e+00 5.65110762e+00 6.23585243e+00 6.93794669e+00 6.02162884e+00 5.43742306e+00 4.91313964e+00 4.44115114e+00 4.06720944e+00 3.80106079e+00 3.51975410e+00 3.31965054e+00 3.22188172e+00 3.19643495e+00 3.23073469e+00 3.32946938e+00 3.53283770e+00 3.78415012e+00 4.07655430e+00 4.50373493e+00 4.88969738e+00 5.45034024e+00 6.05147489e+00 6.72632690e+00 5.98813983e+00 5.40780612e+00 4.85719336e+00 4.39611079e+00 4.02675979e+00 3.66323045e+00 3.40771138e+00 3.22338266e+00 3.08978313e+00 3.07488865e+00 3.11701125e+00 3.20978538e+00 3.36264622e+00 3.61429436e+00 3.97407445e+00 4.35538504e+00 4.86142619e+00 5.28891033e+00 5.90456831e+00 6.54387763e+00 5.94077450e+00 5.36367660e+00 4.75663836e+00 4.32963128e+00 3.99095995e+00 3.59728054e+00 3.34566713e+00 3.18132012e+00 3.07726634e+00 2.97850295e+00 3.07719885e+00 3.16786408e+00 3.22870460e+00 3.52938437e+00 3.82487769e+00 4.22434448e+00 4.67495988e+00 5.18640186e+00 5.74033195e+00 6.43995415e+00 5.95515187e+00 5.31817525e+00 4.78928791e+00 4.31088447e+00 3.90599583e+00 3.60491404e+00 3.30686347e+00 3.05131902e+00 3.01286409e+00 2.94290525e+00 2.92351072e+00 2.99485663e+00 3.19426295e+00 3.43349592e+00 3.75993048e+00 4.08564904e+00 4.53817210e+00 5.04461911e+00 5.64305317e+00 6.25703416e+00 6.00271423e+00 5.36860123e+00 4.82939102e+00 4.31118323e+00 3.91533769e+00 3.59686724e+00 3.31240638e+00 3.07507935e+00 2.95336935e+00 2.96235878e+00 2.88555757e+00 2.93401298e+00 3.21183477e+00 3.34156784e+00 3.61754063e+00 3.99792442e+00 4.40466198e+00 4.91511727e+00 5.52157413e+00 6.18046237e+00 6.05098360e+00 5.39371760e+00 4.81928196e+00 4.33518234e+00 3.92995667e+00 3.62610745e+00 3.29263206e+00 3.07838189e+00 2.89017727e+00 2.70553042e+00 2.73581870e+00 2.95314178e+00 3.10530318e+00 3.26077698e+00 3.57867574e+00 3.91650417e+00 4.33484684e+00 4.79316519e+00 5.46024137e+00 6.06165784e+00 6.11879126e+00 5.44065351e+00 4.86517256e+00 4.38598527e+00 3.93343107e+00 3.61318625e+00 3.34854688e+00 3.11768454e+00 2.97683661e+00 2.74088728e+00 2.70301243e+00 2.88781550e+00 3.07809595e+00 3.30390753e+00 3.58360362e+00 3.88002235e+00 4.36952602e+00 4.85467815e+00 5.37806779e+00 6.03001720e+00 6.17493394e+00 5.50714219e+00 4.98933168e+00 4.45818156e+00 4.00002463e+00 3.67387475e+00 3.36777050e+00 3.15665461e+00 3.05941043e+00 2.89992520e+00 2.92625285e+00 2.98800111e+00 3.08108993e+00 3.26886671e+00 3.55986129e+00 3.87636505e+00 4.28706863e+00 4.82283999e+00 5.33450179e+00 6.02102375e+00 6.31893912e+00 5.61178792e+00 5.03617053e+00 4.59219186e+00 4.12351231e+00 3.71399445e+00 3.40676009e+00 3.21412470e+00 2.98603247e+00 2.92697220e+00 2.92998352e+00 3.01988351e+00 3.13665904e+00 3.32063921e+00 3.57778996e+00 3.92683229e+00 4.31560102e+00 4.76954292e+00 5.30031113e+00 5.98818750e+00 6.41349680e+00 5.75246175e+00 5.18458925e+00 4.62331974e+00 4.23739496e+00 3.84771647e+00 3.47707922e+00 3.30394605e+00 3.13375655e+00 2.98223098e+00 3.03181732e+00 3.12942196e+00 3.17298871e+00 3.34386652e+00 3.59367663e+00 3.91240754e+00 4.33499191e+00 4.79860957e+00 5.34851712e+00 5.97072219e+00 6.51572768e+00 5.85232537e+00 5.26612948e+00 4.74734057e+00 4.36809844e+00 4.00149530e+00 3.59481208e+00 3.41683389e+00 3.25254880e+00 3.08413920e+00 3.13023277e+00 3.13268147e+00 3.25043147e+00 3.38398715e+00 3.67736348e+00 3.95358712e+00 4.33622675e+00 4.88441495e+00 5.40868236e+00 6.01153691e+00 6.71854583e+00 6.07093771e+00 5.49098566e+00 4.88789167e+00 4.50734362e+00 4.14240471e+00 3.76638335e+00 3.54655414e+00 3.31496040e+00 3.18525134e+00 3.23103802e+00 3.24850166e+00 3.34994179e+00 3.50794537e+00 3.73507270e+00 4.06881672e+00 4.46787179e+00 4.92117309e+00 5.46996883e+00 6.02967519e+00 6.97227343e+00 6.25609979e+00 5.64978285e+00 5.12381537e+00 4.62560367e+00 4.22123270e+00 3.90693877e+00 3.64841093e+00 3.51410984e+00 3.32609791e+00 3.38425958e+00 3.34121179e+00 3.47731071e+00 3.66140814e+00 3.83946193e+00 4.10610786e+00 4.57437805e+00 4.96287330e+00 5.51350947e+00 6.15022538e+00 7.17425562e+00 6.49299992e+00 5.87213707e+00 5.32995294e+00 4.82634357e+00 4.43311955e+00 4.04633976e+00 3.84762808e+00 3.62244509e+00 3.55649858e+00 3.52437880e+00 3.45884622e+00 3.59099121e+00 3.71188387e+00 4.01838194e+00 4.30660464e+00 4.60325140e+00 5.08757380e+00 5.55487819e+00 6.22647107e+00 7.39898254e+00 6.71419227e+00 6.13696222e+00 5.57167579e+00 4.99717793e+00 4.64605559e+00 4.32851854e+00 4.07852779e+00 3.81345215e+00 3.72435905e+00 3.66256452e+00 3.71280412e+00 3.76966367e+00 3.92211855e+00 4.11881215e+00 4.41638727e+00 4.81355646e+00 5.24965810e+00 5.75059274e+00 6.31890041e+00 7.60250724e+00 6.99961176e+00 6.36942995e+00 5.80450219e+00 5.28993209e+00 4.89277947e+00 4.57576398e+00 4.22602421e+00 4.07368448e+00 3.90728853e+00 3.87690906e+00 3.88282018e+00 3.95588577e+00 4.12310063e+00 4.30454414e+00 4.61982801e+00 4.97555371e+00 5.44044096e+00 5.85081408e+00 6.42867147e+00
        </DataArray>
      </PointData>
    </Piece>
  </ImageData>
</VTKFile>
