<?xml version="1.0"?>
<VTKFile type="ImageData" version="0.1" byte_order="LittleEndian">
  <ImageData WholeExtent="0 19 0 19 0 0" Origin="0 0 0" Spacing="1 1 1">
    <Piece Extent="0 19 0 19 0 0">
      <PointData Scalars="Loss">
        <DataArray type="Float64" Name="Loss" format="ascii">
          7.33803518e+00 6.68770576e+00 6.19700782e+00 5.73583605e+00 5.42287367e+00 5.06853501e+00 4.89151410e+00 4.82502536e+00 4.70645793e+00 4.81191834e+00 4.92254982e+00 5.15102344e+00 5.41341096e+00 5.82298161e+00 6.29568230e+00 6.77336100e+00 7.44003416e+00 8.09775421e+00 8.91250217e+00 9.87816037e+00 7.25586112e+00 6.60613489e+00 5.92643143e+00 5.48825015e+00 5.14851476e+00 4.87533295e+00 4.69821561e+00 4.53598585e+00 4.48107511e+00 4.52321162e+00 4.62824448e+00 4.82369944e+00 5.11648339e+00 5.55203288e+00 5.97302979e+00 6.45368610e+00 7.03930275e+00 7.73787622e+00 8.51404493e+00 9.37580313e+00 7.08712784e+00 6.47645787e+00 5.88486637e+00 5.35386275e+00 5.00388471e+00 4.70438155e+00 4.45740989e+00 4.30310887e+00 4.25140878e+00 4.31080911e+00 4.34419741e+00 4.49235400e+00 4.84613077e+00 5.14551362e+00 5.60046246e+00 6.08230746e+00 6.77617137e+00 7.39786565e+00 8.21898791e+00 9.01977306e+00 6.95277702e+00 6.29398552e+00 5.72733112e+00 5.27249546e+00 4.81923535e+00 4.55493658e+00 4.27088837e+00 4.11163420e+00 4.10819755e+00 4.10595764e+00 4.16718764e+00 4.39288222e+00 4.63889649e+00 4.85794870e+00 5.32273931e+00 5.80403289e+00 6.41752493e+00 7.03314052e+00 7.87460684e+00 8.67725836e+00 6.94360915e+00 6.31283556e+00 5.66867002e+00 5.16707144e+00 4.77251239e+00 4.44747977e+00 4.16810998e+00 3.98746847e+00 3.90708300e+00 3.92446176e+00 3.95496220e+00 4.08833270e+00 4.31183162e+00 4.73488780e+00 5.13799845e+00 5.58872749e+00 6.12888862e+00 6.81196570e+00 7.51969195e+00 8.37252742e+00 6.87399520e+00 6.23818423e+00 5.62524095e+00 5.04857503e+00 4.66974944e+00 4.34098778e+00 4.09560790e+00 3.82535979e+00 3.77560875e+00 3.66789833e+00 3.82994963e+00 3.95711910e+00 4.09157805e+00 4.50575478e+00 4.85788804e+00 5.32416141e+00 5.84780232e+00 6.50999011e+00 7.28124671e+00 8.06146349e+00 6.96043908e+00 6.22865647e+00 5.64204580e+00 5.05317116e+00 4.67152315e+00 4.31254561e+00 3.94462117e+00 3.73234957e+00 3.70863477e+00 3.60094038e+00 3.69284295e+00 3.77662360e+00 4.00037702e+00 4.33896781e+00 4.71712912e+00 5.18598434e+00 5.67908542e+00 6.29682578e+00 6.98905870e+00 7.84365996e+00 6.97693524e+00 6.24483755e+00 5.58623156e+00 5.02316594e+00 4.60965509e+00 4.18868448e+00 3.94247253e+00 3.71980790e+00 3.55287432e+00 3.58726831e+00 3.61737564e+00 3.72526474e+00 3.90204682e+00 4.15923790e+00 4.54492306e+00 5.00581792e+00 5.53946466e+00 6.12277135e+00 6.86204331e+00 7.57338748e+00 6.96890949e+00 6.25871731e+00 5.64363486e+00 5.05308869e+00 4.65764946e+00 4.21424683e+00 3.86969474e+00 3.67700626e+00 3.55113369e+00 3.49576242e+00 3.53048725e+00 3.65680057e+00 3.79600377e+00 4.06347754e+00 4.47408436e+00 4.85606316e+00 5.39650471e+00 5.98952745e+00 6.66271615e+00 7.44353533e+00 7.14478185e+00 6.41082802e+00 5.71994998e+00 5.09572500e+00 4.65963686e+00 4.27388573e+00 3.88426339e+00 3.69184106e+00 3.53532116e+00 3.16472150e+00 3.17647902e+00 3.52641239e+00 3.73036916e+00 3.97199858e+00 4.35020692e+00 4.71304950e+00 5.30372799e+00 5.88761620e+00 6.51084354e+00 7.21460767e+00 7.31195132e+00 6.52016957e+00 5.77565559e+00 5.25436469e+00 4.71474865e+00 4.34728608e+00 3.99524743e+00 3.78278315e+00 3.58825737e+00 3.19268778e+00 3.19695817e+00 3.50318513e+00 3.70769907e+00 3.96438225e+00 4.27100446e+00 4.69263635e+00 5.13893719e+00 5.72778684e+00 6.39867089e+00 7.14860838e+00 7.40407633e+00 6.62553714e+00 6.05406573e+00 5.36790419e+00 4.84664119e+00 4.46644061e+00 4.04386894e+00 3.82063565e+00 3.59298709e+00 3.48216595e+00 3.54222943e+00 3.53061852e+00 3.71201913e+00 3.91400326e+00 4.31453960e+00 4.65728407e+00 5.09569695e+00 5.70511995e+00 6.31282085e+00 6.97522763e+00 7.63365845e+00 6.78650392e+00 6.11775135e+00 5.55824282e+00 4.98203748e+00 4.50637529e+00 4.15002004e+00 3.94096511e+00 3.67270679e+00 3.52446664e+00 3.56643531e+00 3.58384933e+00 3.66015295e+00 3.89459488e+00 4.25842420e+00 4.60021912e+00 5.03628577e+00 5.65855492e+00 6.21181288e+00 6.92413546e+00 7.75874794e+00 7.00827329e+00 6.33931761e+00 5.71746298e+00 5.15780078e+00 4.62997346e+00 4.27236485e+00 3.99138358e+00 3.75571323e+00 3.71017949e+00 3.67064161e+00 3.68418062e+00 3.79000488e+00 3.98710846e+00 4.21874668e+00 4.66272572e+00 5.07794294e+00 5.59562196e+00 6.20247611e+00 6.89305285e+00 8.02289029e+00 7.36203057e+00 6.50957955e+00 5.96725788e+00 5.33218134e+00 4.87280196e+00 4.50145756e+00 4.21123423e+00 4.00556453e+00 3.80603756e+00 3.71126643e+00 3.75441108e+00 3.89763879e+00 4.03670110e+00 4.30091935e+00 4.64242168e+00 5.12525208e+00 5.64011237e+00 6.22183172e+00 6.86575409e+00 8.33326418e+00 7.55217175e+00 6.83805056e+00 6.08192538e+00 5.57186579e+00 5.09266354e+00 4.73150602e+00 4.33826771e+00 4.14128408e+00 3.95639147e+00 3.92250117e+00 3.89642637e+00 3.99138615e+00 4.16606497e+00 4.45048104e+00 4.77045066e+00 5.18601518e+00 5.67538903e+00 6.28440188e+00 6.95152704e+00 8.70443873e+00 7.86126742e+00 7.09089846e+00 6.46793846e+00 5.84391954e+00 5.36200978e+00 4.95700227e+00 4.57585091e+00 4.38745643e+00 4.12999130e+00 4.08438264e+00 4.06631459e+00 4.21110576e+00 4.24634340e+00 4.53184212e+00 4.90034675e+00 5.28023227e+00 5.76515209e+00 6.34618694e+00 6.96235093e+00 9.08217121e+00 8.14739287e+00 7.44701233e+00 6.73752115e+00 6.13963670e+00 5.57371672e+00 5.17373046e+00 4.80912634e+00 4.62745589e+00 4.39160064e+00 4.28471286e+00 4.27047046e+00 4.28191099e+00 4.44907496e+00 4.70829162e+00 4.94549594e+00 5.38319234e+00 5.85629154e+00 6.38685269e+00 7.03428226e+00 9.35499241e+00 8.53638766e+00 7.76226667e+00 7.02822155e+00 6.45957079e+00 5.88594783e+00 5.48826135e+00 5.12861670e+00 4.90623349e+00 4.59062013e+00 4.57471782e+00 4.45272251e+00 4.54665974e+00 4.65735309e+00 4.86413622e+00 5.19307879e+00 5.49392837e+00 5.96912534e+00 6.51616065e+00 7.21285317e+00 9.85579041e+00 8.95336989e+00 8.21202879e+00 7.46899326e+00 6.86584779e+00 6.31307513e+00 5.78072794e+00 5.41693280e+00 5.09152067e+00 4.88028608e+00 4.78780291e+00 4.82404630e+00 4.81613549e+00 4.89344296e+00 5.11522567e+00 5.35228661e+00 5.74931350e+00 6.19795115e+00 6.76261649e+00 7.29352348e+00
        </DataArray>
      </PointData>
    </Piece>
  </ImageData>
</VTKFile>
