<?xml version="1.0"?>
<VTKFile type="ImageData" version="0.1" byte_order="LittleEndian">
  <ImageData WholeExtent="0 19 0 19 0 0" Origin="0 0 0" Spacing="1 1 1">
    <Piece Extent="0 19 0 19 0 0">
      <PointData Scalars="Loss">
        <DataArray type="Float64" Name="Loss" format="ascii">
          3.30036279e+00 3.02973099e+00 2.81571809e+00 2.61236032e+00 2.46674752e+00 2.32813944e+00 2.25365668e+00 2.17883370e+00 2.17509130e+00 2.23433479e+00 2.29762138e+00 2.40769548e+00 2.56402060e+00 2.72577498e+00 2.94087525e+00 3.21575546e+00 3.51914256e+00 3.86372867e+00 4.21129744e+00 4.65831870e+00 3.28855919e+00 2.97417805e+00 2.74259875e+00 2.54041679e+00 2.33605096e+00 2.24928573e+00 2.14791485e+00 2.07046822e+00 2.07263163e+00 2.09679000e+00 2.14889532e+00 2.27520100e+00 2.41945169e+00 2.54254632e+00 2.79255817e+00 3.05221167e+00 3.33041017e+00 3.70753528e+00 4.02218960e+00 4.44162128e+00 3.24229446e+00 2.94166789e+00 2.69560794e+00 2.45884867e+00 2.29644508e+00 2.15111818e+00 2.06315202e+00 1.96603262e+00 1.96564582e+00 1.98023457e+00 2.05127163e+00 2.13101702e+00 2.27981801e+00 2.41743330e+00 2.61028820e+00 2.89448984e+00 3.17259867e+00 3.54376202e+00 3.87412660e+00 4.26368356e+00 3.20238248e+00 2.91364269e+00 2.65830069e+00 2.39891762e+00 2.23353478e+00 2.10071569e+00 1.98089400e+00 1.90527253e+00 1.93353015e+00 1.88057911e+00 1.93328608e+00 2.02835855e+00 2.16766447e+00 2.29773195e+00 2.54114606e+00 2.74562561e+00 3.02497881e+00 3.34215742e+00 3.70567727e+00 4.12460993e+00 3.17706849e+00 2.91003281e+00 2.61399579e+00 2.39351545e+00 2.18278428e+00 2.03781653e+00 1.93717453e+00 1.84155561e+00 1.81637542e+00 1.83343578e+00 1.85003381e+00 1.94399223e+00 2.04789598e+00 2.22159990e+00 2.42649321e+00 2.64029119e+00 2.88944201e+00 3.22403159e+00 3.57799575e+00 3.97954468e+00 3.17715143e+00 2.88194250e+00 2.59294968e+00 2.35509101e+00 2.17011528e+00 1.99845841e+00 1.88926914e+00 1.80656318e+00 1.75434727e+00 1.74854973e+00 1.80141804e+00 1.85650292e+00 1.95257266e+00 2.12791976e+00 2.29315734e+00 2.56078470e+00 2.79480714e+00 3.07672599e+00 3.44539846e+00 3.81711031e+00 3.21757945e+00 2.89491877e+00 2.63279847e+00 2.35562521e+00 2.14364700e+00 1.97462438e+00 1.85538159e+00 1.78485407e+00 1.72746233e+00 1.71953300e+00 1.71484810e+00 1.76492891e+00 1.88986111e+00 2.04504888e+00 2.17760361e+00 2.40182936e+00 2.66518215e+00 3.03433202e+00 3.29183931e+00 3.69222206e+00 3.26328717e+00 2.89536932e+00 2.61144054e+00 2.37875870e+00 2.13178058e+00 2.00053874e+00 1.82378221e+00 1.75260462e+00 1.67215656e+00 1.67940072e+00 1.66687561e+00 1.74222053e+00 1.81166035e+00 1.95053155e+00 2.14134015e+00 2.34583541e+00 2.59110314e+00 2.86657496e+00 3.22920896e+00 3.56345784e+00 3.25143634e+00 2.96295690e+00 2.64252662e+00 2.39311914e+00 2.15729083e+00 1.96877599e+00 1.83803147e+00 1.72170634e+00 1.66548104e+00 1.63399680e+00 1.63978147e+00 1.73398113e+00 1.79034807e+00 1.91695303e+00 2.08711865e+00 2.28817351e+00 2.53568528e+00 2.80937813e+00 3.14010490e+00 3.44759675e+00 3.34090977e+00 3.01669516e+00 2.67513251e+00 2.42339565e+00 2.18945474e+00 2.01359797e+00 1.86576874e+00 1.76190957e+00 1.66834251e+00 1.82733035e+00 1.84124555e+00 1.68465369e+00 1.74833972e+00 1.88394107e+00 2.02809221e+00 2.20274252e+00 2.47966278e+00 2.73614658e+00 3.06366604e+00 3.40245732e+00 3.38857377e+00 3.09902690e+00 2.70558549e+00 2.46823871e+00 2.18135220e+00 2.01441617e+00 1.90283774e+00 1.74542531e+00 1.65402530e+00 1.87324727e+00 1.86342574e+00 1.68244855e+00 1.71584560e+00 1.86270467e+00 2.00441620e+00 2.14719430e+00 2.42892945e+00 2.65129962e+00 2.97820313e+00 3.35680966e+00 3.49266790e+00 3.11412977e+00 2.80116156e+00 2.51911648e+00 2.28861534e+00 2.06622672e+00 1.92557927e+00 1.78090285e+00 1.69658902e+00 1.65773819e+00 1.64923366e+00 1.69061389e+00 1.76737696e+00 1.85543475e+00 1.97374635e+00 2.15211724e+00 2.38309681e+00 2.64409040e+00 2.94982568e+00 3.27034036e+00 3.60540135e+00 3.22083383e+00 2.90813837e+00 2.61802439e+00 2.35320581e+00 2.15042606e+00 1.97721819e+00 1.84224611e+00 1.73974624e+00 1.68875932e+00 1.68392439e+00 1.68151454e+00 1.75925256e+00 1.87164894e+00 1.98079304e+00 2.17315245e+00 2.37826441e+00 2.60745774e+00 2.90481392e+00 3.23445916e+00 3.68870627e+00 3.32376563e+00 2.97831572e+00 2.69735674e+00 2.46253407e+00 2.21852186e+00 2.03117024e+00 1.89954089e+00 1.81869923e+00 1.72374094e+00 1.71275659e+00 1.72459211e+00 1.77281887e+00 1.87042680e+00 1.98319986e+00 2.16007225e+00 2.34417935e+00 2.63128296e+00 2.87874414e+00 3.21409466e+00 3.78972228e+00 3.42648443e+00 3.11273668e+00 2.78771638e+00 2.55037919e+00 2.28026767e+00 2.12409299e+00 1.99531577e+00 1.85030156e+00 1.77465149e+00 1.76169548e+00 1.77258015e+00 1.80266158e+00 1.86311878e+00 1.99394942e+00 2.15933743e+00 2.35646240e+00 2.60564011e+00 2.86926901e+00 3.17878272e+00 3.96598615e+00 3.58432355e+00 3.21679348e+00 2.90467591e+00 2.62814453e+00 2.41906821e+00 2.21372706e+00 2.04584646e+00 1.92238326e+00 1.82657445e+00 1.78613301e+00 1.79571267e+00 1.86188911e+00 1.91482509e+00 2.04371071e+00 2.19808335e+00 2.38353424e+00 2.59241056e+00 2.88342574e+00 3.19060690e+00 4.10338978e+00 3.71831678e+00 3.33620262e+00 3.03054669e+00 2.76688174e+00 2.53984535e+00 2.32862738e+00 2.15987905e+00 2.04734969e+00 1.93585041e+00 1.88116304e+00 1.86728873e+00 1.89104018e+00 1.98990184e+00 2.07349412e+00 2.22620142e+00 2.43797108e+00 2.63615888e+00 2.92159077e+00 3.18593363e+00 4.26104622e+00 3.84284502e+00 3.48580703e+00 3.19300807e+00 2.91468267e+00 2.64724110e+00 2.44676457e+00 2.29277284e+00 2.09611863e+00 2.07069155e+00 2.00529755e+00 1.96692203e+00 2.01252834e+00 2.06115599e+00 2.16392743e+00 2.29725118e+00 2.44284840e+00 2.68005587e+00 2.92372188e+00 3.21961348e+00 4.44169689e+00 4.06753147e+00 3.67412369e+00 3.33999695e+00 3.04239671e+00 2.80136125e+00 2.56683174e+00 2.39342592e+00 2.27115543e+00 2.17947273e+00 2.09660933e+00 2.05796352e+00 2.08856255e+00 2.15619927e+00 2.22106246e+00 2.34447930e+00 2.52762314e+00 2.72004603e+00 2.97560848e+00 3.27740737e+00 4.66985066e+00 4.26170555e+00 3.85869583e+00 3.53954439e+00 3.19300887e+00 2.95027520e+00 2.71347193e+00 2.56983732e+00 2.42511139e+00 2.28205641e+00 2.21969178e+00 2.22622867e+00 2.20582580e+00 2.27226647e+00 2.32455254e+00 2.42874167e+00 2.61145862e+00 2.81540053e+00 3.05661512e+00 3.33305789e+00
        </DataArray>
      </PointData>
    </Piece>
  </ImageData>
</VTKFile>
