<?xml version="1.0"?>
<VTKFile type="ImageData" version="0.1" byte_order="LittleEndian">
  <ImageData WholeExtent="0 19 0 19 0 0" Origin="0 0 0" Spacing="1 1 1">
    <Piece Extent="0 19 0 19 0 0">
      <PointData Scalars="Loss">
        <DataArray type="Float64" Name="Loss" format="ascii">
          3.82685451e+00 3.46255753e+00 3.09297389e+00 2.89341524e+00 2.70534506e+00 2.53138023e+00 2.50971186e+00 2.50571180e+00 2.51573076e+00 2.62670540e+00 2.81872743e+00 3.06673742e+00 3.35901840e+00 3.70539954e+00 4.07911766e+00 4.53796745e+00 5.06660527e+00 5.66554845e+00 6.34729787e+00 7.04332597e+00 3.90912219e+00 3.49583186e+00 3.24012478e+00 2.89180113e+00 2.72584673e+00 2.57188144e+00 2.47784467e+00 2.50783382e+00 2.47585297e+00 2.64583782e+00 2.73538303e+00 2.99297342e+00 3.22862248e+00 3.56262721e+00 3.87356473e+00 4.36405918e+00 4.87167091e+00 5.47241171e+00 6.13419184e+00 6.79890612e+00 4.02155597e+00 3.58386829e+00 3.32308199e+00 3.00230233e+00 2.75693285e+00 2.61926840e+00 2.51183337e+00 2.43824231e+00 2.47967769e+00 2.55446322e+00 2.70394839e+00 2.89390725e+00 3.13239453e+00 3.38675752e+00 3.81030622e+00 4.23599379e+00 4.73792726e+00 5.23876344e+00 5.91188697e+00 6.59959868e+00 4.10897578e+00 3.77638375e+00 3.40761599e+00 3.04129764e+00 2.84796247e+00 2.64974996e+00 2.57712491e+00 2.49208913e+00 2.53016935e+00 2.48259018e+00 2.66884409e+00 2.82697758e+00 3.01240620e+00 3.32982961e+00 3.68767237e+00 4.07245764e+00 4.52766761e+00 5.06114926e+00 5.67130315e+00 6.30250418e+00 4.30496588e+00 3.81307549e+00 3.41942259e+00 3.09401608e+00 2.88052949e+00 2.66056022e+00 2.57846899e+00 2.50234802e+00 2.45329156e+00 2.54493294e+00 2.63863319e+00 2.73797682e+00 2.96022581e+00 3.22100981e+00 3.52822521e+00 3.90582362e+00 4.38687030e+00 4.93134717e+00 5.42893301e+00 6.07716878e+00 4.42696358e+00 3.91786819e+00 3.54285249e+00 3.22024826e+00 2.96293829e+00 2.73017016e+00 2.62287346e+00 2.49800572e+00 2.50242690e+00 2.47233193e+00 2.52232716e+00 2.70270461e+00 2.91826880e+00 3.15297492e+00 3.44619931e+00 3.80355069e+00 4.19684618e+00 4.70496082e+00 5.30964368e+00 5.85771872e+00 4.50845127e+00 4.02606414e+00 3.64024581e+00 3.32037681e+00 2.99550251e+00 2.79072236e+00 2.61331778e+00 2.54329357e+00 2.47256083e+00 2.46363851e+00 2.47383190e+00 2.61525576e+00 2.81993152e+00 3.02696359e+00 3.33283437e+00 3.68440737e+00 4.03586714e+00 4.57124715e+00 5.10152090e+00 5.65247118e+00 4.72429994e+00 4.21999747e+00 3.76765759e+00 3.42918432e+00 3.10467721e+00 2.80695215e+00 2.67864928e+00 2.55644342e+00 2.43172602e+00 2.52034199e+00 2.49401058e+00 2.60132299e+00 2.76480986e+00 2.94303008e+00 3.25842292e+00 3.59754185e+00 3.95479955e+00 4.41325328e+00 4.88481468e+00 5.47043312e+00 4.81658999e+00 4.29063815e+00 3.83225410e+00 3.48420958e+00 3.21532097e+00 2.91535458e+00 2.73530979e+00 2.53707354e+00 2.45840595e+00 2.43238816e+00 2.51333134e+00 2.55120794e+00 2.71410879e+00 2.91286869e+00 3.19171874e+00 3.43398136e+00 3.81477181e+00 4.25591957e+00 4.74634964e+00 5.26067090e+00 5.01236144e+00 4.45250672e+00 3.98601288e+00 3.62920480e+00 3.28858638e+00 3.01187801e+00 2.81361202e+00 2.58114468e+00 2.52258995e+00 2.41035489e+00 2.40359492e+00 2.54693912e+00 2.59849516e+00 2.80218143e+00 3.07024852e+00 3.34328653e+00 3.70633650e+00 4.10680228e+00 4.56362790e+00 5.11572852e+00 5.15773719e+00 4.60919687e+00 4.12088397e+00 3.73321616e+00 3.34542701e+00 3.07333187e+00 2.79345695e+00 2.65978157e+00 2.52987905e+00 2.39833863e+00 2.43773451e+00 2.48975436e+00 2.56533963e+00 2.71799948e+00 2.94851490e+00 3.24138640e+00 3.57412958e+00 3.96746241e+00 4.40148028e+00 4.93398435e+00 5.31673148e+00 4.73158868e+00 4.29394564e+00 3.82940141e+00 3.47743784e+00 3.17006556e+00 2.88174005e+00 2.66159236e+00 2.54214766e+00 2.46203714e+00 2.41160972e+00 2.47590944e+00 2.58005683e+00 2.73078879e+00 2.93807287e+00 3.15260580e+00 3.44117400e+00 3.80206672e+00 4.26849439e+00 4.69911809e+00 5.46115102e+00 4.92267345e+00 4.34774552e+00 3.97485520e+00 3.56862089e+00 3.23189555e+00 2.96824716e+00 2.74378884e+00 2.60865698e+00 2.48483959e+00 2.44786130e+00 2.47029669e+00 2.52507309e+00 2.63791897e+00 2.81911920e+00 3.03568987e+00 3.30886773e+00 3.69142179e+00 4.09548223e+00 4.61889729e+00 5.68055296e+00 5.06764805e+00 4.54061253e+00 4.12081159e+00 3.64385642e+00 3.36113504e+00 3.10796401e+00 2.79525207e+00 2.61710225e+00 2.52440891e+00 2.44791559e+00 2.42371668e+00 2.51701234e+00 2.61837632e+00 2.77325664e+00 2.98726242e+00 3.26040437e+00 3.66364173e+00 3.99619421e+00 4.42662509e+00 5.82529334e+00 5.23052791e+00 4.70416950e+00 4.18632404e+00 3.81989821e+00 3.35822499e+00 3.12225996e+00 2.88766823e+00 2.66751996e+00 2.50819595e+00 2.49593959e+00 2.46414101e+00 2.50003930e+00 2.56889593e+00 2.71680929e+00 2.94496411e+00 3.17725359e+00 3.49638046e+00 3.89485117e+00 4.24434274e+00 6.09897595e+00 5.39621374e+00 4.84493179e+00 4.35382343e+00 3.85662520e+00 3.50623292e+00 3.17874205e+00 2.93841561e+00 2.75076381e+00 2.61090533e+00 2.48907906e+00 2.50043667e+00 2.47611110e+00 2.55761580e+00 2.67064481e+00 2.82067760e+00 3.09406340e+00 3.37084941e+00 3.75062882e+00 4.17183043e+00 6.22471875e+00 5.58050447e+00 4.98939808e+00 4.48264167e+00 4.02567493e+00 3.61031474e+00 3.33338174e+00 2.97356720e+00 2.76827806e+00 2.65594073e+00 2.59347913e+00 2.49803195e+00 2.50156464e+00 2.52656511e+00 2.64604682e+00 2.85738247e+00 3.00339871e+00 3.31662741e+00 3.61184154e+00 3.96566001e+00 6.44563725e+00 5.75233954e+00 5.18160247e+00 4.69153778e+00 4.18160949e+00 3.74806954e+00 3.39773683e+00 3.10631447e+00 2.80872054e+00 2.67580081e+00 2.55949867e+00 2.47743399e+00 2.47056450e+00 2.53872616e+00 2.57034710e+00 2.75739238e+00 2.94142809e+00 3.23008771e+00 3.57387870e+00 3.85697349e+00 6.66739657e+00 5.96765293e+00 5.38698783e+00 4.77779568e+00 4.29643925e+00 3.89342207e+00 3.51536460e+00 3.16439659e+00 2.97375478e+00 2.73405114e+00 2.57443711e+00 2.49243206e+00 2.45792558e+00 2.52151501e+00 2.52501231e+00 2.67819466e+00 2.92308395e+00 3.10508142e+00 3.40562740e+00 3.76512751e+00 6.90260865e+00 6.15441625e+00 5.56089314e+00 4.98234334e+00 4.43262357e+00 4.02288281e+00 3.61971891e+00 3.29998561e+00 3.00539562e+00 2.77444300e+00 2.61299002e+00 2.55607022e+00 2.49914261e+00 2.49298665e+00 2.50086597e+00 2.63539056e+00 2.81558159e+00 3.06595335e+00 3.33615493e+00 3.70216279e+00
        </DataArray>
      </PointData>
    </Piece>
  </ImageData>
</VTKFile>
