<?xml version="1.0"?>
<VTKFile type="ImageData" version="0.1" byte_order="LittleEndian">
  <ImageData WholeExtent="0 19 0 19 0 0" Origin="0 0 0" Spacing="1 1 1">
    <Piece Extent="0 19 0 19 0 0">
      <PointData Scalars="Loss">
        <DataArray type="Float64" Name="Loss" format="ascii">
          6.38086753e+00 5.88767623e+00 5.41915728e+00 5.06683735e+00 4.74058411e+00 4.51556888e+00 4.29942568e+00 4.17698236e+00 4.13868480e+00 4.13479919e+00 4.27435216e+00 4.49128480e+00 4.74743079e+00 5.10693598e+00 5.52607483e+00 5.96749813e+00 6.57124400e+00 7.17509673e+00 7.87296408e+00 8.67348213e+00 6.32345414e+00 5.76372726e+00 5.31221040e+00 4.87488924e+00 4.57215204e+00 4.33032733e+00 4.16421384e+00 4.01212495e+00 3.94428903e+00 3.90014669e+00 4.05840662e+00 4.23834965e+00 4.42609824e+00 4.87236381e+00 5.14241076e+00 5.65354804e+00 6.19855120e+00 6.82052104e+00 7.55882605e+00 8.23699650e+00 6.17648899e+00 5.68643328e+00 5.12471410e+00 4.70103011e+00 4.40757858e+00 4.13327488e+00 3.91952179e+00 3.81937893e+00 3.74629808e+00 3.78339137e+00 3.82815981e+00 4.03605429e+00 4.23296549e+00 4.52525747e+00 4.93781729e+00 5.38028627e+00 5.96471595e+00 6.47617786e+00 7.13245828e+00 7.91176874e+00 6.15557161e+00 5.57071293e+00 5.02434894e+00 4.65149798e+00 4.26667000e+00 3.95733233e+00 3.82567107e+00 3.64114865e+00 3.53589323e+00 3.61509393e+00 3.60167359e+00 3.77005555e+00 4.01033537e+00 4.32314577e+00 4.72908184e+00 5.15430092e+00 5.66431238e+00 6.26510299e+00 6.91301923e+00 7.59186915e+00 6.14833753e+00 5.58114460e+00 4.96092780e+00 4.56987007e+00 4.17654897e+00 3.89932812e+00 3.64067195e+00 3.55239744e+00 3.48210391e+00 3.45904638e+00 3.49498402e+00 3.61307905e+00 3.79960367e+00 4.08025331e+00 4.46539883e+00 4.88578516e+00 5.40594385e+00 6.03205841e+00 6.63775184e+00 7.38746508e+00 6.14970339e+00 5.49666210e+00 4.96825398e+00 4.48055838e+00 4.11515588e+00 3.73124456e+00 3.54367227e+00 3.38031642e+00 3.34960319e+00 3.30636037e+00 3.34725087e+00 3.47565938e+00 3.68873464e+00 4.04192672e+00 4.32021581e+00 4.72564145e+00 5.24442828e+00 5.73018817e+00 6.45356071e+00 7.11311137e+00 6.10476617e+00 5.51168268e+00 4.97701469e+00 4.53624601e+00 4.07339334e+00 3.71250942e+00 3.47725818e+00 3.33880414e+00 3.28127951e+00 3.21384406e+00 3.20142202e+00 3.34614430e+00 3.52819619e+00 3.87137125e+00 4.15918285e+00 4.51453770e+00 5.05784555e+00 5.58825911e+00 6.21026211e+00 6.91485562e+00 6.14907713e+00 5.49784720e+00 4.97784061e+00 4.46725296e+00 4.07994315e+00 3.72785404e+00 3.45204513e+00 3.35681619e+00 3.16069461e+00 3.18774731e+00 3.15054004e+00 3.28356709e+00 3.40492774e+00 3.67431745e+00 3.95600073e+00 4.39520135e+00 4.88847864e+00 5.37122447e+00 5.98605327e+00 6.68124363e+00 6.21602983e+00 5.53112274e+00 5.00432017e+00 4.54621377e+00 4.08848190e+00 3.70748164e+00 3.43976204e+00 3.27151428e+00 3.14717040e+00 3.08644564e+00 3.09376695e+00 3.21813678e+00 3.27783009e+00 3.55570276e+00 3.87611258e+00 4.29502969e+00 4.73364309e+00 5.23267327e+00 5.87052675e+00 6.52298479e+00 6.32357501e+00 5.64066420e+00 5.05903955e+00 4.59856023e+00 4.11779719e+00 3.81329748e+00 3.52609783e+00 3.27309480e+00 3.16990788e+00 2.80576211e+00 2.85521974e+00 3.13747788e+00 3.27494156e+00 3.50467689e+00 3.82295093e+00 4.18431881e+00 4.63112785e+00 5.18347450e+00 5.72378405e+00 6.36211995e+00 6.39651473e+00 5.71105082e+00 5.09676603e+00 4.60022441e+00 4.15124281e+00 3.77970060e+00 3.52016736e+00 3.29830738e+00 3.14186822e+00 2.89125967e+00 2.81906673e+00 3.15954119e+00 3.24229913e+00 3.47233206e+00 3.73664426e+00 4.16823466e+00 4.55055679e+00 5.11370712e+00 5.58419964e+00 6.28176402e+00 6.53265848e+00 5.85530816e+00 5.22888493e+00 4.72880770e+00 4.27790827e+00 3.83533658e+00 3.55886817e+00 3.36265215e+00 3.17493350e+00 3.06984866e+00 3.05485969e+00 3.06196714e+00 3.23873423e+00 3.43007727e+00 3.73586523e+00 4.04758842e+00 4.48722130e+00 4.96730832e+00 5.53072788e+00 6.16684649e+00 6.74107077e+00 6.04212870e+00 5.38015730e+00 4.91512407e+00 4.34305691e+00 4.01816066e+00 3.63449804e+00 3.46479689e+00 3.24575996e+00 3.17103116e+00 3.12401319e+00 3.14720001e+00 3.27585339e+00 3.46597724e+00 3.72167385e+00 4.05039419e+00 4.47669026e+00 4.95973374e+00 5.50246693e+00 6.16656278e+00 6.91034936e+00 6.17558409e+00 5.58688483e+00 5.01551875e+00 4.52308121e+00 4.13260038e+00 3.81952873e+00 3.49047570e+00 3.34137518e+00 3.25108275e+00 3.17842366e+00 3.24368173e+00 3.33739106e+00 3.53039606e+00 3.75147429e+00 4.11775808e+00 4.44447742e+00 4.95635463e+00 5.51815064e+00 6.09357006e+00 7.16235727e+00 6.38060012e+00 5.72545332e+00 5.22613160e+00 4.70623365e+00 4.29829095e+00 3.94808249e+00 3.63150096e+00 3.49352604e+00 3.32284061e+00 3.29217502e+00 3.33206130e+00 3.36649331e+00 3.56299834e+00 3.79471836e+00 4.15451948e+00 4.53975616e+00 4.95585691e+00 5.50876583e+00 6.06531033e+00 7.35060454e+00 6.63591302e+00 6.01541236e+00 5.40783511e+00 4.91319295e+00 4.43583618e+00 4.17494091e+00 3.82432794e+00 3.65381375e+00 3.50241507e+00 3.39971238e+00 3.45837087e+00 3.50378108e+00 3.64030277e+00 3.83323127e+00 4.16769346e+00 4.56915374e+00 5.00565486e+00 5.48391767e+00 6.12755727e+00 7.65795293e+00 6.89953434e+00 6.23862548e+00 5.66187047e+00 5.12505503e+00 4.65245534e+00 4.27551112e+00 4.06986382e+00 3.76962336e+00 3.66121111e+00 3.56445565e+00 3.55568463e+00 3.68565086e+00 3.81984049e+00 4.02927905e+00 4.28708934e+00 4.70027983e+00 5.04870260e+00 5.56114059e+00 6.13255886e+00 7.91319328e+00 7.15140864e+00 6.51269587e+00 5.89757543e+00 5.39892163e+00 4.93591212e+00 4.54948345e+00 4.21043679e+00 3.99065687e+00 3.80211980e+00 3.75726672e+00 3.73369978e+00 3.74641021e+00 3.93695930e+00 4.09821323e+00 4.42031769e+00 4.77546900e+00 5.17806713e+00 5.66683658e+00 6.24871263e+00 8.34786065e+00 7.51396499e+00 6.83934420e+00 6.20660875e+00 5.62922204e+00 5.19925794e+00 4.84353824e+00 4.48618531e+00 4.26109304e+00 4.08089192e+00 3.97441347e+00 3.91445819e+00 3.95641754e+00 4.11248164e+00 4.21673684e+00 4.56917039e+00 4.89343581e+00 5.28391307e+00 5.71364647e+00 6.30242376e+00 8.53723267e+00 7.81419594e+00 7.14165047e+00 6.48946828e+00 5.99980779e+00 5.52566700e+00 5.08436076e+00 4.74631938e+00 4.42190316e+00 4.26429941e+00 4.17488799e+00 4.17453388e+00 4.14813624e+00 4.25131629e+00 4.45085297e+00 4.64935303e+00 5.04026441e+00 5.45143103e+00 5.90876874e+00 6.43827185e+00
        </DataArray>
      </PointData>
    </Piece>
  </ImageData>
</VTKFile>
