<?xml version="1.0"?>
<VTKFile type="ImageData" version="0.1" byte_order="LittleEndian">
  <ImageData WholeExtent="0 19 0 19 0 0" Origin="0 0 0" Spacing="1 1 1">
    <Piece Extent="0 19 0 19 0 0">
      <PointData Scalars="Loss">
        <DataArray type="Float64" Name="Loss" format="ascii">
          3.94868580e+00 3.61543661e+00 3.32082395e+00 3.05782974e+00 2.89630253e+00 2.71528138e+00 2.61208421e+00 2.56242468e+00 2.50897703e+00 2.55420139e+00 2.67343682e+00 2.76621960e+00 2.96690788e+00 3.15654287e+00 3.42442231e+00 3.73183777e+00 4.08291512e+00 4.49532804e+00 4.93385981e+00 5.37875345e+00 3.87175616e+00 3.53437102e+00 3.23301644e+00 2.97718117e+00 2.79174312e+00 2.60801047e+00 2.45843245e+00 2.41851749e+00 2.44616523e+00 2.42077384e+00 2.50682029e+00 2.59895985e+00 2.79632901e+00 2.97854449e+00 3.25071215e+00 3.54795612e+00 3.90290031e+00 4.28202522e+00 4.70121826e+00 5.21574282e+00 3.84294053e+00 3.50455199e+00 3.14853436e+00 2.89607779e+00 2.71399720e+00 2.52622771e+00 2.41770070e+00 2.39142990e+00 2.28207586e+00 2.35073817e+00 2.36623220e+00 2.52410617e+00 2.65276550e+00 2.82776492e+00 3.08172761e+00 3.32921155e+00 3.74458233e+00 4.12329051e+00 4.55336864e+00 4.99952426e+00 3.79117138e+00 3.43283472e+00 3.12545278e+00 2.84102352e+00 2.62005891e+00 2.47586519e+00 2.34053342e+00 2.24597131e+00 2.24183887e+00 2.23172604e+00 2.27442140e+00 2.37231450e+00 2.50988457e+00 2.70697576e+00 2.90847812e+00 3.23455060e+00 3.60055508e+00 3.92744353e+00 4.37124436e+00 4.80576358e+00 3.78262318e+00 3.38935983e+00 3.07991310e+00 2.80291188e+00 2.56005705e+00 2.41301518e+00 2.28692275e+00 2.18542157e+00 2.15816316e+00 2.12666026e+00 2.17877603e+00 2.26170518e+00 2.43155547e+00 2.58923989e+00 2.82009957e+00 3.09492197e+00 3.42873451e+00 3.79544389e+00 4.22230941e+00 4.67122361e+00 3.80028385e+00 3.40056057e+00 3.08115122e+00 2.78129447e+00 2.54947851e+00 2.38390855e+00 2.20269978e+00 2.12560083e+00 2.06817424e+00 2.03159801e+00 2.10048741e+00 2.21964524e+00 2.29082868e+00 2.47790130e+00 2.71695339e+00 2.95854479e+00 3.29731874e+00 3.66065657e+00 4.03690430e+00 4.52264889e+00 3.80884435e+00 3.42878430e+00 3.05560379e+00 2.76754692e+00 2.54382793e+00 2.38966472e+00 2.18595117e+00 2.09399890e+00 2.00840019e+00 2.02015169e+00 2.03744654e+00 2.13206081e+00 2.23494059e+00 2.36950835e+00 2.64791651e+00 2.86043989e+00 3.18026002e+00 3.50826568e+00 3.89693585e+00 4.35150377e+00 3.85958744e+00 3.46714371e+00 3.09655138e+00 2.77344101e+00 2.53620779e+00 2.34362762e+00 2.12684674e+00 2.03334566e+00 1.98862280e+00 1.95181474e+00 1.96746806e+00 2.05865425e+00 2.14141622e+00 2.32703304e+00 2.51386640e+00 2.77660216e+00 3.06707653e+00 3.40429087e+00 3.77938931e+00 4.21542203e+00 3.90304562e+00 3.48472116e+00 3.11790143e+00 2.85705808e+00 2.54351246e+00 2.32810913e+00 2.16472044e+00 2.01973188e+00 1.98402278e+00 1.93431179e+00 1.94725711e+00 2.01899380e+00 2.09977765e+00 2.27692115e+00 2.45368693e+00 2.72044598e+00 2.98793455e+00 3.31166066e+00 3.69264120e+00 4.14556524e+00 3.95461746e+00 3.52855305e+00 3.20745696e+00 2.82782596e+00 2.58830978e+00 2.40567572e+00 2.18712220e+00 2.06677958e+00 1.95661078e+00 2.04498001e+00 2.07143189e+00 1.98165274e+00 2.07250683e+00 2.21397228e+00 2.41878790e+00 2.64088173e+00 2.95742284e+00 3.24374219e+00 3.59308298e+00 4.04676545e+00 3.97455602e+00 3.61020380e+00 3.25256080e+00 2.88755436e+00 2.63628738e+00 2.41393118e+00 2.21455675e+00 2.09541479e+00 1.99093887e+00 2.05816275e+00 2.07101936e+00 1.93777331e+00 2.04528643e+00 2.18228308e+00 2.40676809e+00 2.60343625e+00 2.83877177e+00 3.18208478e+00 3.51932855e+00 3.93895914e+00 4.10978223e+00 3.74104631e+00 3.33500107e+00 2.95104465e+00 2.72063919e+00 2.45008038e+00 2.26140818e+00 2.07858517e+00 1.99697522e+00 1.99622005e+00 1.92499622e+00 1.95153139e+00 2.03274347e+00 2.18883443e+00 2.32220483e+00 2.52760767e+00 2.81889387e+00 3.12481650e+00 3.49622387e+00 3.87378950e+00 4.26222709e+00 3.80636068e+00 3.41797232e+00 3.08406542e+00 2.78550787e+00 2.48378727e+00 2.31780127e+00 2.18098605e+00 2.03834084e+00 1.96802272e+00 1.94340293e+00 1.98849284e+00 2.06684805e+00 2.16625427e+00 2.34631172e+00 2.53118368e+00 2.79387083e+00 3.07307045e+00 3.46135399e+00 3.84023916e+00 4.32670763e+00 3.88020145e+00 3.51274158e+00 3.18235200e+00 2.87311252e+00 2.63855935e+00 2.39005689e+00 2.23104498e+00 2.11409388e+00 2.05181402e+00 1.98617580e+00 1.99697968e+00 2.04452842e+00 2.20228348e+00 2.35955941e+00 2.56982713e+00 2.77744998e+00 3.08540226e+00 3.40875927e+00 3.81804241e+00 4.53481854e+00 4.07865107e+00 3.63249670e+00 3.30268573e+00 2.97299111e+00 2.67644612e+00 2.50261256e+00 2.31176764e+00 2.17585607e+00 2.11299525e+00 2.03089746e+00 2.05945249e+00 2.09862385e+00 2.21922456e+00 2.39604778e+00 2.54415477e+00 2.81138433e+00 3.08736078e+00 3.41752953e+00 3.78757971e+00 4.67707404e+00 4.18931926e+00 3.80139234e+00 3.42327236e+00 3.11208631e+00 2.80733751e+00 2.55814771e+00 2.37568524e+00 2.28205924e+00 2.17640351e+00 2.16495444e+00 2.16277209e+00 2.17417675e+00 2.26064137e+00 2.45100793e+00 2.59493025e+00 2.83861168e+00 3.09871779e+00 3.41316408e+00 3.78938686e+00 4.83504999e+00 4.36976529e+00 3.93481459e+00 3.57809550e+00 3.25272193e+00 2.93168052e+00 2.75479665e+00 2.53371487e+00 2.36564055e+00 2.27624712e+00 2.22367027e+00 2.22683924e+00 2.24743216e+00 2.34830609e+00 2.44543923e+00 2.63466212e+00 2.87609910e+00 3.12485789e+00 3.44754126e+00 3.77963839e+00 5.00331830e+00 4.51758542e+00 4.09677894e+00 3.75773550e+00 3.38030093e+00 3.11491046e+00 2.83087018e+00 2.61666521e+00 2.51684067e+00 2.39712432e+00 2.34489950e+00 2.28186712e+00 2.32322035e+00 2.41228085e+00 2.53322086e+00 2.71593380e+00 2.90688679e+00 3.13641134e+00 3.47155968e+00 3.82801531e+00 5.18430262e+00 4.72714218e+00 4.27161574e+00 3.86952439e+00 3.56889181e+00 3.23189952e+00 3.01049476e+00 2.78635183e+00 2.63158309e+00 2.53277623e+00 2.48403694e+00 2.42579482e+00 2.49209666e+00 2.49967366e+00 2.62758729e+00 2.74797710e+00 3.00252641e+00 3.23778125e+00 3.53826531e+00 3.83658508e+00 5.45097595e+00 4.91535684e+00 4.50591164e+00 4.09089939e+00 3.70296159e+00 3.43357322e+00 3.17754664e+00 2.95438455e+00 2.79399238e+00 2.66060432e+00 2.58278331e+00 2.55564002e+00 2.55724006e+00 2.63578680e+00 2.70504346e+00 2.86278064e+00 3.05052352e+00 3.31660229e+00 3.60021649e+00 3.94272673e+00
        </DataArray>
      </PointData>
    </Piece>
  </ImageData>
</VTKFile>
