<?xml version="1.0"?>
<VTKFile type="ImageData" version="0.1" byte_order="LittleEndian">
  <ImageData WholeExtent="0 19 0 19 0 0" Origin="0 0 0" Spacing="1 1 1">
    <Piece Extent="0 19 0 19 0 0">
      <PointData Scalars="Loss">
        <DataArray type="Float64" Name="Loss" format="ascii">
          3.51065702e+00 3.22687477e+00 2.94650989e+00 2.78296341e+00 2.58872513e+00 2.48001441e+00 2.36724745e+00 2.33996297e+00 2.34119542e+00 2.34608301e+00 2.40410873e+00 2.56018425e+00 2.73376928e+00 2.86268214e+00 3.08851456e+00 3.37526784e+00 3.70601217e+00 4.06603772e+00 4.44338914e+00 4.89013569e+00 3.44578105e+00 3.11753754e+00 2.89801206e+00 2.65835839e+00 2.47676435e+00 2.31391404e+00 2.27230668e+00 2.20348956e+00 2.19781446e+00 2.21927203e+00 2.27841333e+00 2.37900568e+00 2.53885106e+00 2.67367522e+00 2.94629153e+00 3.22991370e+00 3.49551333e+00 3.90463010e+00 4.25771863e+00 4.68598992e+00 3.39562829e+00 3.07319740e+00 2.81964394e+00 2.58280166e+00 2.40886959e+00 2.27780903e+00 2.19593895e+00 2.12772883e+00 2.06205263e+00 2.08547570e+00 2.16210497e+00 2.24758860e+00 2.43118182e+00 2.54518823e+00 2.77972488e+00 3.03194760e+00 3.32097791e+00 3.68093277e+00 4.08294521e+00 4.47232938e+00 3.36814833e+00 3.03410052e+00 2.79008660e+00 2.56484635e+00 2.34583950e+00 2.20164164e+00 2.05933357e+00 1.99631644e+00 1.96377307e+00 2.00622164e+00 2.04243026e+00 2.12580747e+00 2.25800539e+00 2.42613892e+00 2.64941615e+00 2.90412277e+00 3.21557835e+00 3.53900713e+00 3.91412820e+00 4.30022113e+00 3.35684476e+00 3.02256434e+00 2.76625994e+00 2.52681697e+00 2.31786579e+00 2.15936568e+00 2.04191532e+00 1.94977879e+00 1.90950111e+00 1.89673613e+00 1.95787927e+00 2.04694187e+00 2.15783833e+00 2.32529144e+00 2.58979474e+00 2.79135088e+00 3.02635870e+00 3.39070083e+00 3.74825628e+00 4.16173118e+00 3.35896059e+00 3.04178770e+00 2.73917680e+00 2.48684779e+00 2.26414175e+00 2.10659978e+00 1.97741486e+00 1.89716621e+00 1.83774816e+00 1.86792718e+00 1.88717519e+00 1.93671001e+00 2.08038303e+00 2.23941874e+00 2.41919357e+00 2.63730079e+00 2.90918613e+00 3.25567777e+00 3.60141755e+00 4.03698274e+00 3.38439639e+00 3.02772093e+00 2.74036257e+00 2.47252396e+00 2.24232167e+00 2.10606444e+00 1.91956447e+00 1.86952419e+00 1.81671329e+00 1.78493673e+00 1.81159135e+00 1.88395004e+00 1.96804211e+00 2.16489448e+00 2.32704444e+00 2.53805275e+00 2.83576318e+00 3.16055349e+00 3.45961282e+00 3.88365854e+00 3.39042766e+00 3.02235090e+00 2.77838912e+00 2.51783732e+00 2.28534330e+00 2.03846460e+00 1.93140707e+00 1.83813696e+00 1.75031111e+00 1.77478135e+00 1.77873614e+00 1.83446409e+00 1.92753367e+00 2.07754407e+00 2.26821684e+00 2.46013729e+00 2.70487866e+00 3.00427498e+00 3.32669210e+00 3.74105945e+00 3.39714187e+00 3.10317141e+00 2.78438792e+00 2.48419784e+00 2.26975286e+00 2.10648685e+00 1.89830804e+00 1.83768553e+00 1.73078346e+00 1.68725228e+00 1.72961322e+00 1.80323907e+00 1.86206424e+00 2.00834019e+00 2.16186359e+00 2.39185522e+00 2.66385352e+00 2.93127535e+00 3.27228450e+00 3.65207791e+00 3.46420274e+00 3.14438022e+00 2.79987786e+00 2.55116819e+00 2.31531970e+00 2.10279379e+00 1.95717397e+00 1.83205773e+00 1.76244332e+00 1.87990409e+00 1.87381800e+00 1.75970895e+00 1.85973516e+00 1.94001918e+00 2.12040070e+00 2.31572663e+00 2.57491468e+00 2.90758191e+00 3.18180905e+00 3.58901154e+00 3.58100174e+00 3.21680000e+00 2.88038573e+00 2.58022582e+00 2.30981392e+00 2.15807525e+00 1.99278761e+00 1.83364420e+00 1.77399882e+00 1.88363773e+00 1.88661221e+00 1.73904189e+00 1.85956417e+00 1.95954376e+00 2.10332115e+00 2.28999839e+00 2.56097120e+00 2.79932947e+00 3.11273131e+00 3.51916123e+00 3.64100746e+00 3.26108579e+00 2.93942141e+00 2.63427536e+00 2.39227857e+00 2.19126071e+00 2.03553915e+00 1.90136437e+00 1.75237120e+00 1.75970805e+00 1.72824871e+00 1.75293825e+00 1.79962290e+00 1.91894995e+00 2.08137481e+00 2.26529605e+00 2.50413769e+00 2.79705231e+00 3.05896596e+00 3.46185188e+00 3.74573637e+00 3.36919264e+00 3.02283037e+00 2.74182157e+00 2.45993474e+00 2.26592766e+00 2.09754095e+00 1.92369100e+00 1.82822211e+00 1.75877176e+00 1.75838760e+00 1.79346569e+00 1.83516170e+00 1.95360006e+00 2.07772943e+00 2.25118604e+00 2.50064981e+00 2.76173252e+00 2.98160817e+00 3.36162276e+00 3.85325136e+00 3.49848865e+00 3.14992505e+00 2.84343934e+00 2.56118744e+00 2.34665219e+00 2.13014183e+00 1.99215813e+00 1.88417977e+00 1.80374415e+00 1.79392220e+00 1.79728782e+00 1.89034981e+00 1.96223013e+00 2.05126874e+00 2.25159506e+00 2.46906310e+00 2.73283710e+00 3.03192791e+00 3.38198581e+00 3.99575112e+00 3.58365927e+00 3.25652371e+00 2.93291020e+00 2.65457083e+00 2.44203611e+00 2.23525885e+00 2.07594039e+00 1.96850273e+00 1.87354826e+00 1.82723800e+00 1.88928378e+00 1.87873016e+00 1.98868936e+00 2.09078609e+00 2.27772430e+00 2.47157900e+00 2.74615414e+00 3.04659334e+00 3.33662099e+00 4.11951455e+00 3.78366708e+00 3.39223119e+00 3.08221428e+00 2.74955497e+00 2.55806171e+00 2.32993102e+00 2.13062027e+00 2.07287021e+00 2.01141266e+00 1.90011406e+00 1.89765097e+00 1.94419151e+00 2.01865507e+00 2.11931340e+00 2.29303663e+00 2.48860601e+00 2.72615306e+00 3.02334011e+00 3.37301102e+00 4.30909463e+00 3.87490967e+00 3.53989199e+00 3.20860076e+00 2.93451921e+00 2.62737888e+00 2.44337968e+00 2.27016958e+00 2.14304448e+00 2.05012744e+00 1.98563059e+00 2.01302021e+00 2.02824051e+00 2.09241212e+00 2.21483910e+00 2.34746031e+00 2.55452148e+00 2.81998314e+00 3.06073876e+00 3.34778399e+00 4.49415857e+00 4.07670284e+00 3.70579070e+00 3.33516331e+00 3.06148422e+00 2.79953695e+00 2.57286103e+00 2.42448145e+00 2.24852284e+00 2.15993444e+00 2.10483970e+00 2.09675768e+00 2.10711310e+00 2.16446967e+00 2.27748973e+00 2.43596248e+00 2.62168948e+00 2.83235011e+00 3.06802633e+00 3.41775547e+00 4.73026931e+00 4.24755955e+00 3.85090003e+00 3.53722695e+00 3.21171853e+00 2.96523761e+00 2.75091298e+00 2.52518473e+00 2.38175526e+00 2.27755686e+00 2.22300252e+00 2.19577730e+00 2.19289969e+00 2.26151581e+00 2.34194718e+00 2.50043897e+00 2.68203061e+00 2.90358067e+00 3.17108195e+00 3.48621806e+00 4.89911661e+00 4.47795226e+00 4.05372129e+00 3.71721168e+00 3.38698353e+00 3.09116676e+00 2.92788368e+00 2.69317034e+00 2.53303991e+00 2.42430160e+00 2.39169174e+00 2.30668418e+00 2.34418325e+00 2.36937482e+00 2.47338319e+00 2.59510112e+00 2.76154433e+00 2.97056718e+00 3.21512910e+00 3.52819404e+00
        </DataArray>
      </PointData>
    </Piece>
  </ImageData>
</VTKFile>
