<?xml version="1.0"?>
<VTKFile type="ImageData" version="0.1" byte_order="LittleEndian">
  <ImageData WholeExtent="0 19 0 19 0 0" Origin="0 0 0" Spacing="1 1 1">
    <Piece Extent="0 19 0 19 0 0">
      <PointData Scalars="Loss">
        <DataArray type="Float64" Name="Loss" format="ascii">
          2.75430375e+00 2.53464050e+00 2.37255067e+00 2.16115696e+00 2.02155699e+00 1.92549841e+00 1.86808645e+00 1.82203318e+00 1.81209618e+00 1.82232064e+00 1.88885522e+00 1.98334384e+00 2.08734248e+00 2.22422183e+00 2.41177741e+00 2.63994366e+00 2.85296015e+00 3.11860157e+00 3.43533696e+00 3.80105912e+00 2.72216414e+00 2.47831101e+00 2.25204529e+00 2.10911551e+00 1.95867500e+00 1.85410568e+00 1.79155741e+00 1.72580420e+00 1.70083242e+00 1.69910829e+00 1.78384980e+00 1.86034200e+00 1.95518484e+00 2.08987839e+00 2.27457429e+00 2.50101581e+00 2.70363650e+00 2.99642331e+00 3.30946422e+00 3.63478465e+00 2.67348722e+00 2.43932931e+00 2.19673603e+00 2.04272937e+00 1.90084655e+00 1.79359766e+00 1.68270063e+00 1.65482339e+00 1.62192042e+00 1.61257702e+00 1.66940776e+00 1.75934567e+00 1.83678400e+00 2.02022422e+00 2.15474607e+00 2.35876883e+00 2.60138771e+00 2.84110694e+00 3.16697577e+00 3.47726903e+00 2.66591179e+00 2.38872309e+00 2.16322834e+00 1.99709239e+00 1.85439487e+00 1.71210791e+00 1.61962066e+00 1.57966822e+00 1.55937887e+00 1.54477111e+00 1.57333228e+00 1.63485450e+00 1.75720752e+00 1.87066915e+00 2.06415020e+00 2.21007624e+00 2.46106687e+00 2.74004559e+00 3.00817688e+00 3.34012617e+00 2.63332438e+00 2.39696471e+00 2.16291323e+00 1.98108486e+00 1.80140324e+00 1.65615861e+00 1.60437600e+00 1.52956295e+00 1.49897771e+00 1.47054135e+00 1.51877304e+00 1.57035733e+00 1.67029965e+00 1.80188714e+00 1.93047152e+00 2.11814090e+00 2.36281014e+00 2.63221160e+00 2.90033894e+00 3.21014541e+00 2.62964291e+00 2.37218243e+00 2.12995643e+00 1.95052502e+00 1.76361927e+00 1.62332933e+00 1.53062489e+00 1.47170069e+00 1.44548547e+00 1.41818198e+00 1.45547267e+00 1.50537144e+00 1.59371774e+00 1.71477463e+00 1.87387990e+00 2.05672601e+00 2.27898881e+00 2.51142200e+00 2.78850733e+00 3.11826225e+00 2.62338335e+00 2.37112203e+00 2.12115112e+00 1.94873223e+00 1.78608174e+00 1.61430411e+00 1.54952262e+00 1.44041472e+00 1.41036077e+00 1.38297613e+00 1.40974879e+00 1.46960853e+00 1.54830504e+00 1.65465500e+00 1.79793823e+00 1.99471922e+00 2.18723326e+00 2.42373501e+00 2.70131329e+00 2.99070456e+00 2.64148281e+00 2.41042800e+00 2.15815015e+00 1.94005569e+00 1.74895446e+00 1.62274805e+00 1.49335867e+00 1.43097614e+00 1.38510256e+00 1.38072206e+00 1.37669435e+00 1.41637621e+00 1.49786717e+00 1.60491782e+00 1.74221522e+00 1.90746587e+00 2.11049343e+00 2.33862521e+00 2.62336789e+00 2.91379652e+00 2.71685144e+00 2.38334957e+00 2.15997739e+00 1.95160320e+00 1.76465563e+00 1.59163923e+00 1.51131107e+00 1.39706923e+00 1.35735096e+00 1.35204779e+00 1.35945517e+00 1.37218909e+00 1.46977819e+00 1.56734605e+00 1.67398391e+00 1.86512787e+00 2.07362700e+00 2.27623953e+00 2.52923336e+00 2.82995264e+00 2.71028130e+00 2.43872173e+00 2.19548198e+00 1.97672036e+00 1.80512628e+00 1.63728524e+00 1.52488079e+00 1.39654463e+00 1.35399166e+00 1.60577670e+00 1.60394454e+00 1.36869497e+00 1.40487062e+00 1.53526930e+00 1.67426226e+00 1.79379588e+00 2.00152003e+00 2.20876382e+00 2.49293882e+00 2.78116632e+00 2.77825942e+00 2.51056109e+00 2.26656550e+00 2.03177852e+00 1.82119294e+00 1.64923093e+00 1.52540159e+00 1.45113222e+00 1.38312148e+00 1.59447494e+00 1.59732066e+00 1.38042525e+00 1.42288277e+00 1.48392217e+00 1.62338011e+00 1.77179212e+00 1.93430602e+00 2.19331259e+00 2.40476912e+00 2.73332728e+00 2.83976349e+00 2.53523018e+00 2.28073619e+00 2.05660151e+00 1.87019335e+00 1.68719722e+00 1.56669607e+00 1.45355734e+00 1.40657562e+00 1.35844350e+00 1.31828482e+00 1.35141783e+00 1.41132328e+00 1.51038571e+00 1.60494779e+00 1.76301320e+00 1.91366900e+00 2.15102767e+00 2.41318395e+00 2.68557294e+00 2.90480875e+00 2.63079808e+00 2.36833690e+00 2.12181849e+00 1.90249113e+00 1.73386583e+00 1.59139161e+00 1.50540265e+00 1.40441171e+00 1.39110154e+00 1.36352225e+00 1.36260918e+00 1.41357202e+00 1.50993210e+00 1.63240468e+00 1.78709216e+00 1.93996791e+00 2.15915064e+00 2.37536751e+00 2.66944434e+00 3.00167690e+00 2.68757246e+00 2.42089144e+00 2.18456535e+00 1.95366310e+00 1.79607530e+00 1.68435508e+00 1.51079148e+00 1.48884297e+00 1.41042677e+00 1.38522077e+00 1.39557794e+00 1.43785334e+00 1.50531118e+00 1.62696922e+00 1.77694060e+00 1.95074500e+00 2.14017435e+00 2.37961837e+00 2.63337527e+00 3.12089900e+00 2.80346971e+00 2.50422387e+00 2.25083520e+00 2.04074397e+00 1.86243082e+00 1.70776441e+00 1.61432706e+00 1.51020004e+00 1.43552553e+00 1.46650086e+00 1.42431226e+00 1.48813841e+00 1.54973991e+00 1.63958291e+00 1.77122895e+00 1.95549857e+00 2.15961644e+00 2.35207546e+00 2.63795457e+00 3.20635855e+00 2.88571665e+00 2.62115008e+00 2.35579163e+00 2.14113412e+00 1.99250642e+00 1.78939434e+00 1.69488231e+00 1.54671666e+00 1.52644284e+00 1.49669655e+00 1.48241770e+00 1.52617866e+00 1.56285505e+00 1.68689492e+00 1.77978486e+00 1.96167667e+00 2.13386018e+00 2.37331294e+00 2.61792206e+00 3.33219398e+00 3.02045357e+00 2.69872231e+00 2.48223117e+00 2.25019729e+00 2.03110647e+00 1.90822193e+00 1.78001006e+00 1.66696216e+00 1.59602159e+00 1.56523692e+00 1.55101297e+00 1.57259994e+00 1.62034968e+00 1.72005372e+00 1.86823679e+00 2.02292204e+00 2.18172980e+00 2.39031343e+00 2.64679712e+00 3.47461454e+00 3.11758148e+00 2.85938725e+00 2.56584289e+00 2.33057196e+00 2.16022988e+00 1.99062395e+00 1.87487611e+00 1.73628610e+00 1.65432462e+00 1.63546276e+00 1.62154110e+00 1.63771457e+00 1.69845647e+00 1.76832966e+00 1.90435359e+00 2.05463170e+00 2.23339959e+00 2.42000400e+00 2.68663416e+00 3.60425086e+00 3.29979187e+00 2.98202730e+00 2.72752849e+00 2.49128554e+00 2.26370957e+00 2.11116137e+00 1.96066615e+00 1.88181095e+00 1.77565207e+00 1.75262076e+00 1.73338943e+00 1.71672746e+00 1.75842738e+00 1.87154633e+00 1.95551328e+00 2.08252009e+00 2.28717995e+00 2.48035882e+00 2.70477782e+00 3.81017368e+00 3.45869805e+00 3.15269724e+00 2.86068446e+00 2.61833388e+00 2.43533818e+00 2.22636540e+00 2.07550797e+00 1.96071583e+00 1.89828231e+00 1.83595012e+00 1.78800111e+00 1.79809069e+00 1.85504576e+00 1.92409443e+00 2.05152964e+00 2.18901689e+00 2.31648272e+00 2.54988208e+00 2.76779774e+00
        </DataArray>
      </PointData>
    </Piece>
  </ImageData>
</VTKFile>
