<?xml version="1.0"?>
<VTKFile type="ImageData" version="0.1" byte_order="LittleEndian">
  <ImageData WholeExtent="0 19 0 19 0 0" Origin="0 0 0" Spacing="1 1 1">
    <Piece Extent="0 19 0 19 0 0">
      <PointData Scalars="Loss">
        <DataArray type="Float64" Name="Loss" format="ascii">
          4.05263222e+00 3.65635804e+00 3.30448081e+00 3.04640409e+00 2.76058614e+00 2.59096108e+00 2.45503095e+00 2.37502463e+00 2.38837649e+00 2.49446724e+00 2.52124367e+00 2.68897672e+00 2.92855241e+00 3.21264448e+00 3.51947591e+00 3.89612909e+00 4.40068626e+00 4.91104975e+00 5.44895491e+00 6.07698495e+00 4.11276318e+00 3.72815675e+00 3.40153336e+00 3.05404783e+00 2.78749848e+00 2.66260518e+00 2.51074141e+00 2.40778374e+00 2.36816983e+00 2.42300539e+00 2.51653466e+00 2.66249147e+00 2.85533425e+00 3.14972926e+00 3.50813579e+00 3.84097307e+00 4.32203088e+00 4.81279642e+00 5.32934187e+00 6.00159312e+00 4.25935202e+00 3.85897807e+00 3.40556235e+00 3.11464558e+00 2.91474368e+00 2.64111425e+00 2.48202525e+00 2.40213362e+00 2.38022027e+00 2.41583498e+00 2.47999223e+00 2.68699344e+00 2.81916406e+00 3.05971328e+00 3.40798107e+00 3.76783145e+00 4.21841551e+00 4.71121564e+00 5.23859709e+00 5.82524324e+00 4.34684940e+00 3.88031921e+00 3.47510939e+00 3.16193662e+00 2.90612865e+00 2.70874529e+00 2.51762230e+00 2.43760232e+00 2.40161084e+00 2.37542862e+00 2.46861511e+00 2.62885631e+00 2.80272682e+00 3.03719597e+00 3.34383989e+00 3.69975871e+00 4.08718989e+00 4.57645062e+00 5.15638438e+00 5.72883222e+00 4.42147103e+00 3.92667441e+00 3.58209380e+00 3.25212209e+00 2.94036728e+00 2.69395863e+00 2.56999453e+00 2.43543191e+00 2.39214635e+00 2.39690948e+00 2.44895834e+00 2.55111332e+00 2.69951031e+00 3.01725129e+00 3.27393783e+00 3.63731140e+00 4.06739425e+00 4.50387968e+00 5.01480103e+00 5.61485090e+00 4.54323594e+00 4.07714970e+00 3.65106509e+00 3.33158133e+00 2.98448153e+00 2.70840116e+00 2.55659075e+00 2.49339593e+00 2.40456582e+00 2.38985329e+00 2.44352823e+00 2.56149011e+00 2.68784434e+00 2.95054879e+00 3.23982362e+00 3.56065391e+00 3.95472182e+00 4.41283140e+00 4.87991050e+00 5.46790699e+00 4.65134141e+00 4.14278650e+00 3.71450228e+00 3.34982868e+00 3.10024269e+00 2.80090410e+00 2.63612870e+00 2.49548744e+00 2.39764982e+00 2.37616089e+00 2.45558341e+00 2.51229613e+00 2.65075664e+00 2.84717145e+00 3.16638674e+00 3.45506418e+00 3.93004139e+00 4.30286812e+00 4.81817032e+00 5.34854924e+00 4.67623882e+00 4.28420645e+00 3.80689720e+00 3.42870589e+00 3.08138150e+00 2.87096414e+00 2.66713295e+00 2.51482457e+00 2.43641929e+00 2.38859177e+00 2.42212297e+00 2.47300226e+00 2.65133815e+00 2.89370041e+00 3.10523396e+00 3.42069786e+00 3.72752125e+00 4.25862671e+00 4.71484088e+00 5.30299955e+00 4.78224104e+00 4.35874766e+00 3.88425303e+00 3.47503173e+00 3.15757439e+00 2.91108578e+00 2.70644454e+00 2.54636405e+00 2.45168486e+00 2.38843064e+00 2.42636141e+00 2.53584317e+00 2.61664589e+00 2.83180004e+00 3.05297261e+00 3.37250592e+00 3.72488696e+00 4.10929961e+00 4.62685129e+00 5.13443345e+00 4.91130709e+00 4.40870507e+00 3.98444117e+00 3.56950606e+00 3.21843089e+00 2.99991558e+00 2.71078972e+00 2.52475666e+00 2.43229061e+00 2.38714527e+00 2.38136220e+00 2.43404059e+00 2.61984860e+00 2.77675854e+00 2.96046338e+00 3.26681322e+00 3.62246868e+00 4.01730606e+00 4.48754609e+00 4.99680476e+00 4.99959075e+00 4.51120809e+00 4.08764261e+00 3.61739228e+00 3.29609080e+00 2.97437650e+00 2.74505329e+00 2.57770268e+00 2.44612312e+00 2.39918878e+00 2.39161513e+00 2.48080174e+00 2.55057793e+00 2.66994396e+00 2.96769406e+00 3.21378248e+00 3.60225764e+00 3.95545247e+00 4.44375487e+00 4.93784248e+00 5.14755320e+00 4.61240257e+00 4.14524020e+00 3.72961013e+00 3.34744326e+00 3.01961304e+00 2.83293872e+00 2.60435642e+00 2.45348591e+00 2.40484676e+00 2.40121914e+00 2.43830590e+00 2.52996691e+00 2.67279651e+00 2.93067897e+00 3.16850565e+00 3.52033450e+00 3.87358969e+00 4.33137778e+00 4.80583145e+00 5.27747751e+00 4.65947361e+00 4.23842955e+00 3.80017384e+00 3.44735157e+00 3.10694259e+00 2.86049798e+00 2.65317871e+00 2.50597580e+00 2.36641340e+00 2.34866085e+00 2.44302843e+00 2.49020514e+00 2.63874492e+00 2.79889855e+00 3.12254084e+00 3.42250156e+00 3.81587684e+00 4.20255017e+00 4.72806856e+00 5.33932026e+00 4.80773137e+00 4.33410021e+00 3.85063784e+00 3.47182423e+00 3.14828050e+00 2.88102333e+00 2.64682514e+00 2.53435424e+00 2.41883450e+00 2.43307238e+00 2.42992073e+00 2.47345295e+00 2.58882300e+00 2.81340809e+00 3.04428051e+00 3.33830473e+00 3.69400834e+00 4.13596521e+00 4.63536563e+00 5.49185551e+00 4.89691565e+00 4.38002876e+00 4.00238387e+00 3.52257075e+00 3.22614106e+00 2.92815576e+00 2.67418617e+00 2.52990507e+00 2.44993177e+00 2.42075434e+00 2.41364727e+00 2.48878571e+00 2.57529844e+00 2.70805053e+00 3.02451640e+00 3.28451605e+00 3.63121874e+00 4.04271906e+00 4.51247359e+00 5.58797288e+00 4.99064557e+00 4.47434374e+00 4.05304190e+00 3.61862321e+00 3.30452427e+00 2.96915727e+00 2.76563060e+00 2.56141633e+00 2.45470987e+00 2.39171507e+00 2.43271269e+00 2.41846494e+00 2.54466678e+00 2.73177220e+00 2.96162178e+00 3.21471287e+00 3.54944956e+00 3.98645331e+00 4.40438231e+00 5.70539703e+00 5.16279807e+00 4.53753951e+00 4.09970060e+00 3.73849250e+00 3.36100465e+00 3.00395489e+00 2.75265482e+00 2.58206377e+00 2.45534164e+00 2.41437346e+00 2.41705883e+00 2.44279649e+00 2.53839491e+00 2.69118180e+00 2.91922294e+00 3.15985734e+00 3.47446836e+00 3.89556581e+00 4.29563930e+00 5.80924367e+00 5.23561477e+00 4.67804370e+00 4.19120409e+00 3.78782680e+00 3.41195134e+00 3.07527284e+00 2.86160076e+00 2.71213750e+00 2.51179759e+00 2.44617752e+00 2.37828031e+00 2.44686794e+00 2.50445315e+00 2.66631324e+00 2.81823717e+00 3.07252902e+00 3.44748218e+00 3.79412892e+00 4.30522191e+00 5.93324468e+00 5.32859325e+00 4.81652584e+00 4.30618839e+00 3.80063885e+00 3.52071104e+00 3.16390052e+00 2.85720865e+00 2.64153908e+00 2.53947273e+00 2.40748513e+00 2.40696227e+00 2.39245555e+00 2.44433077e+00 2.60039555e+00 2.80498207e+00 3.01743135e+00 3.34567126e+00 3.71200913e+00 4.19787121e+00 6.09958423e+00 5.46656817e+00 4.88138013e+00 4.36871556e+00 3.91729127e+00 3.49808941e+00 3.19432840e+00 2.92900071e+00 2.72050618e+00 2.49894073e+00 2.46047841e+00 2.34481083e+00 2.39719424e+00 2.43980971e+00 2.61455962e+00 2.76894739e+00 3.03535622e+00 3.28476482e+00 3.67955832e+00 4.02895250e+00
        </DataArray>
      </PointData>
    </Piece>
  </ImageData>
</VTKFile>
