<?xml version="1.0"?>
<VTKFile type="ImageData" version="0.1" byte_order="LittleEndian">
  <ImageData WholeExtent="0 19 0 19 0 0" Origin="0 0 0" Spacing="1 1 1">
    <Piece Extent="0 19 0 19 0 0">
      <PointData Scalars="Loss">
        <DataArray type="Float64" Name="Loss" format="ascii">
          2.97193601e+00 2.67866125e+00 2.43099122e+00 2.17823747e+00 2.03908337e+00 1.92655654e+00 1.83712277e+00 1.76810243e+00 1.78744271e+00 1.80383846e+00 1.92865983e+00 2.07550696e+00 2.22816864e+00 2.41326170e+00 2.69926100e+00 3.02308032e+00 3.33417609e+00 3.72300768e+00 4.12789588e+00 4.65179500e+00 3.00463415e+00 2.73295141e+00 2.48194353e+00 2.25002889e+00 2.07313483e+00 1.89881890e+00 1.83358653e+00 1.80007781e+00 1.77863947e+00 1.81960925e+00 1.90540482e+00 2.03630968e+00 2.17696784e+00 2.37442238e+00 2.62638910e+00 2.94326005e+00 3.23459680e+00 3.61981721e+00 4.04928461e+00 4.52114245e+00 3.09492293e+00 2.77581900e+00 2.47159924e+00 2.29841193e+00 2.11741272e+00 1.94765760e+00 1.85810302e+00 1.85175281e+00 1.80238818e+00 1.83146409e+00 1.88586481e+00 1.99294539e+00 2.16786994e+00 2.33979229e+00 2.57406436e+00 2.85106019e+00 3.15618669e+00 3.53773588e+00 3.98014412e+00 4.40022904e+00 3.21112178e+00 2.85518299e+00 2.57287909e+00 2.34322614e+00 2.15056670e+00 1.97323108e+00 1.86294987e+00 1.81190466e+00 1.78724428e+00 1.81190499e+00 1.84516338e+00 1.97287188e+00 2.09774562e+00 2.30126700e+00 2.53208238e+00 2.82370550e+00 3.14469418e+00 3.45638854e+00 3.90351535e+00 4.30026329e+00 3.25355751e+00 2.91072135e+00 2.62740372e+00 2.34892246e+00 2.20703792e+00 1.99242840e+00 1.89605130e+00 1.82192590e+00 1.73665624e+00 1.79275923e+00 1.83173835e+00 1.93306359e+00 2.07549490e+00 2.26829205e+00 2.48149353e+00 2.69846571e+00 3.03529904e+00 3.41495090e+00 3.77509004e+00 4.22980981e+00 3.34475241e+00 2.98435660e+00 2.67964589e+00 2.44056515e+00 2.18560225e+00 2.06113773e+00 1.91227078e+00 1.83074072e+00 1.78397679e+00 1.79471473e+00 1.81150150e+00 1.89155749e+00 2.05059637e+00 2.19218941e+00 2.44061194e+00 2.68181711e+00 2.95333368e+00 3.32228342e+00 3.65138062e+00 4.10079343e+00 3.38817920e+00 3.07662413e+00 2.75863618e+00 2.47515735e+00 2.24590013e+00 2.08184964e+00 1.93152604e+00 1.84224400e+00 1.78487877e+00 1.78046511e+00 1.82413721e+00 1.87937024e+00 1.99423822e+00 2.17233895e+00 2.35350103e+00 2.59515330e+00 2.92482178e+00 3.21928890e+00 3.60979078e+00 4.04107786e+00 3.52748958e+00 3.11480157e+00 2.79877061e+00 2.53766064e+00 2.27700645e+00 2.14112065e+00 1.95406689e+00 1.89929018e+00 1.79198864e+00 1.77540564e+00 1.81655241e+00 1.88563426e+00 1.96493303e+00 2.14155830e+00 2.35207376e+00 2.56567322e+00 2.84602896e+00 3.13220493e+00 3.51990075e+00 3.92262600e+00 3.56154397e+00 3.19052892e+00 2.88171981e+00 2.60703842e+00 2.38062525e+00 2.12221407e+00 1.99355317e+00 1.90566307e+00 1.77563106e+00 1.76837335e+00 1.81826780e+00 1.87403004e+00 1.97676797e+00 2.11423110e+00 2.26394043e+00 2.53175202e+00 2.76962657e+00 3.11127555e+00 3.43270679e+00 3.84515196e+00 3.66605653e+00 3.28808715e+00 2.94853352e+00 2.66215385e+00 2.34674504e+00 2.18921645e+00 2.03269429e+00 1.92253016e+00 1.80978791e+00 1.89620040e+00 1.92915710e+00 1.80010071e+00 1.90866332e+00 2.07330586e+00 2.22160059e+00 2.43618630e+00 2.72276931e+00 3.01536772e+00 3.32976062e+00 3.77980807e+00 3.73703546e+00 3.35333640e+00 3.00279970e+00 2.73205320e+00 2.46330244e+00 2.23338486e+00 2.06471182e+00 1.94316630e+00 1.81542043e+00 1.92748073e+00 1.92766853e+00 1.82431884e+00 1.90686459e+00 2.00116124e+00 2.21349153e+00 2.41339039e+00 2.62331396e+00 2.93826166e+00 3.28220949e+00 3.65237486e+00 3.84539881e+00 3.43944911e+00 3.12396969e+00 2.76034943e+00 2.48000195e+00 2.27950537e+00 2.10280423e+00 1.94386626e+00 1.83672875e+00 1.80536263e+00 1.78394484e+00 1.79956763e+00 1.86099932e+00 2.03814312e+00 2.16803546e+00 2.33128142e+00 2.58822229e+00 2.83095430e+00 3.18592099e+00 3.55554038e+00 3.91088132e+00 3.50991653e+00 3.17553149e+00 2.83038217e+00 2.54821560e+00 2.30556037e+00 2.08932678e+00 2.01880501e+00 1.89969417e+00 1.82657363e+00 1.78418703e+00 1.80702030e+00 1.86009603e+00 1.95245492e+00 2.12018178e+00 2.31681906e+00 2.52296914e+00 2.81643110e+00 3.14339338e+00 3.50990139e+00 4.04559678e+00 3.62826585e+00 3.22377816e+00 2.89665097e+00 2.61360699e+00 2.35841477e+00 2.16404968e+00 2.02534991e+00 1.87151381e+00 1.79333124e+00 1.79332108e+00 1.79683510e+00 1.85968801e+00 1.96298694e+00 2.09008667e+00 2.28482160e+00 2.48456649e+00 2.74345290e+00 3.05730960e+00 3.41931617e+00 4.12551068e+00 3.69715751e+00 3.29606423e+00 2.98816327e+00 2.66779725e+00 2.40739725e+00 2.22396887e+00 2.07689069e+00 1.88948866e+00 1.84601282e+00 1.78185740e+00 1.79149556e+00 1.82881114e+00 1.90396230e+00 2.07110499e+00 2.25123190e+00 2.43941356e+00 2.69105165e+00 2.99733827e+00 3.31671933e+00 4.21288875e+00 3.78039638e+00 3.35718639e+00 3.03392708e+00 2.72321964e+00 2.48251116e+00 2.25556630e+00 2.06314829e+00 1.90290402e+00 1.79884915e+00 1.80711911e+00 1.78132393e+00 1.83374760e+00 1.90114798e+00 2.03483632e+00 2.20282209e+00 2.38182445e+00 2.62839402e+00 2.91559989e+00 3.27872079e+00 4.28768366e+00 3.85454085e+00 3.46820005e+00 3.12390197e+00 2.83135556e+00 2.51491324e+00 2.29325065e+00 2.12087745e+00 1.97412112e+00 1.84984935e+00 1.77465567e+00 1.78214832e+00 1.78989230e+00 1.87722997e+00 1.97951086e+00 2.14479664e+00 2.30487174e+00 2.60409505e+00 2.85349916e+00 3.13766030e+00 4.41123842e+00 4.00943613e+00 3.59256929e+00 3.17965627e+00 2.87472716e+00 2.55722396e+00 2.32422607e+00 2.12138172e+00 1.97374539e+00 1.89094171e+00 1.81768698e+00 1.79631062e+00 1.82371673e+00 1.86361789e+00 1.96692733e+00 2.08894141e+00 2.28919847e+00 2.49103247e+00 2.77219449e+00 3.08530866e+00 4.53410484e+00 4.06062753e+00 3.63937223e+00 3.27863191e+00 2.91361823e+00 2.64802273e+00 2.38964553e+00 2.16820397e+00 2.03441286e+00 1.89756609e+00 1.81758522e+00 1.79184651e+00 1.82056829e+00 1.84019314e+00 1.90842214e+00 2.09110929e+00 2.24835944e+00 2.44501596e+00 2.71379681e+00 3.05781248e+00 4.63770298e+00 4.12971650e+00 3.73005812e+00 3.32314561e+00 3.02710324e+00 2.70251157e+00 2.45374546e+00 2.24331260e+00 2.03917688e+00 1.92531327e+00 1.81859630e+00 1.79217245e+00 1.80221312e+00 1.80497721e+00 1.89581849e+00 2.07802590e+00 2.20519573e+00 2.43186389e+00 2.62697392e+00 2.92708816e+00
        </DataArray>
      </PointData>
    </Piece>
  </ImageData>
</VTKFile>
