<?xml version="1.0"?>
<VTKFile type="ImageData" version="0.1" byte_order="LittleEndian">
  <ImageData WholeExtent="0 19 0 19 0 0" Origin="0 0 0" Spacing="1 1 1">
    <Piece Extent="0 19 0 19 0 0">
      <PointData Scalars="Loss">
        <DataArray type="Float64" Name="Loss" format="ascii">
          5.70746855e+00 5.23496107e+00 4.81393960e+00 4.45929174e+00 4.15378581e+00 3.89837865e+00 3.69348585e+00 3.67488091e+00 3.62604668e+00 3.64897528e+00 3.70384668e+00 3.87524043e+00 4.13296569e+00 4.36249642e+00 4.71323596e+00 5.19130869e+00 5.66567647e+00 6.18897554e+00 6.83817686e+00 7.45704402e+00 5.56342730e+00 5.11073524e+00 4.70219840e+00 4.30933308e+00 3.98659540e+00 3.73413005e+00 3.56301751e+00 3.43442297e+00 3.41262939e+00 3.42001318e+00 3.52577173e+00 3.71766975e+00 3.88714021e+00 4.12361611e+00 4.47920114e+00 4.89410817e+00 5.40544724e+00 5.92026581e+00 6.53992149e+00 7.19530660e+00 5.52836643e+00 4.99274735e+00 4.53847666e+00 4.20649934e+00 3.88117447e+00 3.63980168e+00 3.49964814e+00 3.30883738e+00 3.26803145e+00 3.24422199e+00 3.38334821e+00 3.52024447e+00 3.68623683e+00 3.95018171e+00 4.30578813e+00 4.68756300e+00 5.14036807e+00 5.68062593e+00 6.23947550e+00 6.91861437e+00 5.42641325e+00 4.94758475e+00 4.45828368e+00 4.09695122e+00 3.76843015e+00 3.49186078e+00 3.32442955e+00 3.16408451e+00 3.12785899e+00 3.11882020e+00 3.20273197e+00 3.32807068e+00 3.53263779e+00 3.77330121e+00 4.08144069e+00 4.49588098e+00 4.91984666e+00 5.41464451e+00 6.02573643e+00 6.67302607e+00 5.37448081e+00 4.92998578e+00 4.40773020e+00 4.00689589e+00 3.68424865e+00 3.46538025e+00 3.29291880e+00 3.09921186e+00 2.96612097e+00 2.99340004e+00 3.03806456e+00 3.14556237e+00 3.31791234e+00 3.61746004e+00 3.86256886e+00 4.25781658e+00 4.68952029e+00 5.23659438e+00 5.78349591e+00 6.38134473e+00 5.40466228e+00 4.85993184e+00 4.37645699e+00 3.98410122e+00 3.61837670e+00 3.34828781e+00 3.17108840e+00 2.97001681e+00 2.87832462e+00 2.87834848e+00 2.91107765e+00 3.06242263e+00 3.26930277e+00 3.43979015e+00 3.73465408e+00 4.12239911e+00 4.54054167e+00 5.05347563e+00 5.57549059e+00 6.19832199e+00 5.42403188e+00 4.84777172e+00 4.41137876e+00 3.94273253e+00 3.60008544e+00 3.31166167e+00 3.14719174e+00 2.89093131e+00 2.83547062e+00 2.79906733e+00 2.84167697e+00 2.92619748e+00 3.06244051e+00 3.34975927e+00 3.63551123e+00 3.93973518e+00 4.36787721e+00 4.87760327e+00 5.43785102e+00 6.04054211e+00 5.40048699e+00 4.88774663e+00 4.37397710e+00 3.96528971e+00 3.55494697e+00 3.34158986e+00 3.05050967e+00 2.91257537e+00 2.78297579e+00 2.73335086e+00 2.78616966e+00 2.86336403e+00 3.02650130e+00 3.25116568e+00 3.53220574e+00 3.84653501e+00 4.25362916e+00 4.80447588e+00 5.29620789e+00 5.94574793e+00 5.46818204e+00 4.93558702e+00 4.42263995e+00 3.94200214e+00 3.61259672e+00 3.25979555e+00 3.06091213e+00 2.85878557e+00 2.73066267e+00 2.71292737e+00 2.71717389e+00 2.75841734e+00 2.95499500e+00 3.18486789e+00 3.40661284e+00 3.76579275e+00 4.19245052e+00 4.64355230e+00 5.21106484e+00 5.73176966e+00 5.52707947e+00 4.96270174e+00 4.44504448e+00 4.06603930e+00 3.61093098e+00 3.29400136e+00 3.04219330e+00 2.83576997e+00 2.73894274e+00 2.61971228e+00 2.63348142e+00 2.81358463e+00 2.90428346e+00 3.11718762e+00 3.34761482e+00 3.74643270e+00 4.05690103e+00 4.54307652e+00 5.07053353e+00 5.65426806e+00 5.65409807e+00 5.04388446e+00 4.54328085e+00 4.03343611e+00 3.67320175e+00 3.35123421e+00 3.11727322e+00 2.91086571e+00 2.73274498e+00 2.63137392e+00 2.60050999e+00 2.72538208e+00 2.87124713e+00 3.05013793e+00 3.29020653e+00 3.61790943e+00 4.00567425e+00 4.43418708e+00 4.96389893e+00 5.53691431e+00 5.68367945e+00 5.16037085e+00 4.54089013e+00 4.16360954e+00 3.71382808e+00 3.43624348e+00 3.18127547e+00 2.92386636e+00 2.86298300e+00 2.72595600e+00 2.71619551e+00 2.74533308e+00 2.91141376e+00 3.05827413e+00 3.32046356e+00 3.59536398e+00 4.02039958e+00 4.40814947e+00 4.87727193e+00 5.47889223e+00 5.85785612e+00 5.24862824e+00 4.78945704e+00 4.25078602e+00 3.84288713e+00 3.49114420e+00 3.20489830e+00 2.97770599e+00 2.87906698e+00 2.78997225e+00 2.73655121e+00 2.75888236e+00 2.89579667e+00 3.05814550e+00 3.28955656e+00 3.56726999e+00 3.96037213e+00 4.38574718e+00 4.86979158e+00 5.43737142e+00 6.04521775e+00 5.40245031e+00 4.87952660e+00 4.40218424e+00 3.95834086e+00 3.65202236e+00 3.28474788e+00 3.08817458e+00 2.93989954e+00 2.80668092e+00 2.82834501e+00 2.81017524e+00 2.92069412e+00 3.11278990e+00 3.34257487e+00 3.60306336e+00 3.93519793e+00 4.39927729e+00 4.81567623e+00 5.44447622e+00 6.23490653e+00 5.61389332e+00 5.02490327e+00 4.54939618e+00 4.11803265e+00 3.78531862e+00 3.47536762e+00 3.23919756e+00 3.03801352e+00 2.92247607e+00 2.91075881e+00 2.91574842e+00 2.95026936e+00 3.16078404e+00 3.32513356e+00 3.62822750e+00 3.95576379e+00 4.39963970e+00 4.84592390e+00 5.39828896e+00 6.40927814e+00 5.74254763e+00 5.22735994e+00 4.72132166e+00 4.23920133e+00 3.90266875e+00 3.62358795e+00 3.38051176e+00 3.18250030e+00 3.05505703e+00 2.97938212e+00 3.01833538e+00 3.06651590e+00 3.23410838e+00 3.41586837e+00 3.69670365e+00 4.00755434e+00 4.37608759e+00 4.93940236e+00 5.41994585e+00 6.65074399e+00 6.03405445e+00 5.47619166e+00 4.87589873e+00 4.45800106e+00 4.07150127e+00 3.81479551e+00 3.51697484e+00 3.36682643e+00 3.19752896e+00 3.10644366e+00 3.13551537e+00 3.21286349e+00 3.34058599e+00 3.53242039e+00 3.79100019e+00 4.05696693e+00 4.46221720e+00 4.93365409e+00 5.44772495e+00 6.92389005e+00 6.26314983e+00 5.68336809e+00 5.15679522e+00 4.69062012e+00 4.27666418e+00 3.93976535e+00 3.72170951e+00 3.51476050e+00 3.36726350e+00 3.26318701e+00 3.29025346e+00 3.33450116e+00 3.46562179e+00 3.67932253e+00 3.86939850e+00 4.22280344e+00 4.54643873e+00 4.98258833e+00 5.47772620e+00 7.15927718e+00 6.48169750e+00 5.92560211e+00 5.39012490e+00 4.91923090e+00 4.44209708e+00 4.13892317e+00 3.91309637e+00 3.66414879e+00 3.51850364e+00 3.41973443e+00 3.40748831e+00 3.50073459e+00 3.58147779e+00 3.70034953e+00 3.99596801e+00 4.34195559e+00 4.69524311e+00 5.10158345e+00 5.59594081e+00 7.46521169e+00 6.80303002e+00 6.18874029e+00 5.64418616e+00 5.13161888e+00 4.75879605e+00 4.35722437e+00 4.15811134e+00 3.87096325e+00 3.69429348e+00 3.61528784e+00 3.57097621e+00 3.61255521e+00 3.76229632e+00 3.91225046e+00 4.14798076e+00 4.45553668e+00 4.73754426e+00 5.24210120e+00 5.72298294e+00
        </DataArray>
      </PointData>
    </Piece>
  </ImageData>
</VTKFile>
