<?xml version="1.0"?>
<VTKFile type="ImageData" version="0.1" byte_order="LittleEndian">
  <ImageData WholeExtent="0 19 0 19 0 0" Origin="0 0 0" Spacing="1 1 1">
    <Piece Extent="0 19 0 19 0 0">
      <PointData Scalars="Loss">
        <DataArray type="Float64" Name="Loss" format="ascii">
          3.92440928e+00 3.62411055e+00 3.34539133e+00 3.09509886e+00 2.87449013e+00 2.72292602e+00 2.61208982e+00 2.55771490e+00 2.47813522e+00 2.56559428e+00 2.64580235e+00 2.72970232e+00 2.88064184e+00 3.08410524e+00 3.31967775e+00 3.62852573e+00 3.92670269e+00 4.33456336e+00 4.81531156e+00 5.24145807e+00 3.84832885e+00 3.52026567e+00 3.23948424e+00 2.93313125e+00 2.78673263e+00 2.61191518e+00 2.50941866e+00 2.40504627e+00 2.36465436e+00 2.41792133e+00 2.47496896e+00 2.57664820e+00 2.73322322e+00 2.93039572e+00 3.18284288e+00 3.44213308e+00 3.75150157e+00 4.12994262e+00 4.57219248e+00 5.02848337e+00 3.79942332e+00 3.43581802e+00 3.18203131e+00 2.90548944e+00 2.67356318e+00 2.52022351e+00 2.39987010e+00 2.31561218e+00 2.26834769e+00 2.27555085e+00 2.35298201e+00 2.45395707e+00 2.57167371e+00 2.78577097e+00 3.01218251e+00 3.24085100e+00 3.62103447e+00 3.99564759e+00 4.36348173e+00 4.86337321e+00 3.73286031e+00 3.40526365e+00 3.10617488e+00 2.81308448e+00 2.59096529e+00 2.41670716e+00 2.29822814e+00 2.23039138e+00 2.16418263e+00 2.17598303e+00 2.22249638e+00 2.30742714e+00 2.43358723e+00 2.63696927e+00 2.84410727e+00 3.10906968e+00 3.44096969e+00 3.79565479e+00 4.18243308e+00 4.66471571e+00 3.73352554e+00 3.36761092e+00 3.04524587e+00 2.76736845e+00 2.53374775e+00 2.36267993e+00 2.22918416e+00 2.13043784e+00 2.09324380e+00 2.09842239e+00 2.12361966e+00 2.21109282e+00 2.33833863e+00 2.50976442e+00 2.72143659e+00 2.99479929e+00 3.26636371e+00 3.65234877e+00 3.98246492e+00 4.48422545e+00 3.71387414e+00 3.34938701e+00 3.02493054e+00 2.76478223e+00 2.50483914e+00 2.30462640e+00 2.17709374e+00 2.10095333e+00 2.02568554e+00 1.97559939e+00 2.03255252e+00 2.09523407e+00 2.20661372e+00 2.42779773e+00 2.62687541e+00 2.89038731e+00 3.17495861e+00 3.52414805e+00 3.93459284e+00 4.29425859e+00 3.73960069e+00 3.32517722e+00 2.99520217e+00 2.73642888e+00 2.51702681e+00 2.31135817e+00 2.14388356e+00 2.02959489e+00 1.98317499e+00 1.92999996e+00 1.97577980e+00 2.05367908e+00 2.16750439e+00 2.29424198e+00 2.53199240e+00 2.73665859e+00 3.05211611e+00 3.41517044e+00 3.76039689e+00 4.22128465e+00 3.73341067e+00 3.36518920e+00 3.00882836e+00 2.74306452e+00 2.47212634e+00 2.26786325e+00 2.10945161e+00 2.00521618e+00 1.94056871e+00 1.91045231e+00 1.92352608e+00 1.99023514e+00 2.07519114e+00 2.22721928e+00 2.42501465e+00 2.66914330e+00 2.95398385e+00 3.32882411e+00 3.66661125e+00 4.08906939e+00 3.76362673e+00 3.38873225e+00 3.02210674e+00 2.72255824e+00 2.52699857e+00 2.25260673e+00 2.09956069e+00 1.97343675e+00 1.90782257e+00 1.87878133e+00 1.88640873e+00 1.95096747e+00 2.07072806e+00 2.18071921e+00 2.35399149e+00 2.59749752e+00 2.87919202e+00 3.18934820e+00 3.57474379e+00 3.96376304e+00 3.83203160e+00 3.46209596e+00 3.06185588e+00 2.76565900e+00 2.51315283e+00 2.32127684e+00 2.13981586e+00 2.01181353e+00 1.94907591e+00 2.00204771e+00 1.98772065e+00 1.89383103e+00 2.03636624e+00 2.17752081e+00 2.29412298e+00 2.55985837e+00 2.81374340e+00 3.11708917e+00 3.49236591e+00 3.87588667e+00 3.88397509e+00 3.47825612e+00 3.15972497e+00 2.80438622e+00 2.54435790e+00 2.32464490e+00 2.16825487e+00 2.00856786e+00 1.93088844e+00 1.98988170e+00 1.97037085e+00 1.92196626e+00 1.97828029e+00 2.15080144e+00 2.32105783e+00 2.53014399e+00 2.74256658e+00 3.06426407e+00 3.40768667e+00 3.85306773e+00 3.97599371e+00 3.60170010e+00 3.19553171e+00 2.90787953e+00 2.61835316e+00 2.38521788e+00 2.18716535e+00 2.02876417e+00 1.90952291e+00 1.87905658e+00 1.88717669e+00 1.88153868e+00 2.02026785e+00 2.13803331e+00 2.27732324e+00 2.46918522e+00 2.78059987e+00 3.04857836e+00 3.40832292e+00 3.77721505e+00 4.05939437e+00 3.65208958e+00 3.31010553e+00 2.96219407e+00 2.67586997e+00 2.44774653e+00 2.25240289e+00 2.09841270e+00 1.98850585e+00 1.91679223e+00 1.90420597e+00 1.93484407e+00 1.99152615e+00 2.13128698e+00 2.24497349e+00 2.48096039e+00 2.75948133e+00 3.00820254e+00 3.36295342e+00 3.75809134e+00 4.19917556e+00 3.74618737e+00 3.41135324e+00 3.03212343e+00 2.75334295e+00 2.53010141e+00 2.30375266e+00 2.17341333e+00 2.07650751e+00 1.97933929e+00 1.96900807e+00 1.96722733e+00 2.03393214e+00 2.13948386e+00 2.26979031e+00 2.46042406e+00 2.72392340e+00 3.01355351e+00 3.35407550e+00 3.71885003e+00 4.37481823e+00 3.87485813e+00 3.51929382e+00 3.16880618e+00 2.91485947e+00 2.60218596e+00 2.40056568e+00 2.21551582e+00 2.11486976e+00 2.04712723e+00 2.01988852e+00 2.02483243e+00 2.04493464e+00 2.15843614e+00 2.33011814e+00 2.51174089e+00 2.77362202e+00 3.03619643e+00 3.34655384e+00 3.71814914e+00 4.46042155e+00 4.04234916e+00 3.67874511e+00 3.28651161e+00 2.98929112e+00 2.74170108e+00 2.50549039e+00 2.32754552e+00 2.20760656e+00 2.12526902e+00 2.09836215e+00 2.09088024e+00 2.12238886e+00 2.21598586e+00 2.33222687e+00 2.57047623e+00 2.76998270e+00 3.04601664e+00 3.36223691e+00 3.71360197e+00 4.63746091e+00 4.20520710e+00 3.82659780e+00 3.42355017e+00 3.11075481e+00 2.85886461e+00 2.60110341e+00 2.44730310e+00 2.32774387e+00 2.22034344e+00 2.18062404e+00 2.19160812e+00 2.22720584e+00 2.27999889e+00 2.46154748e+00 2.59904979e+00 2.84851386e+00 3.13759306e+00 3.40917571e+00 3.73206839e+00 4.82198783e+00 4.35653714e+00 3.93873940e+00 3.61195921e+00 3.29636255e+00 3.00616081e+00 2.74476001e+00 2.57280246e+00 2.45058690e+00 2.35682495e+00 2.28735584e+00 2.25806160e+00 2.32463477e+00 2.41216457e+00 2.51964611e+00 2.67445355e+00 2.88529224e+00 3.16145104e+00 3.45440913e+00 3.80670129e+00 5.03709038e+00 4.58139769e+00 4.16547501e+00 3.81041124e+00 3.43072269e+00 3.18355929e+00 2.91838438e+00 2.73355820e+00 2.55536026e+00 2.49976619e+00 2.36615646e+00 2.41503441e+00 2.45098633e+00 2.52411601e+00 2.63322141e+00 2.77693064e+00 2.97395821e+00 3.23914997e+00 3.53463815e+00 3.85142769e+00 5.25527907e+00 4.73625391e+00 4.35048684e+00 3.96971045e+00 3.62542805e+00 3.39100308e+00 3.08646598e+00 2.86429039e+00 2.72118545e+00 2.66998665e+00 2.54418157e+00 2.51233891e+00 2.53892805e+00 2.61082718e+00 2.70420241e+00 2.86465327e+00 3.08089760e+00 3.30881190e+00 3.63135373e+00 3.91942441e+00
        </DataArray>
      </PointData>
    </Piece>
  </ImageData>
</VTKFile>
