<?xml version="1.0"?>
<VTKFile type="ImageData" version="0.1" byte_order="LittleEndian">
  <ImageData WholeExtent="0 19 0 19 0 0" Origin="0 0 0" Spacing="1 1 1">
    <Piece Extent="0 19 0 19 0 0">
      <PointData Scalars="Loss">
        <DataArray type="Float64" Name="Loss" format="ascii">
          6.98004890e+00 6.41280433e+00 5.84640265e+00 5.38843174e+00 5.06649030e+00 4.69126101e+00 4.48974355e+00 4.33257687e+00 4.25329461e+00 4.29280669e+00 4.41465755e+00 4.63460150e+00 4.85717270e+00 5.10825310e+00 5.51521038e+00 5.97716332e+00 6.53207336e+00 7.17583113e+00 7.89527681e+00 8.63767052e+00 6.85034187e+00 6.17595933e+00 5.66244992e+00 5.20092755e+00 4.80807712e+00 4.53113100e+00 4.32219931e+00 4.16365391e+00 4.07833921e+00 4.08412815e+00 4.19655003e+00 4.28517007e+00 4.58778147e+00 4.86154241e+00 5.18540170e+00 5.63626175e+00 6.30599977e+00 6.85137392e+00 7.65592118e+00 8.30389501e+00 6.80268308e+00 6.03469044e+00 5.52043505e+00 5.05756002e+00 4.68865970e+00 4.38940139e+00 4.11323722e+00 3.89393760e+00 3.90163146e+00 3.86852130e+00 3.90813178e+00 4.09317679e+00 4.32644630e+00 4.60066457e+00 5.01011713e+00 5.42383228e+00 5.97066402e+00 6.62613194e+00 7.27480813e+00 7.99504781e+00 6.61946659e+00 5.95680864e+00 5.41917587e+00 4.90674117e+00 4.49337863e+00 4.18732879e+00 3.98810399e+00 3.79072928e+00 3.73366597e+00 3.70649152e+00 3.78003207e+00 3.85466751e+00 4.09787675e+00 4.45765206e+00 4.75809801e+00 5.18494900e+00 5.70229654e+00 6.36827055e+00 7.02266434e+00 7.76287562e+00 6.56841128e+00 5.85539239e+00 5.37784828e+00 4.85801913e+00 4.44579202e+00 4.15605345e+00 3.86335635e+00 3.60531731e+00 3.59832783e+00 3.58015819e+00 3.66622902e+00 3.74697101e+00 3.89822533e+00 4.18474134e+00 4.64956617e+00 4.98038955e+00 5.53572623e+00 6.10111236e+00 6.78063839e+00 7.54077848e+00 6.49580128e+00 5.81469780e+00 5.32880117e+00 4.77040487e+00 4.39422541e+00 4.01709149e+00 3.76592700e+00 3.56158964e+00 3.46883689e+00 3.42424776e+00 3.46001252e+00 3.58904331e+00 3.80407384e+00 4.03337794e+00 4.40481404e+00 4.82134780e+00 5.34054176e+00 5.95946890e+00 6.60738620e+00 7.32454231e+00 6.50145354e+00 5.79027273e+00 5.24945722e+00 4.78863257e+00 4.32113440e+00 3.95803008e+00 3.64219301e+00 3.53931239e+00 3.37812297e+00 3.32093414e+00 3.33199046e+00 3.50073280e+00 3.64428984e+00 3.93754947e+00 4.22435615e+00 4.63964781e+00 5.15564483e+00 5.70707439e+00 6.33557827e+00 7.19183741e+00 6.43928596e+00 5.78622440e+00 5.21266230e+00 4.70282161e+00 4.30691909e+00 3.96953886e+00 3.63392326e+00 3.40608113e+00 3.26918905e+00 3.24708103e+00 3.29266383e+00 3.36546786e+00 3.53710705e+00 3.84260643e+00 4.12198719e+00 4.59011475e+00 5.02724476e+00 5.63075467e+00 6.19037672e+00 6.96151170e+00 6.50155108e+00 5.88766242e+00 5.30822340e+00 4.70525559e+00 4.23635682e+00 3.88209149e+00 3.58430796e+00 3.37951037e+00 3.25248050e+00 3.14617984e+00 3.21207384e+00 3.25270628e+00 3.47386401e+00 3.72863562e+00 4.06335828e+00 4.43668531e+00 4.89775357e+00 5.48898213e+00 6.09724808e+00 6.81967174e+00 6.55744449e+00 5.92664924e+00 5.31104718e+00 4.80216288e+00 4.27938530e+00 3.91819812e+00 3.66757186e+00 3.35342511e+00 3.25045550e+00 2.93179469e+00 2.92969674e+00 3.23952732e+00 3.44798280e+00 3.66344982e+00 3.97101073e+00 4.32956870e+00 4.81276786e+00 5.39343343e+00 6.03022822e+00 6.70494692e+00 6.66474701e+00 6.05115460e+00 5.33197250e+00 4.85007207e+00 4.35904785e+00 3.97705588e+00 3.66138633e+00 3.36792724e+00 3.28387075e+00 2.91064924e+00 2.88090411e+00 3.21773582e+00 3.41139258e+00 3.61222435e+00 4.01901808e+00 4.28658947e+00 4.77624139e+00 5.27931652e+00 5.90141777e+00 6.59539810e+00 6.75576739e+00 6.09298584e+00 5.46203049e+00 4.94243242e+00 4.42932772e+00 4.05191341e+00 3.70747587e+00 3.48579457e+00 3.27894184e+00 3.18157297e+00 3.16676418e+00 3.21942190e+00 3.44247285e+00 3.52389888e+00 3.85832480e+00 4.34689164e+00 4.73078338e+00 5.21244011e+00 5.81594691e+00 6.52826121e+00 7.00431128e+00 6.28535245e+00 5.53713942e+00 5.05060083e+00 4.49780431e+00 4.16484977e+00 3.80198113e+00 3.57053556e+00 3.31663282e+00 3.23386591e+00 3.23800164e+00 3.32765510e+00 3.42471513e+00 3.62995010e+00 3.92621583e+00 4.24254844e+00 4.76600960e+00 5.22507829e+00 5.84665724e+00 6.46400022e+00 7.08528205e+00 6.38408023e+00 5.68795521e+00 5.13500751e+00 4.70802770e+00 4.24369863e+00 3.91273441e+00 3.61389433e+00 3.46041019e+00 3.35452042e+00 3.26964869e+00 3.35040329e+00 3.46942275e+00 3.67340187e+00 3.94860800e+00 4.30310964e+00 4.71467129e+00 5.22271448e+00 5.89329653e+00 6.47958517e+00 7.32263160e+00 6.55900213e+00 5.95548862e+00 5.32781014e+00 4.89871366e+00 4.37511270e+00 4.05008911e+00 3.80590608e+00 3.57672207e+00 3.46936200e+00 3.42585215e+00 3.48725224e+00 3.55022055e+00 3.77809883e+00 4.05468464e+00 4.36109832e+00 4.77715343e+00 5.23473508e+00 5.81303791e+00 6.47475685e+00 7.46266064e+00 6.78296888e+00 6.15155035e+00 5.48755519e+00 5.04090655e+00 4.62889478e+00 4.21365507e+00 3.94482029e+00 3.68142615e+00 3.62423720e+00 3.56742339e+00 3.52795264e+00 3.68932521e+00 3.88130488e+00 4.14567581e+00 4.39550380e+00 4.85290246e+00 5.33055928e+00 5.94239610e+00 6.50753189e+00 7.72894642e+00 7.00515033e+00 6.35334026e+00 5.75605065e+00 5.21376392e+00 4.79743915e+00 4.39190307e+00 4.14503382e+00 3.87640674e+00 3.74712261e+00 3.68226888e+00 3.71792457e+00 3.79813131e+00 3.98623306e+00 4.18214806e+00 4.53382321e+00 4.93146717e+00 5.47013683e+00 5.96305043e+00 6.56732649e+00 8.13235901e+00 7.36164689e+00 6.53474848e+00 6.02175630e+00 5.41009184e+00 5.00294823e+00 4.63747533e+00 4.27381794e+00 4.08649097e+00 3.94547014e+00 3.84696394e+00 3.90086156e+00 3.96566117e+00 4.14137596e+00 4.32357128e+00 4.67127900e+00 5.08118540e+00 5.49398898e+00 6.06974888e+00 6.76458597e+00 8.30897271e+00 7.53089095e+00 6.83304596e+00 6.24321906e+00 5.73565628e+00 5.24269746e+00 4.87015978e+00 4.53322842e+00 4.30271182e+00 4.12421249e+00 4.13142046e+00 4.03594015e+00 4.24261136e+00 4.28347107e+00 4.55269723e+00 4.90498348e+00 5.20776971e+00 5.69648608e+00 6.18954757e+00 6.83668031e+00 8.68350249e+00 7.85537488e+00 7.20082989e+00 6.51437593e+00 5.98159979e+00 5.58411204e+00 5.16026493e+00 4.83565162e+00 4.58510530e+00 4.36294445e+00 4.36212039e+00 4.30992073e+00 4.36208780e+00 4.56241496e+00 4.69310010e+00 5.05040656e+00 5.35446969e+00 5.82310828e+00 6.38077685e+00 6.98706841e+00
        </DataArray>
      </PointData>
    </Piece>
  </ImageData>
</VTKFile>
