<?xml version="1.0"?>
<VTKFile type="ImageData" version="0.1" byte_order="LittleEndian">
  <ImageData WholeExtent="0 19 0 19 0 0" Origin="0 0 0" Spacing="1 1 1">
    <Piece Extent="0 19 0 19 0 0">
      <PointData Scalars="Loss">
        <DataArray type="Float64" Name="Loss" format="ascii">
          3.57170455e+00 3.27312516e+00 3.01559530e+00 2.80789981e+00 2.67932764e+00 2.50993807e+00 2.43528414e+00 2.38023080e+00 2.35926146e+00 2.39885786e+00 2.44408837e+00 2.59989117e+00 2.70568531e+00 2.93073055e+00 3.14941306e+00 3.44172909e+00 3.73447204e+00 4.08894107e+00 4.47065174e+00 4.94128121e+00 3.48447171e+00 3.17457373e+00 2.94335270e+00 2.70987866e+00 2.55841928e+00 2.42336062e+00 2.30623518e+00 2.28422818e+00 2.21372819e+00 2.25829451e+00 2.34059808e+00 2.41931423e+00 2.54889250e+00 2.71782712e+00 3.01822895e+00 3.26602053e+00 3.57247371e+00 3.90011948e+00 4.27562896e+00 4.72416937e+00 3.41136002e+00 3.11872329e+00 2.90665231e+00 2.64217941e+00 2.44639331e+00 2.30867475e+00 2.20027280e+00 2.14010767e+00 2.12337831e+00 2.12462421e+00 2.19499370e+00 2.29518160e+00 2.43212720e+00 2.63480174e+00 2.80899835e+00 3.07986702e+00 3.39179061e+00 3.70628808e+00 4.09622661e+00 4.49149992e+00 3.40413189e+00 3.08519521e+00 2.81657422e+00 2.54523407e+00 2.39992333e+00 2.23669243e+00 2.11884427e+00 2.05452130e+00 2.02989006e+00 2.02930773e+00 2.09596502e+00 2.14690941e+00 2.30902637e+00 2.44866045e+00 2.70724532e+00 2.90936093e+00 3.22428116e+00 3.51852616e+00 3.91676558e+00 4.31805263e+00 3.34621158e+00 3.06716011e+00 2.77106584e+00 2.49998510e+00 2.32000056e+00 2.15466803e+00 2.04844375e+00 1.94707584e+00 1.92488329e+00 1.91199304e+00 1.98625491e+00 2.07003237e+00 2.19086932e+00 2.35442714e+00 2.53715512e+00 2.79178572e+00 3.09515169e+00 3.37881076e+00 3.75158062e+00 4.17722873e+00 3.34106884e+00 3.05461912e+00 2.74259145e+00 2.51274837e+00 2.31474744e+00 2.13159703e+00 1.99366780e+00 1.95459158e+00 1.85626672e+00 1.86866504e+00 1.90391697e+00 2.00124264e+00 2.06607788e+00 2.22700882e+00 2.42366919e+00 2.65711204e+00 2.92926246e+00 3.28573315e+00 3.64126351e+00 3.99894884e+00 3.35324924e+00 3.02945726e+00 2.72804278e+00 2.48025674e+00 2.28419582e+00 2.10374107e+00 1.95579018e+00 1.83949206e+00 1.79282244e+00 1.82059544e+00 1.84969196e+00 1.90471879e+00 2.02280844e+00 2.12120910e+00 2.32390292e+00 2.54778350e+00 2.81370491e+00 3.12361624e+00 3.48830132e+00 3.86125515e+00 3.39805186e+00 3.03556478e+00 2.72064174e+00 2.47846101e+00 2.23876455e+00 2.06304922e+00 1.93324705e+00 1.83621809e+00 1.76611581e+00 1.74280508e+00 1.78214250e+00 1.82455000e+00 1.90348238e+00 2.07533665e+00 2.25209559e+00 2.46969365e+00 2.75734247e+00 3.01373516e+00 3.38654294e+00 3.77174521e+00 3.44122482e+00 3.09635250e+00 2.78683213e+00 2.49477468e+00 2.27643864e+00 2.08829809e+00 1.92856733e+00 1.82779341e+00 1.75419949e+00 1.74945097e+00 1.72530162e+00 1.81601743e+00 1.85183732e+00 2.00630650e+00 2.19007446e+00 2.41066617e+00 2.62653730e+00 2.95445939e+00 3.25130964e+00 3.64145168e+00 3.47987876e+00 3.16433545e+00 2.84123549e+00 2.52851090e+00 2.29694593e+00 2.10554853e+00 1.95565910e+00 1.81604840e+00 1.75758188e+00 1.87862343e+00 1.89051289e+00 1.77521322e+00 1.84997546e+00 1.98623954e+00 2.12401395e+00 2.33384410e+00 2.61765047e+00 2.84240954e+00 3.20544318e+00 3.56786836e+00 3.53074026e+00 3.20544247e+00 2.87105857e+00 2.61052878e+00 2.33679338e+00 2.11798146e+00 1.95647883e+00 1.88867932e+00 1.76032887e+00 1.89727283e+00 1.86596506e+00 1.76780204e+00 1.80297359e+00 1.93972429e+00 2.11368386e+00 2.28038796e+00 2.53863058e+00 2.80414908e+00 3.14205251e+00 3.46682029e+00 3.66584257e+00 3.27878232e+00 2.96244565e+00 2.63620990e+00 2.42510063e+00 2.18275754e+00 2.01633846e+00 1.87647859e+00 1.79118594e+00 1.72956485e+00 1.71703432e+00 1.76823193e+00 1.81739969e+00 1.93948639e+00 2.07915694e+00 2.25039673e+00 2.48523298e+00 2.78191760e+00 3.10742775e+00 3.40135672e+00 3.76923466e+00 3.34871661e+00 3.01093829e+00 2.74462944e+00 2.46947791e+00 2.22767648e+00 2.08619407e+00 1.92449726e+00 1.83805394e+00 1.77018640e+00 1.75744780e+00 1.76964513e+00 1.85030261e+00 1.94130268e+00 2.09024832e+00 2.28413508e+00 2.47032352e+00 2.75217706e+00 3.04140041e+00 3.38399926e+00 3.85137153e+00 3.47689317e+00 3.16573793e+00 2.83107582e+00 2.55835034e+00 2.33381551e+00 2.14582853e+00 2.02004375e+00 1.91556771e+00 1.85164343e+00 1.82377625e+00 1.81105262e+00 1.85744646e+00 1.95035409e+00 2.07542543e+00 2.24695290e+00 2.48611744e+00 2.72575162e+00 3.04494895e+00 3.35507603e+00 4.06290196e+00 3.64362223e+00 3.23822154e+00 2.94655127e+00 2.64701735e+00 2.40661113e+00 2.22673578e+00 2.09110977e+00 1.98164181e+00 1.85605228e+00 1.86154003e+00 1.85846718e+00 1.90793513e+00 2.01315477e+00 2.14507899e+00 2.29510593e+00 2.50729301e+00 2.76689750e+00 3.03620142e+00 3.35344364e+00 4.15475421e+00 3.75599927e+00 3.37092255e+00 3.06231431e+00 2.78585727e+00 2.55656205e+00 2.33327923e+00 2.18316989e+00 2.04043636e+00 1.99012634e+00 1.90759620e+00 1.94752016e+00 1.97207393e+00 2.03221619e+00 2.15261141e+00 2.33354814e+00 2.54016688e+00 2.75182909e+00 3.03875245e+00 3.37165462e+00 4.35359703e+00 3.91713201e+00 3.60724123e+00 3.21184950e+00 2.90570137e+00 2.64784653e+00 2.48325219e+00 2.30872163e+00 2.20117677e+00 2.08465540e+00 2.02801268e+00 2.02139542e+00 2.04887131e+00 2.11649615e+00 2.23599929e+00 2.38621441e+00 2.57337902e+00 2.80407042e+00 3.07574480e+00 3.39005106e+00 4.54141941e+00 4.07298814e+00 3.70730735e+00 3.37475356e+00 3.08276195e+00 2.83118890e+00 2.59911978e+00 2.44629639e+00 2.29360077e+00 2.19715987e+00 2.14650946e+00 2.08266910e+00 2.16032305e+00 2.19494852e+00 2.31972322e+00 2.45745430e+00 2.63311203e+00 2.84250140e+00 3.10856433e+00 3.47263509e+00 4.71362334e+00 4.30109886e+00 3.91105901e+00 3.55020532e+00 3.23188584e+00 2.98563575e+00 2.77947079e+00 2.55884601e+00 2.44407945e+00 2.35846908e+00 2.24787942e+00 2.24154278e+00 2.25359950e+00 2.30344709e+00 2.41706413e+00 2.54671460e+00 2.72487025e+00 2.93191286e+00 3.19584904e+00 3.49576835e+00 4.93900836e+00 4.51796162e+00 4.10757483e+00 3.73166048e+00 3.46668316e+00 3.12317606e+00 2.92048239e+00 2.73411083e+00 2.58879880e+00 2.47362448e+00 2.43342844e+00 2.32570407e+00 2.38727541e+00 2.43567355e+00 2.54607881e+00 2.63661466e+00 2.78915658e+00 3.04836682e+00 3.25976507e+00 3.56087910e+00
        </DataArray>
      </PointData>
    </Piece>
  </ImageData>
</VTKFile>
