<?xml version="1.0"?>
<VTKFile type="ImageData" version="0.1" byte_order="LittleEndian">
  <ImageData WholeExtent="0 19 0 19 0 0" Origin="0 0 0" Spacing="1 1 1">
    <Piece Extent="0 19 0 19 0 0">
      <PointData Scalars="Loss">
        <DataArray type="Float64" Name="Loss" format="ascii">
          7.50072048e+00 6.83010283e+00 6.35941715e+00 5.83193932e+00 5.41386234e+00 5.19676104e+00 4.94018268e+00 4.82803513e+00 4.75993413e+00 4.84402492e+00 4.95294506e+00 5.13509731e+00 5.49894466e+00 5.82063473e+00 6.27887151e+00 6.83558650e+00 7.46058334e+00 8.21817704e+00 9.03341076e+00 9.95054764e+00 7.37061715e+00 6.72184926e+00 6.12333427e+00 5.68058815e+00 5.20294761e+00 5.00841413e+00 4.79671373e+00 4.66083569e+00 4.48542747e+00 4.56083632e+00 4.65049138e+00 4.86045319e+00 5.12091537e+00 5.46817333e+00 5.93201563e+00 6.50565649e+00 7.10858149e+00 7.85116820e+00 8.64461633e+00 9.50099831e+00 7.25842571e+00 6.57036475e+00 5.96971278e+00 5.53195640e+00 5.08688282e+00 4.75007976e+00 4.56688866e+00 4.43234989e+00 4.39501880e+00 4.27929475e+00 4.41380525e+00 4.67565843e+00 4.88733082e+00 5.28347010e+00 5.68086638e+00 6.22560248e+00 6.76823630e+00 7.51109586e+00 8.30640510e+00 9.17186776e+00 7.17548043e+00 6.55845709e+00 5.92422148e+00 5.43409544e+00 4.95891666e+00 4.68403942e+00 4.42032276e+00 4.24360850e+00 4.20035526e+00 4.14455521e+00 4.15574573e+00 4.33311054e+00 4.68126134e+00 4.94546627e+00 5.43776795e+00 5.98699777e+00 6.52162313e+00 7.28190119e+00 7.98392526e+00 8.76267362e+00 7.12291145e+00 6.44556618e+00 5.83527231e+00 5.32374894e+00 4.88759077e+00 4.62367518e+00 4.23659049e+00 4.05692572e+00 3.93261832e+00 3.93365889e+00 4.00220704e+00 4.17134939e+00 4.44315656e+00 4.75507669e+00 5.16741405e+00 5.63631004e+00 6.27246398e+00 7.00075880e+00 7.71544919e+00 8.52703780e+00 7.13631750e+00 6.39103803e+00 5.78103422e+00 5.29503456e+00 4.77758120e+00 4.47780340e+00 4.16383483e+00 3.94400685e+00 3.86362288e+00 3.79629569e+00 3.90363450e+00 3.98251423e+00 4.25223679e+00 4.60766929e+00 4.95200006e+00 5.46497583e+00 5.96777779e+00 6.64997926e+00 7.49913261e+00 8.32269609e+00 7.10042705e+00 6.47137015e+00 5.75984353e+00 5.29430798e+00 4.75060003e+00 4.36604756e+00 4.09331281e+00 3.82983669e+00 3.72067558e+00 3.72358253e+00 3.77210819e+00 3.93799652e+00 4.07161199e+00 4.36611962e+00 4.74840419e+00 5.22679462e+00 5.82029931e+00 6.51208895e+00 7.19888482e+00 8.09511496e+00 7.16028527e+00 6.45535678e+00 5.80031335e+00 5.20734122e+00 4.71890481e+00 4.34274817e+00 4.07193201e+00 3.82239943e+00 3.64169045e+00 3.53544342e+00 3.66163661e+00 3.76270566e+00 3.94985159e+00 4.28129878e+00 4.55961199e+00 5.10848610e+00 5.67825684e+00 6.26509879e+00 7.02860489e+00 7.79209136e+00 7.28379762e+00 6.50531156e+00 5.86959062e+00 5.27313293e+00 4.74139545e+00 4.42224300e+00 4.07258929e+00 3.77261370e+00 3.67033385e+00 3.61642877e+00 3.61771782e+00 3.68870013e+00 3.85942219e+00 4.13865182e+00 4.51252200e+00 4.92063123e+00 5.49969351e+00 6.09919011e+00 6.84234868e+00 7.65086976e+00 7.33824387e+00 6.58637082e+00 5.92059003e+00 5.34145336e+00 4.79847805e+00 4.39033233e+00 3.97866673e+00 3.82167849e+00 3.64149125e+00 3.25229860e+00 3.19825913e+00 3.68451842e+00 3.84970958e+00 4.11366952e+00 4.45561072e+00 4.88091106e+00 5.35825312e+00 5.96879204e+00 6.67665301e+00 7.42282564e+00 7.42475158e+00 6.65998358e+00 6.01982014e+00 5.42571046e+00 4.89935364e+00 4.42592213e+00 4.08292786e+00 3.83623174e+00 3.68715337e+00 3.21581282e+00 3.18136862e+00 3.64802516e+00 3.82683557e+00 4.04790086e+00 4.39637230e+00 4.83642513e+00 5.37391630e+00 5.85701917e+00 6.58529405e+00 7.35051480e+00 7.62449557e+00 6.79640335e+00 6.20315149e+00 5.50827578e+00 4.94442549e+00 4.56480930e+00 4.21499334e+00 3.88462826e+00 3.66200922e+00 3.61700140e+00 3.58315394e+00 3.59151413e+00 3.80047604e+00 4.06561750e+00 4.36587557e+00 4.79714321e+00 5.27277542e+00 5.75558803e+00 6.49345447e+00 7.30027218e+00 7.83021622e+00 7.03590714e+00 6.22606380e+00 5.64944340e+00 5.02690925e+00 4.65741477e+00 4.29284520e+00 3.93045619e+00 3.80248318e+00 3.66855632e+00 3.60497363e+00 3.69311015e+00 3.81451973e+00 3.98285965e+00 4.33339495e+00 4.72272619e+00 5.26953582e+00 5.80502572e+00 6.44714523e+00 7.18496054e+00 7.99870660e+00 7.21694385e+00 6.46018501e+00 5.85648698e+00 5.28844831e+00 4.82381074e+00 4.35596698e+00 4.15764819e+00 3.87222984e+00 3.79147164e+00 3.67915169e+00 3.75348231e+00 3.88713791e+00 4.02645336e+00 4.38768418e+00 4.76007023e+00 5.25224181e+00 5.74051202e+00 6.48562751e+00 7.14354934e+00 8.24497429e+00 7.37987489e+00 6.68040171e+00 6.08896442e+00 5.41855029e+00 4.93009459e+00 4.57284838e+00 4.26075401e+00 4.09367709e+00 3.88797379e+00 3.86117910e+00 3.87539022e+00 3.98257684e+00 4.08743410e+00 4.55702331e+00 4.79336158e+00 5.24335712e+00 5.74415742e+00 6.42065973e+00 7.15599624e+00 8.57574407e+00 7.72495454e+00 6.93858005e+00 6.26735326e+00 5.66198373e+00 5.16511610e+00 4.80992292e+00 4.47674851e+00 4.20287555e+00 4.09787619e+00 4.00283554e+00 3.97164307e+00 4.09581863e+00 4.29171729e+00 4.58292937e+00 4.88197907e+00 5.33172356e+00 5.80093691e+00 6.48914028e+00 7.16333173e+00 8.84552405e+00 7.98378021e+00 7.16256739e+00 6.55976283e+00 5.93278582e+00 5.41878676e+00 4.98351033e+00 4.65183661e+00 4.35578548e+00 4.24911306e+00 4.06655272e+00 4.13522999e+00 4.24534013e+00 4.30510745e+00 4.60280322e+00 4.97450622e+00 5.41354824e+00 5.94289477e+00 6.48406067e+00 7.20534474e+00 9.18639936e+00 8.31015512e+00 7.47310227e+00 6.84679823e+00 6.21815882e+00 5.69778209e+00 5.24771145e+00 4.86497269e+00 4.56959316e+00 4.43693237e+00 4.32891354e+00 4.35464506e+00 4.37274619e+00 4.56214910e+00 4.78569199e+00 5.13326658e+00 5.51416206e+00 6.03589857e+00 6.57509140e+00 7.26370591e+00 9.47680487e+00 8.64220869e+00 7.88854126e+00 7.16412645e+00 6.53694481e+00 6.03478685e+00 5.45079476e+00 5.15538436e+00 4.92446548e+00 4.66142299e+00 4.54564465e+00 4.55794141e+00 4.52159278e+00 4.70768365e+00 5.00486686e+00 5.29591771e+00 5.62309926e+00 6.16614782e+00 6.71555999e+00 7.32417010e+00 9.96554433e+00 9.00485273e+00 8.21089608e+00 7.46376265e+00 6.81817470e+00 6.24292566e+00 5.89932447e+00 5.48875257e+00 5.16664219e+00 4.93272419e+00 4.87446614e+00 4.78073258e+00 4.82595845e+00 4.95378222e+00 5.18716151e+00 5.47648481e+00 5.84834902e+00 6.21013802e+00 6.88116449e+00 7.51898114e+00
        </DataArray>
      </PointData>
    </Piece>
  </ImageData>
</VTKFile>
