<?xml version="1.0"?>
<VTKFile type="ImageData" version="0.1" byte_order="LittleEndian">
  <ImageData WholeExtent="0 19 0 19 0 0" Origin="0 0 0" Spacing="1 1 1">
    <Piece Extent="0 19 0 19 0 0">
      <PointData Scalars="Loss">
        <DataArray type="Float64" Name="Loss" format="ascii">
          6.44673330e+00 5.74771983e+00 5.18734227e+00 4.77976744e+00 4.32991082e+00 4.05406836e+00 3.93732448e+00 3.79488735e+00 3.71889256e+00 3.88981031e+00 3.96281593e+00 4.27080670e+00 4.61526097e+00 5.10719547e+00 5.58316977e+00 6.12811348e+00 6.89421296e+00 7.65100718e+00 8.61560305e+00 9.55383003e+00 6.54656198e+00 5.85260514e+00 5.27896014e+00 4.79508066e+00 4.38409120e+00 4.04865654e+00 3.90621904e+00 3.81103421e+00 3.66410668e+00 3.85276975e+00 3.96074481e+00 4.21327278e+00 4.56903814e+00 4.95611069e+00 5.44835802e+00 6.07819430e+00 6.71642441e+00 7.54851307e+00 8.40967210e+00 9.39682436e+00 6.68619627e+00 6.06014468e+00 5.36067393e+00 4.92072380e+00 4.39499016e+00 4.19085412e+00 3.98107384e+00 3.84721926e+00 3.83296541e+00 3.85308952e+00 3.93180550e+00 4.17731666e+00 4.46077222e+00 4.81623747e+00 5.39440187e+00 5.93567146e+00 6.59312093e+00 7.33214526e+00 8.22008831e+00 9.19242639e+00 6.75084388e+00 6.08176258e+00 5.52338645e+00 5.02189829e+00 4.57537962e+00 4.30136180e+00 3.96116073e+00 3.77043545e+00 3.76861604e+00 3.78583305e+00 3.93342179e+00 4.10156995e+00 4.38389537e+00 4.74143405e+00 5.22734684e+00 5.76949781e+00 6.41969897e+00 7.26300537e+00 8.06744753e+00 8.95403372e+00 6.97696869e+00 6.21256591e+00 5.59604399e+00 5.07348806e+00 4.62031773e+00 4.23469949e+00 4.01554440e+00 3.82696192e+00 3.70306106e+00 3.72840233e+00 3.88068256e+00 3.99039612e+00 4.41204025e+00 4.66986077e+00 5.14293731e+00 5.72273432e+00 6.34019327e+00 7.06684332e+00 7.83576873e+00 8.81596009e+00 7.13336887e+00 6.43691397e+00 5.68997222e+00 5.24397354e+00 4.72072020e+00 4.28078103e+00 4.06133874e+00 3.88126819e+00 3.83326569e+00 3.76685460e+00 3.84017589e+00 3.99789070e+00 4.27302611e+00 4.63067678e+00 5.02925238e+00 5.59983563e+00 6.25224874e+00 6.85750561e+00 7.72158408e+00 8.64672668e+00 7.23544376e+00 6.56679732e+00 5.84996938e+00 5.25663135e+00 4.82405690e+00 4.42349214e+00 4.09595835e+00 3.90345587e+00 3.80071539e+00 3.81073279e+00 3.80497533e+00 3.94912361e+00 4.13427640e+00 4.56553406e+00 4.89106539e+00 5.48705307e+00 6.03457411e+00 6.79241011e+00 7.56628569e+00 8.52986433e+00 7.40051446e+00 6.58596721e+00 5.98267084e+00 5.34783135e+00 4.94745862e+00 4.46622963e+00 4.16201499e+00 3.89449768e+00 3.81060400e+00 3.66266814e+00 3.70278556e+00 3.90872312e+00 4.15804730e+00 4.47176723e+00 4.85498635e+00 5.39271271e+00 5.88116477e+00 6.60609672e+00 7.40815977e+00 8.25499633e+00 7.50528756e+00 6.83222578e+00 6.05636021e+00 5.43629419e+00 4.99208590e+00 4.49667727e+00 4.30128752e+00 3.97312007e+00 3.82857958e+00 3.71837099e+00 3.77055301e+00 3.92807125e+00 4.13097677e+00 4.39832459e+00 4.78135052e+00 5.31745859e+00 5.82201196e+00 6.52914170e+00 7.16694351e+00 8.10564374e+00 7.77887268e+00 6.94806296e+00 6.18772445e+00 5.58720918e+00 5.04671266e+00 4.55685785e+00 4.25105990e+00 4.07656992e+00 3.78341100e+00 3.41213464e+00 3.43975133e+00 3.89594949e+00 4.02860510e+00 4.29161862e+00 4.74798197e+00 5.20139307e+00 5.71621530e+00 6.34470020e+00 7.09478385e+00 7.90974954e+00 7.85760760e+00 7.14498650e+00 6.34849714e+00 5.68814352e+00 5.14553393e+00 4.72297056e+00 4.29927650e+00 4.09489692e+00 3.80202882e+00 3.37398841e+00 3.35144944e+00 3.79790385e+00 3.93863677e+00 4.25185976e+00 4.65797890e+00 4.98281167e+00 5.62987941e+00 6.28376653e+00 6.93575010e+00 7.68286571e+00 8.07852110e+00 7.15629172e+00 6.50251777e+00 5.84690147e+00 5.25842220e+00 4.78360282e+00 4.42541673e+00 4.05051572e+00 3.88837562e+00 3.76973689e+00 3.71083496e+00 3.82544107e+00 3.94359206e+00 4.22330832e+00 4.53964709e+00 4.94542600e+00 5.54457540e+00 6.09284267e+00 6.78876332e+00 7.57131324e+00 8.25652344e+00 7.41010408e+00 6.70483832e+00 5.97110291e+00 5.37694523e+00 4.82248970e+00 4.45041928e+00 4.19512890e+00 3.93153589e+00 3.81645573e+00 3.79334164e+00 3.80113991e+00 3.92339047e+00 4.12251726e+00 4.47198420e+00 4.90720926e+00 5.32511964e+00 5.97811672e+00 6.66907341e+00 7.38721552e+00 8.35780157e+00 7.54158951e+00 6.72903628e+00 6.12212581e+00 5.47729341e+00 5.00243982e+00 4.56647830e+00 4.16914467e+00 3.98166125e+00 3.89962086e+00 3.74100009e+00 3.77779750e+00 3.91963847e+00 4.05869431e+00 4.36981197e+00 4.80411764e+00 5.27954743e+00 5.85067326e+00 6.57177949e+00 7.28118889e+00 8.52766814e+00 7.77056371e+00 6.84420856e+00 6.13294391e+00 5.52947934e+00 5.08999219e+00 4.65226347e+00 4.21474265e+00 4.01053566e+00 3.84294136e+00 3.83435094e+00 3.76514204e+00 3.78816150e+00 4.06922953e+00 4.34308422e+00 4.68446075e+00 5.09808925e+00 5.73008938e+00 6.40882124e+00 7.02656459e+00 8.86001464e+00 7.89292130e+00 7.12762735e+00 6.27973363e+00 5.64985618e+00 5.07545942e+00 4.69310216e+00 4.31611436e+00 4.09660437e+00 3.89230139e+00 3.81539440e+00 3.72400287e+00 3.79818181e+00 4.08015235e+00 4.25571731e+00 4.64162407e+00 5.06747420e+00 5.65299193e+00 6.24531156e+00 6.89993901e+00 8.94695575e+00 8.09292372e+00 7.23824725e+00 6.56088488e+00 5.86282591e+00 5.26585836e+00 4.73668311e+00 4.32146263e+00 4.09341723e+00 3.83066493e+00 3.76068591e+00 3.70541418e+00 3.88928809e+00 3.95470109e+00 4.29126649e+00 4.58100182e+00 4.99808516e+00 5.46362509e+00 6.10740504e+00 6.83204436e+00 9.19873152e+00 8.20085760e+00 7.38588543e+00 6.57152350e+00 5.93701234e+00 5.30847348e+00 4.91045469e+00 4.45452272e+00 4.11708872e+00 3.95178328e+00 3.81817937e+00 3.70542494e+00 3.81140350e+00 3.94700636e+00 4.19908530e+00 4.50384376e+00 4.87219765e+00 5.41923858e+00 5.99612314e+00 6.69029115e+00 9.31916078e+00 8.36043540e+00 7.59904919e+00 6.74972687e+00 6.03118466e+00 5.52817637e+00 4.94058648e+00 4.52862778e+00 4.17490698e+00 4.01988548e+00 3.86784728e+00 3.73434176e+00 3.77130524e+00 3.93860059e+00 4.11093457e+00 4.52107815e+00 4.73230023e+00 5.22058251e+00 5.80199234e+00 6.50964302e+00 9.53618014e+00 8.52935084e+00 7.71183527e+00 6.90548631e+00 6.17797531e+00 5.60092921e+00 5.04549668e+00 4.61121997e+00 4.24467971e+00 4.00113752e+00 3.87099753e+00 3.74382222e+00 3.75367640e+00 3.81126862e+00 4.07502389e+00 4.34125267e+00 4.74258512e+00 5.19534624e+00 5.71511807e+00 6.40113326e+00
        </DataArray>
      </PointData>
    </Piece>
  </ImageData>
</VTKFile>
