<?xml version="1.0"?>
<VTKFile type="ImageData" version="0.1" byte_order="LittleEndian">
  <ImageData WholeExtent="0 19 0 19 0 0" Origin="0 0 0" Spacing="1 1 1">
    <Piece Extent="0 19 0 19 0 0">
      <PointData Scalars="Loss">
        <DataArray type="Float64" Name="Loss" format="ascii">
          3.76250753e+00 3.43710122e+00 3.16101394e+00 2.89352356e+00 2.69371952e+00 2.57767547e+00 2.43485807e+00 2.37412150e+00 2.36940229e+00 2.34442685e+00 2.39671148e+00 2.50112555e+00 2.64950006e+00 2.83420786e+00 3.06652432e+00 3.32807766e+00 3.62112664e+00 4.02933970e+00 4.38144081e+00 4.81023777e+00 3.68844111e+00 3.35321297e+00 3.07359872e+00 2.81424348e+00 2.62644027e+00 2.46546696e+00 2.33881067e+00 2.24272395e+00 2.21881798e+00 2.24185686e+00 2.31762062e+00 2.35362396e+00 2.51231288e+00 2.69301788e+00 2.90990587e+00 3.18238505e+00 3.45656335e+00 3.81129864e+00 4.22192637e+00 4.63443914e+00 3.63548770e+00 3.29148482e+00 2.99855783e+00 2.75737822e+00 2.56304284e+00 2.35043389e+00 2.25061316e+00 2.14349973e+00 2.12124450e+00 2.10536168e+00 2.18823939e+00 2.25642456e+00 2.38436663e+00 2.56774807e+00 2.77070943e+00 3.02445772e+00 3.32794977e+00 3.64459388e+00 4.05273506e+00 4.46930757e+00 3.56416980e+00 3.25964530e+00 2.93739696e+00 2.67595448e+00 2.47355432e+00 2.30064069e+00 2.17494498e+00 2.07246413e+00 2.00671920e+00 2.02793132e+00 2.04558290e+00 2.14276245e+00 2.25710623e+00 2.42029860e+00 2.65300571e+00 2.90384890e+00 3.17323909e+00 3.55647727e+00 3.90787097e+00 4.31531582e+00 3.57402830e+00 3.17888090e+00 2.88780533e+00 2.61137460e+00 2.41236246e+00 2.26675261e+00 2.12423778e+00 2.00858126e+00 1.96887152e+00 1.95180715e+00 1.98584680e+00 2.05535855e+00 2.15046841e+00 2.30115294e+00 2.52051777e+00 2.80010472e+00 3.05920776e+00 3.38665825e+00 3.79626176e+00 4.17041281e+00 3.54531269e+00 3.18302838e+00 2.87733178e+00 2.60468021e+00 2.39065113e+00 2.22194856e+00 2.04170346e+00 1.95281602e+00 1.89561672e+00 1.87214734e+00 1.87261997e+00 1.96451120e+00 2.09503287e+00 2.27261206e+00 2.42113606e+00 2.66552902e+00 2.95086933e+00 3.29402288e+00 3.62122069e+00 4.05686999e+00 3.51057672e+00 3.18664973e+00 2.88005396e+00 2.60466645e+00 2.35353241e+00 2.14687430e+00 2.00653209e+00 1.92467595e+00 1.86705767e+00 1.82101003e+00 1.83708281e+00 1.90601236e+00 2.01961379e+00 2.18568369e+00 2.33949536e+00 2.58924485e+00 2.87711391e+00 3.14884664e+00 3.53287250e+00 3.93472685e+00 3.56599927e+00 3.19199804e+00 2.89849099e+00 2.60500410e+00 2.33174722e+00 2.15996720e+00 1.97235045e+00 1.88671708e+00 1.84654962e+00 1.77992059e+00 1.77846975e+00 1.85364024e+00 1.94517323e+00 2.08421140e+00 2.31065623e+00 2.52366850e+00 2.76368958e+00 3.10711210e+00 3.43826162e+00 3.84937136e+00 3.60466560e+00 3.24603706e+00 2.87356278e+00 2.61657203e+00 2.34370058e+00 2.13007917e+00 1.99082659e+00 1.84698141e+00 1.79622665e+00 1.76805269e+00 1.81683241e+00 1.83130319e+00 1.89319205e+00 2.06321726e+00 2.22258132e+00 2.44549492e+00 2.68102909e+00 3.02426440e+00 3.35509081e+00 3.75434558e+00 3.65441397e+00 3.23283152e+00 2.92022706e+00 2.62156182e+00 2.38074528e+00 2.15889862e+00 2.00571026e+00 1.86687000e+00 1.75878246e+00 1.90661874e+00 1.93205762e+00 1.80046795e+00 1.87560918e+00 1.99830803e+00 2.20855256e+00 2.39439152e+00 2.66762341e+00 2.96398989e+00 3.29742685e+00 3.68126862e+00 3.70956626e+00 3.30855706e+00 2.98750875e+00 2.65701417e+00 2.40082109e+00 2.21930093e+00 1.99940044e+00 1.89003732e+00 1.81406689e+00 1.91074252e+00 1.91078675e+00 1.82452171e+00 1.84978472e+00 1.99238875e+00 2.18761665e+00 2.37174633e+00 2.64237854e+00 2.93121882e+00 3.24123694e+00 3.62079417e+00 3.75896239e+00 3.37435677e+00 3.02756063e+00 2.71350067e+00 2.45198680e+00 2.21239785e+00 2.06576642e+00 1.91210075e+00 1.82882437e+00 1.76213009e+00 1.77746789e+00 1.80832819e+00 1.86749794e+00 1.96704107e+00 2.15739704e+00 2.34588648e+00 2.58289060e+00 2.88628785e+00 3.22813239e+00 3.56870500e+00 3.84652939e+00 3.47059046e+00 3.10201564e+00 2.78137389e+00 2.51715261e+00 2.27311635e+00 2.10544920e+00 1.95923503e+00 1.87450292e+00 1.80705071e+00 1.77806494e+00 1.78221644e+00 1.89579349e+00 1.99716925e+00 2.14344454e+00 2.37906816e+00 2.55898713e+00 2.88022218e+00 3.17828218e+00 3.54256716e+00 3.93503766e+00 3.54030990e+00 3.18474853e+00 2.86822090e+00 2.58193779e+00 2.33708939e+00 2.15753374e+00 1.99167323e+00 1.91930847e+00 1.81586288e+00 1.83992155e+00 1.84281003e+00 1.88657864e+00 2.01464233e+00 2.19194544e+00 2.37241874e+00 2.58084812e+00 2.85925012e+00 3.20378697e+00 3.56179066e+00 4.04253796e+00 3.62044365e+00 3.26880583e+00 2.95969878e+00 2.69899682e+00 2.43223810e+00 2.20564062e+00 2.08945111e+00 1.96730036e+00 1.89201379e+00 1.85590053e+00 1.89903697e+00 1.94053367e+00 2.05882172e+00 2.18078711e+00 2.42252874e+00 2.61944867e+00 2.86879115e+00 3.19342933e+00 3.53473523e+00 4.19815153e+00 3.76272742e+00 3.41355408e+00 3.05454017e+00 2.76824309e+00 2.51491406e+00 2.33145013e+00 2.17088013e+00 2.04489149e+00 1.96785909e+00 1.92254670e+00 1.95063242e+00 2.04552129e+00 2.10746484e+00 2.25148153e+00 2.43161974e+00 2.63712917e+00 2.89944288e+00 3.22022633e+00 3.56946734e+00 4.32787682e+00 3.90047279e+00 3.52864495e+00 3.16861568e+00 2.85639349e+00 2.65703345e+00 2.45542203e+00 2.31409042e+00 2.17001141e+00 2.09545133e+00 2.01883103e+00 2.06466624e+00 2.07173800e+00 2.15943366e+00 2.30973570e+00 2.46853318e+00 2.68409266e+00 2.94305891e+00 3.26542867e+00 3.60380732e+00 4.45776044e+00 4.04214304e+00 3.67964342e+00 3.35464200e+00 3.03365248e+00 2.79156935e+00 2.52885269e+00 2.37143419e+00 2.22902429e+00 2.18423664e+00 2.13593297e+00 2.12484176e+00 2.15931686e+00 2.26844717e+00 2.40789628e+00 2.53672851e+00 2.73716307e+00 3.00054423e+00 3.29833050e+00 3.64858118e+00 4.64399859e+00 4.19431755e+00 3.80103862e+00 3.47674362e+00 3.16820753e+00 2.91749199e+00 2.67722988e+00 2.48150973e+00 2.35922635e+00 2.27914615e+00 2.22350745e+00 2.23350275e+00 2.22538039e+00 2.32807979e+00 2.46446621e+00 2.61537880e+00 2.82470713e+00 3.07575260e+00 3.36130697e+00 3.69196608e+00 4.80570705e+00 4.40355485e+00 3.98500907e+00 3.59820121e+00 3.29894476e+00 3.10042613e+00 2.85340848e+00 2.63318738e+00 2.49976217e+00 2.41073110e+00 2.34976808e+00 2.35849011e+00 2.32723854e+00 2.43205500e+00 2.55878304e+00 2.71793972e+00 2.91576809e+00 3.14275982e+00 3.40304370e+00 3.76085545e+00
        </DataArray>
      </PointData>
    </Piece>
  </ImageData>
</VTKFile>
