<?xml version="1.0"?>
<VTKFile type="ImageData" version="0.1" byte_order="LittleEndian">
  <ImageData WholeExtent="0 19 0 19 0 0" Origin="0 0 0" Spacing="1 1 1">
    <Piece Extent="0 19 0 19 0 0">
      <PointData Scalars="Loss">
        <DataArray type="Float64" Name="Loss" format="ascii">
          4.90218801e+00 4.32756552e+00 3.97469905e+00 3.59902004e+00 3.36352956e+00 3.13207305e+00 3.06059229e+00 2.92297156e+00 2.96193176e+00 3.07721292e+00 3.15933567e+00 3.44580328e+00 3.73681078e+00 4.12494165e+00 4.53671069e+00 4.99177193e+00 5.60389660e+00 6.28282263e+00 7.05935016e+00 7.87369759e+00 4.95260037e+00 4.51591250e+00 4.06806532e+00 3.69922468e+00 3.39571651e+00 3.18900986e+00 3.00955187e+00 2.96939521e+00 2.99450985e+00 2.99789373e+00 3.15180140e+00 3.39256055e+00 3.66983542e+00 3.98279669e+00 4.45045505e+00 4.89716437e+00 5.53422750e+00 6.12650234e+00 6.85126043e+00 7.62403698e+00 5.11673045e+00 4.55178769e+00 4.13840209e+00 3.75680477e+00 3.49014227e+00 3.18386611e+00 3.04800136e+00 2.99117196e+00 2.97922568e+00 2.99808929e+00 3.13250620e+00 3.31352737e+00 3.55965690e+00 3.92985036e+00 4.32949442e+00 4.81251057e+00 5.40569933e+00 5.95672269e+00 6.65937242e+00 7.44349106e+00 5.22438175e+00 4.66996876e+00 4.19115287e+00 3.83670133e+00 3.48512909e+00 3.24773474e+00 3.11057063e+00 3.01694882e+00 2.94795625e+00 2.98893482e+00 3.08670472e+00 3.25868072e+00 3.52839792e+00 3.79738639e+00 4.23863303e+00 4.66867437e+00 5.25643515e+00 5.86349515e+00 6.49367438e+00 7.23076864e+00 5.35445576e+00 4.77405168e+00 4.33634116e+00 3.97928781e+00 3.62672820e+00 3.34408911e+00 3.06064453e+00 2.98631351e+00 2.95814554e+00 2.94185862e+00 3.06361765e+00 3.21744143e+00 3.48800962e+00 3.81666381e+00 4.10581528e+00 4.51484459e+00 5.05000538e+00 5.70016084e+00 6.35000614e+00 7.06443923e+00 5.50150439e+00 4.84838319e+00 4.42058666e+00 3.98588591e+00 3.64644416e+00 3.37046736e+00 3.15715951e+00 3.01947643e+00 2.97513271e+00 3.00419042e+00 3.03641171e+00 3.20893254e+00 3.41212138e+00 3.65855373e+00 4.03478247e+00 4.47505564e+00 4.97515456e+00 5.50500332e+00 6.15163095e+00 6.79964490e+00 5.65497209e+00 5.06321919e+00 4.52957675e+00 4.09928380e+00 3.72765135e+00 3.39938589e+00 3.24614729e+00 3.05352325e+00 2.97715995e+00 2.91154589e+00 3.03946293e+00 3.11026478e+00 3.31387153e+00 3.57335176e+00 3.93609451e+00 4.36086964e+00 4.80739023e+00 5.33240443e+00 5.95826827e+00 6.72309699e+00 5.76717293e+00 5.23910999e+00 4.63409497e+00 4.13078975e+00 3.81017959e+00 3.48801356e+00 3.22303098e+00 3.08297560e+00 2.95338855e+00 2.95479886e+00 2.95870330e+00 3.04532340e+00 3.33692593e+00 3.55353563e+00 3.81533838e+00 4.24938470e+00 4.66299588e+00 5.23135785e+00 5.83906852e+00 6.53576473e+00 5.87319651e+00 5.29889863e+00 4.80539869e+00 4.29301522e+00 3.86218443e+00 3.55327331e+00 3.29569562e+00 3.09568001e+00 2.98409724e+00 3.00777000e+00 3.01151738e+00 3.05287743e+00 3.24114308e+00 3.42935879e+00 3.77635119e+00 4.13284268e+00 4.57725936e+00 5.10088155e+00 5.69578335e+00 6.37629382e+00 6.05775646e+00 5.39301362e+00 4.86768733e+00 4.34425844e+00 3.95279071e+00 3.63430211e+00 3.38480397e+00 3.11902758e+00 3.00760108e+00 2.64632802e+00 2.65083841e+00 3.04153907e+00 3.15892588e+00 3.39084207e+00 3.66923982e+00 4.03597018e+00 4.41973477e+00 4.97794198e+00 5.54984309e+00 6.19779695e+00 6.19919203e+00 5.57083446e+00 4.99911450e+00 4.50622998e+00 4.06362987e+00 3.72728148e+00 3.37892653e+00 3.12942315e+00 3.02338303e+00 2.62025729e+00 2.60615617e+00 3.01743080e+00 3.16248756e+00 3.36437792e+00 3.62829797e+00 3.98724813e+00 4.31506244e+00 4.83576097e+00 5.35745846e+00 5.96908298e+00 6.40439139e+00 5.67643225e+00 5.07492525e+00 4.58745596e+00 4.15450602e+00 3.76595762e+00 3.49258772e+00 3.23995721e+00 3.09500309e+00 2.96564312e+00 2.93336425e+00 2.95649244e+00 3.11640723e+00 3.28884635e+00 3.58610268e+00 3.84436795e+00 4.25366845e+00 4.71892690e+00 5.28860402e+00 5.84756020e+00 6.51307345e+00 5.84430316e+00 5.27628276e+00 4.74414723e+00 4.24557118e+00 3.83882906e+00 3.49397415e+00 3.27600396e+00 3.09149162e+00 2.96036852e+00 2.90109509e+00 2.99998535e+00 3.08513382e+00 3.26089639e+00 3.48264756e+00 3.77318450e+00 4.14834763e+00 4.63111585e+00 5.14876985e+00 5.80413961e+00 6.72980341e+00 5.99328071e+00 5.40119621e+00 4.81712187e+00 4.36415165e+00 3.83723028e+00 3.60855360e+00 3.32579590e+00 3.16731009e+00 2.98317453e+00 2.97680591e+00 2.93168819e+00 3.02434047e+00 3.21254600e+00 3.40728543e+00 3.68763431e+00 4.09676678e+00 4.48265295e+00 4.93656535e+00 5.54664326e+00 6.85778115e+00 6.14387405e+00 5.53085452e+00 4.94822898e+00 4.43374981e+00 4.07599428e+00 3.65432440e+00 3.41127922e+00 3.18603584e+00 3.00840927e+00 2.89331947e+00 2.95362171e+00 2.96086711e+00 3.16980024e+00 3.36894698e+00 3.64348169e+00 3.95989214e+00 4.41565931e+00 4.88354521e+00 5.49218981e+00 6.98458833e+00 6.32890704e+00 5.63619254e+00 5.12044453e+00 4.53628288e+00 4.11174061e+00 3.76096852e+00 3.43977897e+00 3.20997239e+00 3.06832017e+00 3.00623801e+00 2.91636141e+00 2.99709504e+00 3.07911349e+00 3.34695075e+00 3.55816478e+00 3.89941288e+00 4.25392850e+00 4.74358768e+00 5.35119198e+00 7.18436468e+00 6.49240759e+00 5.73085469e+00 5.16941790e+00 4.67981676e+00 4.21003129e+00 3.83435678e+00 3.48896319e+00 3.25366958e+00 3.10203594e+00 2.96414651e+00 2.94817590e+00 2.97121201e+00 3.06975196e+00 3.23010577e+00 3.54931184e+00 3.79448794e+00 4.18854200e+00 4.66671156e+00 5.15172396e+00 7.39068352e+00 6.64374891e+00 5.92343848e+00 5.36517423e+00 4.78261520e+00 4.29795914e+00 3.95148199e+00 3.57508883e+00 3.33229421e+00 3.15113727e+00 3.05574068e+00 2.97796114e+00 2.98748933e+00 3.04734232e+00 3.18919337e+00 3.44801167e+00 3.72499197e+00 4.09770452e+00 4.51961493e+00 5.03012070e+00 7.56383207e+00 6.77917205e+00 6.06076355e+00 5.43336897e+00 4.85679214e+00 4.40976148e+00 4.04349151e+00 3.64838472e+00 3.34992576e+00 3.17757260e+00 3.02345341e+00 2.95440970e+00 2.96455235e+00 3.04105909e+00 3.18549877e+00 3.41265720e+00 3.68111676e+00 4.00869806e+00 4.41371279e+00 4.85252470e+00 7.80126546e+00 6.95751766e+00 6.28018114e+00 5.59988848e+00 5.03391625e+00 4.51759299e+00 4.10717409e+00 3.74053777e+00 3.43293519e+00 3.19556903e+00 3.03840100e+00 3.00964550e+00 2.88741457e+00 2.98902655e+00 3.13520552e+00 3.29845589e+00 3.62425739e+00 3.89983612e+00 4.32395484e+00 4.76679943e+00
        </DataArray>
      </PointData>
    </Piece>
  </ImageData>
</VTKFile>
